; Generated with MatterSlice 1.0
; filamentDiameter = 2.85
; extrusionWidth = 0.5
; firstLayerExtrusionWidth = 1
; layerThickness = 0.21
; firstLayerThickness = 0.42
; automatic settings before start_gcode
G21 ; set units to millimeters
M107 ; fan off
M190 S115 ; wait for bed temperature to be reached
M104 T0 S240 ; start heating extruder 0
T0 ; set the active extruder to 0
; settings from start_gcode
G28 ; home all axes
M117 HD Printing...
; automatic settings after start_gcode
M109 T0 S240 ; wait for extruder 0 to reach temperature
T0 ; set the active extruder to 0
G90 ; use absolute coordinates
G92 E0 ; reset the expected extruder position
M82 ; use absolute distance for extrusion
; Layer count: 155
; LAYER:0
M107
G0 F6000 X158.522 Y63.789 Z0.42
; TYPE:SKIRT
G1 F3000 E0
G1 F900 X183.822 Y63.199 E1.66613
G1 X184.413 Y88.498 E3.33219
G1 X190.043 Y88.366 E3.70295
G1 X190.479 Y107.027 E4.93187
G1 X184.849 Y107.159 E5.30264
G1 X185.44 Y132.459 E6.96877
G1 X160.141 Y133.051 E8.63483
G1 X160.177 Y134.617 E8.73796
G1 X160.272 Y138.681 E9.00559
G1 X160.064 Y138.686 E9.01929
G1 X160.07 Y138.961 E9.0374
G1 X157.479 Y141.682 E9.28477
G1 X152.966 Y141.786 E9.58197
G1 X150.939 Y140.029 E9.75858
G1 X149.18 Y141.876 E9.9265
G1 X144.667 Y141.98 E10.2237
G1 X141.843 Y139.532 E10.46976
G1 X141.821 Y138.747 E10.52146
G1 X141.598 Y138.636 E10.53786
G1 X141.505 Y134.617 E10.80253
G1 X141.479 Y133.487 E10.87694
G1 X116.179 Y134.077 E12.54307
G1 X115.588 Y108.777 E14.2092
G1 X109.958 Y108.909 E14.57996
G1 X109.522 Y90.248 E15.80888
G1 X115.152 Y90.116 E16.17965
G1 X114.561 Y64.816 E17.84578
G1 X139.861 Y64.225 E19.5119
G1 X139.729 Y58.61 E19.88168
G1 X158.39 Y58.154 E21.11063
G1 X158.522 Y63.789 E21.48172
G0 F6000 X157.546 Y64.812
G1 F900 X182.845 Y64.222 E23.14779
G1 X183.436 Y89.521 E24.81385
G1 X189.066 Y89.389 E25.18461
G1 X189.456 Y106.051 E26.28189
G1 X183.826 Y106.183 E26.65265
G1 X184.417 Y131.482 E28.31872
G1 X159.118 Y132.074 E29.98478
G1 X159.14 Y133.054 E30.04932
G1 X159.249 Y137.704 E30.35554
G1 X159.083 Y137.708 E30.36648
G1 X159.041 Y137.731 E30.36963
G1 X159.061 Y138.571 E30.42495
G1 X157.041 Y140.691 E30.61774
G1 X153.329 Y140.777 E30.86219
G1 X151.129 Y138.87 E31.05387
G1 X151.103 Y137.923 E31.11624
G1 X151.048 Y137.896 E31.12027
G1 X150.783 Y137.902 E31.13773
G1 X150.742 Y137.925 E31.14082
G1 X150.762 Y138.765 E31.19614
G1 X148.742 Y140.885 E31.38893
G1 X145.03 Y140.971 E31.63338
G1 X142.83 Y139.064 E31.82506
G1 X142.804 Y138.117 E31.88743
G1 X142.584 Y138.008 E31.9036
G1 X142.505 Y134.594 E32.12843
G1 X142.456 Y132.464 E32.2687
G1 X117.156 Y133.054 E33.93482
G1 X116.565 Y107.754 E35.60095
G1 X110.935 Y107.886 E35.97172
G1 X110.545 Y91.224 E37.06899
G1 X116.175 Y91.092 E37.43976
G1 X115.584 Y65.793 E39.10582
G1 X140.884 Y65.202 E40.77195
G1 X140.752 Y59.585 E41.14186
G1 X157.414 Y59.179 E42.23916
G1 X157.546 Y64.812 E42.61012
G0 F6000 X156.57 Y65.836
G1 F900 X181.869 Y65.245 E44.27618
G1 X182.46 Y90.544 E45.94225
G1 X188.09 Y90.412 E46.31301
G1 X188.433 Y105.075 E47.27864
G1 X182.802 Y105.207 E47.64947
G1 X183.394 Y130.506 E49.31554
G1 X158.094 Y131.098 E50.98167
G1 X158.109 Y131.729 E51.02322
G1 X158.11 Y131.729 E51.02329
G1 X158.171 Y134.365 E51.19688
G1 X158.226 Y136.728 E51.35249
G1 X158.225 Y136.728 E51.35256
G1 X158.232 Y137.036 E51.37284
G1 X158.027 Y137.15 E51.38829
G1 X158.051 Y138.18 E51.45612
G1 X156.603 Y139.701 E51.59438
G1 X153.692 Y139.769 E51.78608
G1 X152.116 Y138.403 E51.92339
G1 X152.085 Y137.293 E51.9965
G1 X151.869 Y137.186 E52.01237
G1 X151.862 Y136.877 E52.03272
G1 X149.926 Y136.922 E52.16021
G1 X149.933 Y137.23 E52.18049
G1 X149.728 Y137.344 E52.19594
G1 X149.752 Y138.374 E52.26377
G1 X148.304 Y139.895 E52.40203
G1 X145.393 Y139.963 E52.59373
G1 X143.817 Y138.597 E52.73104
G1 X143.786 Y137.487 E52.80415
G1 X143.57 Y137.38 E52.82002
G1 X143.505 Y134.571 E53.005
G1 X143.432 Y131.44 E53.2112
G1 X118.132 Y132.031 E54.87732
G1 X117.541 Y106.731 E56.54345
G1 X111.911 Y106.863 E56.91422
G1 X111.568 Y92.2 E57.87985
G1 X117.199 Y92.068 E58.25068
G1 X116.607 Y66.769 E59.91674
G1 X141.907 Y66.178 E61.58287
G1 X141.775 Y60.561 E61.95278
G1 X156.438 Y60.203 E62.91844
G1 X156.57 Y65.836 E63.2894
G0 F6000 X153.196 Y63.951
G0 X152.847 Y63.756
G0 X152.922 Y63.798
G0 X152.922 Y63.798
G0 X153.509 Y63.275
; TYPE:WALL-OUTER
G1 F900 X153.641 Y68.905 E63.66016
G1 X178.94 Y68.315 E65.32622
G1 X179.531 Y93.614 E66.99229
G1 X185.161 Y93.482 E67.36305
G1 X185.363 Y102.146 E67.93362
G1 X179.733 Y102.278 E68.30438
G1 X180.324 Y127.577 E69.97044
G1 X155.024 Y128.169 E71.63657
G1 X155.156 Y133.799 E72.00734
G1 X146.858 Y133.993 E72.5538
G1 X146.892 Y135.489 E72.65232
G1 X146.712 Y135.589 E72.66588
G1 X146.527 Y135.497 E72.67948
G1 X146.416 Y130.706 E72.99499
G1 X146.962 Y130.693 E73.03095
G1 X146.912 Y128.601 E73.16872
G1 X146.366 Y128.614 E73.20467
G1 X146.36 Y128.371 E73.22068
G1 X121.061 Y128.961 E74.88674
G1 X120.47 Y103.661 E76.55287
G1 X114.84 Y103.793 E76.92363
G1 X114.638 Y95.129 E77.4942
G1 X120.268 Y94.997 E77.86496
G1 X119.677 Y69.698 E79.53102
G1 X144.977 Y69.107 E81.19715
G1 X144.845 Y63.487 E81.56726
G1 X152.609 Y63.298 E82.07857
G0 F6000 X152.827 Y63.732
; TYPE:FILL
G1 F900 X153.085 Y63.989 E82.10254
G0 F6000 X153.119 Y65.437
G1 F900 X151.446 Y63.765 E82.25827
G0 F6000 X150.066 Y63.799
G1 F900 X153.153 Y66.886 E82.54569
G0 F6000 X153.187 Y68.334
G1 F900 X148.686 Y63.833 E82.96477
G0 F6000 X147.305 Y63.867
G1 F900 X184.905 Y101.466 E86.46556
G0 F6000 X183.767 Y101.743
G1 F900 X145.924 Y63.9 E89.98903
G0 F6000 X145.313 Y64.703
G1 F900 X182.386 Y101.776 E93.4408
G0 F6000 X181.004 Y101.808
G1 F900 X145.347 Y66.151 E96.76074
G0 F6000 X145.381 Y67.6
G1 F900 X179.622 Y101.841 E99.94883
G0 F6000 X179.306 Y102.939
G1 F900 X145.415 Y69.048 E103.10434
G0 F6000 X144.51 Y69.557
G1 F900 X179.34 Y104.387 E106.34727
G0 F6000 X179.374 Y105.835
G1 F900 X143.129 Y69.589 E109.722
G0 F6000 X141.746 Y69.621
G1 F900 X179.408 Y107.283 E113.22862
G0 F6000 X179.441 Y108.731
G1 F900 X140.364 Y69.654 E116.86698
G0 F6000 X138.983 Y69.686
G1 F900 X179.475 Y110.179 E120.63713
G0 F6000 X179.509 Y111.627
G1 F900 X137.6 Y69.718 E124.53918
G0 F6000 X136.219 Y69.751
G1 F900 X179.543 Y113.075 E128.57297
G0 F6000 X179.577 Y114.523
G1 F900 X134.837 Y69.783 E132.7386
G0 F6000 X133.455 Y69.815
G1 F900 X179.611 Y115.971 E137.03607
G0 F6000 X179.645 Y117.42
G1 F900 X132.073 Y69.848 E141.46538
G0 F6000 X130.691 Y69.879
G1 F900 X179.678 Y118.867 E146.02648
G0 F6000 X179.712 Y120.315
G1 F900 X129.309 Y69.912 E150.71938
G0 F6000 X127.927 Y69.944
G1 F900 X179.746 Y121.763 E155.54411
G0 F6000 X179.78 Y123.211
G1 F900 X126.545 Y69.976 E160.50069
G0 F6000 X125.163 Y70.009
G1 F900 X179.814 Y124.66 E165.58911
G0 F6000 X179.848 Y126.108
G1 F900 X123.781 Y70.041 E170.80937
G0 F6000 X122.399 Y70.073
G1 F900 X179.482 Y127.156 E176.12423
G0 F6000 X178.101 Y127.189
G1 F900 X121.017 Y70.106 E181.43913
G0 F6000 X120.139 Y70.642
G1 F900 X176.718 Y127.221 E186.70706
G0 F6000 X175.337 Y127.253
G1 F900 X120.173 Y72.09 E191.84319
G0 F6000 X120.207 Y73.538
G1 F900 X173.955 Y127.286 E196.84753
G0 F6000 X172.573 Y127.318
G1 F900 X120.24 Y74.985 E201.72013
G0 F6000 X120.274 Y76.434
G1 F900 X171.191 Y127.351 E206.46088
G0 F6000 X169.809 Y127.383
G1 F900 X120.308 Y77.882 E211.0698
G0 F6000 X120.342 Y79.33
G1 F900 X168.427 Y127.415 E215.54687
G0 F6000 X167.046 Y127.448
G1 F900 X120.376 Y80.778 E219.8922
G0 F6000 X120.409 Y82.225
G1 F900 X165.664 Y127.48 E224.10578
G0 F6000 X164.282 Y127.512
G1 F900 X120.443 Y83.674 E228.18747
G0 F6000 X120.477 Y85.122
G1 F900 X162.9 Y127.545 E232.13737
G0 F6000 X161.518 Y127.577
G1 F900 X120.511 Y86.57 E235.95543
G0 F6000 X120.545 Y88.018
G1 F900 X160.137 Y127.61 E239.64175
G0 F6000 X158.754 Y127.641
G1 F900 X120.578 Y89.465 E243.19622
G0 F6000 X120.612 Y90.914
G1 F900 X157.372 Y127.674 E246.61885
G0 F6000 X155.991 Y127.707
G1 F900 X120.646 Y92.362 E249.90973
G0 F6000 X120.68 Y93.81
G1 F900 X154.609 Y127.739 E253.06878
G0 F6000 X154.605 Y129.149
G1 F900 X120.713 Y95.257 E256.22438
G0 F6000 X119.496 Y95.454
G1 F900 X154.639 Y130.597 E259.49646
G0 F6000 X154.635 Y130.395
G1 F900 X154.586 Y130.919 E259.50796
G1 X154.542 Y131.6 E259.55289
G0 F6000 X154.673 Y132.045
G1 F900 X118.114 Y95.486 E262.9568
G0 F6000 X116.732 Y95.519
G1 F900 X154.585 Y133.372 E266.4812
G0 F6000 X153.203 Y133.404
G1 F900 X115.351 Y95.552 E270.00551
G0 F6000 X115.114 Y96.73
G1 F900 X146.315 Y127.931 E272.91056
G0 F6000 X144.933 Y127.962
G1 F900 X120.915 Y103.944 E275.14681
G0 F6000 X120.196 Y103.225
G1 F900 X115.148 Y98.178 E275.61677
G0 F6000 X115.182 Y99.625
G1 F900 X118.815 Y103.258 E275.95503
G0 F6000 X117.433 Y103.291
G1 F900 X115.215 Y101.073 E276.16154
G0 F6000 X115.249 Y102.521
G1 F900 X116.051 Y103.323 E276.23622
G0 F6000 X116.047 Y103.166
G0 X116.079 Y103.179
G0 X121.096 Y103.006
G0 X121.11 Y105.388
G0 X120.949 Y105.392
G1 F900 X143.551 Y127.995 E278.34068
G0 F6000 X142.169 Y128.027
G1 F900 X120.983 Y106.841 E280.31325
G0 F6000 X121.017 Y108.289
G1 F900 X140.787 Y128.059 E282.15399
G0 F6000 X139.405 Y128.091
G1 F900 X121.051 Y109.737 E283.86288
G0 F6000 X121.084 Y111.185
G1 F900 X138.023 Y128.124 E285.44003
G0 F6000 X136.641 Y128.156
G1 F900 X121.118 Y112.633 E286.88534
G0 F6000 X121.152 Y114.081
G1 F900 X135.259 Y128.188 E288.19881
G0 F6000 X133.877 Y128.22
G1 F900 X121.186 Y115.529 E289.38044
G0 F6000 X121.22 Y116.978
G1 F900 X132.495 Y128.252 E290.43018
G0 F6000 X131.113 Y128.284
G1 F900 X121.253 Y118.425 E291.34817
G0 F6000 X121.287 Y119.873
G1 F900 X129.731 Y128.317 E292.13437
G0 F6000 X128.349 Y128.349
G1 F900 X121.321 Y121.321 E292.78873
G0 F6000 X121.355 Y122.77
G1 F900 X126.967 Y128.381 E293.3112
G0 F6000 X125.584 Y128.413
G1 F900 X121.389 Y124.218 E293.70179
G0 F6000 X121.423 Y125.666
G1 F900 X124.203 Y128.445 E293.96058
G0 F6000 X122.82 Y128.477
G1 F900 X121.457 Y127.114 E294.08749
G1 F3000 E287.08749
G0 F6000 X121.618 Y127.112
G0 X128.511 Y128.25
G0 X146.985 Y127.716
G0 X147.538 Y127.945
G0 X147.618 Y131.319
G0 X147.03 Y131.309
G0 X146.869 Y131.313
G1 F3000 E294.08749
G1 F900 X149.057 Y133.501 E294.2912
G0 F6000 X150.439 Y133.469
G1 F900 X147.394 Y130.424 E294.57472
G0 F6000 X147.36 Y128.975
G1 F900 X151.821 Y133.436 E294.99007
G0 F6000 X151.818 Y133.277
G0 X147.672 Y133.374
G0 X147.672 Y133.374
G0 X147.675 Y133.533
G1 F900 X146.902 Y132.76 E295.06204
G1 F3000 E288.06204
G0 F6000 X147.064 Y132.757
G0 X179.139 Y104.867
G0 X179.078 Y101.652
G0 X184.714 Y100.021
G0 X184.871 Y100.018
G1 F3000 E295.06204
G1 F900 X154.186 Y69.333 E297.91905
G0 F6000 X155.567 Y69.3
G1 F900 X179.071 Y92.804 E300.10744
G0 F6000 X179.038 Y91.357
G1 F900 X156.95 Y69.268 E302.16405
G0 F6000 X158.331 Y69.236
G1 F900 X179.004 Y89.909 E304.08886
G0 F6000 X178.97 Y88.461
G1 F900 X159.714 Y69.204 E305.88179
G0 F6000 X161.095 Y69.172
G1 F900 X178.936 Y87.013 E307.54292
G0 F6000 X178.902 Y85.564
G1 F900 X162.478 Y69.14 E309.07211
G0 F6000 X163.859 Y69.107
G1 F900 X178.869 Y84.116 E310.46961
G0 F6000 X178.835 Y82.668
G1 F900 X165.241 Y69.075 E311.73527
G0 F6000 X166.624 Y69.043
G1 F900 X178.801 Y81.221 E312.86908
G0 F6000 X178.767 Y79.772
G1 F900 X168.005 Y69.01 E313.87111
G0 F6000 X169.388 Y68.978
G1 F900 X178.733 Y78.324 E314.74124
G0 F6000 X178.7 Y76.876
G1 F900 X170.769 Y68.946 E315.47963
G0 F6000 X172.152 Y68.914
G1 F900 X178.666 Y75.428 E316.08613
G0 F6000 X178.632 Y73.98
G1 F900 X173.533 Y68.882 E316.56084
G0 F6000 X174.915 Y68.849
G1 F900 X178.598 Y72.532 E316.90376
G0 F6000 X178.564 Y71.084
G1 F900 X176.297 Y68.817 E317.11483
G0 F6000 X177.679 Y68.785
G1 F900 X178.531 Y69.636 E317.19411
G1 F3000 E310.19411
G0 F6000 X178.37 Y69.638
G0 X178.495 Y71.23
G0 X178.527 Y71.629
G0 X180.303 Y94.036
G0 X180.303 Y94.036
G1 F3000 E317.19411
G1 F900 X184.838 Y98.571 E317.61636
G0 F6000 X184.805 Y97.123
G1 F900 X181.685 Y94.004 E317.90681
G0 F6000 X183.067 Y93.971
G1 F900 X184.771 Y95.675 E318.06546
G0 F6000 X184.738 Y94.228
G1 F900 X184.448 Y93.939 E318.09242
G1 F3000 E311.09242
G0 F6000 X155.18 Y134.799
; TYPE:WALL-OUTER
G1 F3000 E318.09242
G1 F900 X155.191 Y135.295 E318.12508
G1 X155.011 Y135.395 E318.13864
G1 X154.862 Y135.321 E318.14959
; LAYER:1
G0 F6000 X154.819 Y133.392 Z0.63
G0 X155.138 Y133.385
G0 X155.138 Y133.385
G0 X155.405 Y133.728
; TYPE:WALL-OUTER
G1 F1800 X147.106 Y133.922 E318.28622
G1 X147.146 Y135.634 E318.31441
G1 X146.941 Y135.748 E318.31827
G1 X146.952 Y136.238 E318.32633
G1 X146.734 Y136.516 E318.33215
G1 X146.502 Y136.248 E318.33798
G1 X146.49 Y135.758 E318.34605
G1 X146.281 Y135.654 E318.34989
G1 X146.16 Y130.462 E318.43537
G1 X146.706 Y130.449 E318.44436
G1 X146.668 Y128.857 E318.47057
G1 X146.122 Y128.87 E318.47956
G1 X146.114 Y128.53 E318.48516
G1 X120.911 Y129.119 E318.9001
G1 X120.322 Y103.915 E319.31505
G1 X114.911 Y104.042 E319.40413
G1 X114.697 Y94.878 E319.55501
G1 X120.108 Y94.751 E319.64409
G1 X119.519 Y69.548 E320.05903
G1 X144.723 Y68.959 E320.47398
G1 X144.596 Y63.548 E320.56306
G1 X153.76 Y63.334 E320.71394
G1 X153.887 Y68.745 E320.80302
G1 X179.09 Y68.157 E321.21796
G1 X179.679 Y93.36 E321.63289
G1 X185.09 Y93.233 E321.72198
G1 X185.304 Y102.397 E321.87285
G1 X179.893 Y102.524 E321.96194
G1 X180.482 Y127.727 E322.37687
G1 X155.278 Y128.317 E322.79183
G1 X155.394 Y133.278 E322.8735
G0 F6000 X155.203 Y133.295
; TYPE:FILL
G1 F1800 X154.949 Y133.549 E322.87941
G0 F6000 X154.226 Y133.566
G1 F1800 X155.187 Y132.605 E322.90178
G0 F6000 X155.171 Y131.914
G1 F1800 X153.502 Y133.583 E322.94063
G0 F6000 X152.778 Y133.6
G1 F1800 X155.154 Y131.223 E322.99595
G0 F6000 X155.138 Y130.532
G1 F1800 X152.054 Y133.617 E323.06775
G0 F6000 X151.33 Y133.633
G1 F1800 X155.122 Y129.841 E323.15601
G0 F6000 X155.106 Y129.15
G1 F1800 X150.605 Y133.65 E323.26077
G0 F6000 X149.881 Y133.667
G1 F1800 X155.09 Y128.459 E323.38201
G0 F6000 X155.425 Y128.124
G1 F1800 X179.732 Y103.817 E323.9478
G0 F6000 X179.716 Y103.126
G1 F1800 X149.157 Y133.684 E324.65911
G0 F6000 X148.433 Y133.701
G1 F1800 X179.699 Y102.435 E325.38688
G0 F6000 X179.798 Y102.336
G1 F1800 X184.991 Y97.144 E325.50775
G0 F6000 X185.007 Y97.835
G1 F1800 X180.522 Y102.319 E325.61213
G0 F6000 X181.247 Y102.302
G1 F1800 X185.022 Y98.526 E325.70001
G0 F6000 X185.039 Y99.217
G1 F1800 X181.971 Y102.285 E325.77143
G0 F6000 X182.695 Y102.268
G1 F1800 X185.054 Y99.909 E325.82634
G0 F6000 X185.071 Y100.6
G1 F1800 X183.419 Y102.251 E325.86478
G0 F6000 X184.144 Y102.234
G1 F1800 X185.087 Y101.29 E325.88674
G0 F6000 X185.102 Y101.982
G1 F1800 X184.868 Y102.217 E325.8922
G0 F6000 X184.866 Y102.058
G0 X184.822 Y102.078
G0 X179.493 Y102.142
G0 X179.59 Y104.511
G0 X179.748 Y104.508
G1 F1800 X156.149 Y128.107 E326.44151
G0 F6000 X156.873 Y128.09
G1 F1800 X179.764 Y105.199 E326.97434
G0 F6000 X179.78 Y105.89
G1 F1800 X157.597 Y128.073 E327.49069
G0 F6000 X158.321 Y128.056
G1 F1800 X179.796 Y106.581 E327.99056
G0 F6000 X179.813 Y107.272
G1 F1800 X159.045 Y128.039 E328.47397
G0 F6000 X159.77 Y128.022
G1 F1800 X179.829 Y107.963 E328.94088
G0 F6000 X179.844 Y108.654
G1 F1800 X160.494 Y128.005 E329.3913
G0 F6000 X161.218 Y127.988
G1 F1800 X179.861 Y109.345 E329.82525
G0 F6000 X179.877 Y110.036
G1 F1800 X161.942 Y127.971 E330.24272
G0 F6000 X162.666 Y127.954
G1 F1800 X179.893 Y110.727 E330.64371
G0 F6000 X179.909 Y111.418
G1 F1800 X163.39 Y127.937 E331.02822
G0 F6000 X164.114 Y127.92
G1 F1800 X179.926 Y112.108 E331.39627
G0 F6000 X179.941 Y112.8
G1 F1800 X164.838 Y127.903 E331.74782
G0 F6000 X165.562 Y127.886
G1 F1800 X179.957 Y113.491 E332.08289
G0 F6000 X179.974 Y114.182
G1 F1800 X166.286 Y127.869 E332.4015
G0 F6000 X167.01 Y127.852
G1 F1800 X179.99 Y114.873 E332.70362
G0 F6000 X180.006 Y115.563
G1 F1800 X167.734 Y127.835 E332.98927
G0 F6000 X168.458 Y127.818
G1 F1800 X180.022 Y116.255 E333.25843
G0 F6000 X180.038 Y116.946
G1 F1800 X169.183 Y127.801 E333.5111
G0 F6000 X169.907 Y127.784
G1 F1800 X180.054 Y117.637 E333.7473
G0 F6000 X180.071 Y118.327
G1 F1800 X170.631 Y127.767 E333.96703
G0 F6000 X171.355 Y127.75
G1 F1800 X180.087 Y119.018 E334.17028
G0 F6000 X180.102 Y119.71
G1 F1800 X172.079 Y127.733 E334.35703
G0 F6000 X172.803 Y127.716
G1 F1800 X180.119 Y120.401 E334.52731
G0 F6000 X180.135 Y121.092
G1 F1800 X173.527 Y127.699 E334.68112
G0 F6000 X174.251 Y127.682
G1 F1800 X180.151 Y121.782 E334.81845
G0 F6000 X180.167 Y122.473
G1 F1800 X174.975 Y127.666 E334.93932
G0 F6000 X175.699 Y127.649
G1 F1800 X180.184 Y123.164 E335.04371
G0 F6000 X180.199 Y123.856
G1 F1800 X176.423 Y127.632 E335.13161
G0 F6000 X177.147 Y127.615
G1 F1800 X180.216 Y124.546 E335.20304
G0 F6000 X180.232 Y125.237
G1 F1800 X177.872 Y127.598 E335.25799
G0 F6000 X178.596 Y127.581
G1 F1800 X180.248 Y125.928 E335.29645
G0 F6000 X180.264 Y126.619
G1 F1800 X179.32 Y127.564 E335.31844
G0 F6000 X180.044 Y127.547
G1 F1800 X180.28 Y127.311 E335.32393
G1 F3000 E328.32393
G0 F6000 X180.123 Y127.316
G0 X180.178 Y126.952
G0 X179.493 Y102.142
G0 X184.816 Y96.456
G0 X184.974 Y96.453
G1 F3000 E335.32393
G1 F1800 X147.709 Y133.718 E336.19134
G0 F6000 X146.985 Y133.735
G1 F1800 X184.959 Y95.762 E337.07525
G0 F6000 X184.943 Y95.071
G1 F1800 X146.422 Y133.592 E337.9719
G0 F6000 X146.79 Y133.677
G1 F1800 X146.91 Y133.727 E337.9739
G1 X146.683 Y134.391 E337.98492
G1 X146.633 Y134.833 E337.99595
G1 X146.94 Y135.003 E337.9988
G1 X146.556 Y135.579 E338.0102
G0 F6000 X146.627 Y135.436
G0 X146.568 Y132.896
G0 X146.568 Y132.896
G0 X146.406 Y132.9
G1 F1800 X184.926 Y94.38 E338.90682
G0 F6000 X184.911 Y93.688
G1 F1800 X146.39 Y132.209 E339.80347
G0 F6000 X146.374 Y131.518
G1 F1800 X184.454 Y93.438 E340.68985
G0 F6000 X183.73 Y93.455
G1 F1800 X146.891 Y130.294 E341.54735
G0 F6000 X146.543 Y130.642
G1 F1800 X146.358 Y130.827 E341.55166
G0 F6000 X146.874 Y129.604
G1 F1800 X183.006 Y93.472 E342.3927
G0 F6000 X182.282 Y93.489
G1 F1800 X146.858 Y128.913 E343.21726
G0 F6000 X146.391 Y128.672
G1 F1800 X181.558 Y93.506 E344.03582
G0 F6000 X180.834 Y93.523
G1 F1800 X146.015 Y128.342 E344.8463
G0 F6000 X145.291 Y128.358
G1 F1800 X180.109 Y93.54 E345.65675
G0 F6000 X179.49 Y93.452
G1 F1800 X144.567 Y128.375 E346.46965
G0 F6000 X143.843 Y128.392
G1 F1800 X179.473 Y92.762 E347.29901
G0 F6000 X179.342 Y92.257
G1 F1800 X179.452 Y91.847 E347.30599
G0 F6000 X179.457 Y92.071
G1 F1800 X143.119 Y128.409 E348.15183
G0 F6000 X142.395 Y128.426
G1 F1800 X179.441 Y91.38 E349.01415
G0 F6000 X179.425 Y90.689
G1 F1800 X141.671 Y128.443 E349.89294
G0 F6000 X140.947 Y128.46
G1 F1800 X179.409 Y89.998 E350.78822
G0 F6000 X179.276 Y89.483
G1 F1800 X179.396 Y89.451 E350.79026
G0 F6000 X179.392 Y89.307
G1 F1800 X140.223 Y128.477 E351.702
G0 F6000 X139.499 Y128.494
G1 F1800 X179.376 Y88.616 E352.63023
G0 F6000 X179.373 Y88.475
G1 F1800 X179.25 Y88.352 E352.63309
G0 F6000 X179.361 Y87.925
G1 F1800 X138.775 Y128.511 E353.57781
G0 F6000 X138.051 Y128.527
G1 F1800 X179.344 Y87.234 E354.53898
G0 F6000 X179.328 Y86.543
G1 F1800 X137.327 Y128.544 E355.51663
G0 F6000 X136.603 Y128.561
G1 F1800 X179.312 Y85.852 E356.51076
G0 F6000 X179.296 Y85.161
G1 F1800 X135.879 Y128.578 E357.52137
G0 F6000 X135.155 Y128.595
G1 F1800 X179.28 Y84.47 E358.54847
G0 F6000 X179.294 Y85.043
G1 F1800 X179.174 Y85.075 E358.55051
G0 F6000 X179.264 Y83.779
G1 F1800 X134.431 Y128.612 E359.59408
G0 F6000 X133.707 Y128.629
G1 F1800 X179.248 Y83.088 E360.65413
G0 F6000 X179.231 Y82.397
G1 F1800 X132.983 Y128.646 E361.73065
G0 F6000 X132.259 Y128.663
G1 F1800 X179.215 Y81.706 E362.82366
G0 F6000 X179.106 Y82.148
G1 F1800 X179.228 Y82.27 E362.8265
G0 F6000 X179.199 Y81.015
G1 F1800 X131.535 Y128.679 E363.93596
G0 F6000 X130.811 Y128.696
G1 F1800 X179.183 Y80.324 E365.06191
G0 F6000 X179.19 Y80.634
G1 F1800 X179.071 Y80.666 E365.06394
G0 F6000 X179.167 Y79.633
G1 F1800 X130.087 Y128.713 E366.20637
G0 F6000 X129.363 Y128.73
G1 F1800 X179.151 Y78.942 E367.36528
G0 F6000 X179.135 Y78.251
G1 F1800 X128.639 Y128.747 E368.54067
G0 F6000 X127.915 Y128.764
G1 F1800 X179.119 Y77.56 E369.73254
G0 F6000 X178.987 Y77.028
G1 F1800 X179.097 Y76.617 E369.73954
G0 F6000 X179.103 Y76.869
G1 F1800 X127.191 Y128.781 E370.94789
G0 F6000 X126.467 Y128.798
G1 F1800 X179.086 Y76.178 E372.17271
G0 F6000 X179.088 Y76.225
G1 F1800 X179.026 Y76.162 E372.17476
G1 X178.961 Y75.943 E372.17852
G0 F6000 X179.07 Y75.487
G1 F1800 X125.743 Y128.815 E373.41981
G0 F6000 X125.019 Y128.832
G1 F1800 X179.054 Y74.796 E374.67759
G0 F6000 X179.038 Y74.105
G1 F1800 X124.295 Y128.848 E375.95184
G0 F6000 X123.571 Y128.865
G1 F1800 X179.022 Y73.414 E377.24256
G0 F6000 X179.006 Y72.723
G1 F1800 X122.847 Y128.882 E378.54977
G0 F6000 X122.123 Y128.899
G1 F1800 X178.989 Y72.032 E379.87344
G0 F6000 X178.985 Y71.817
G1 F1800 X178.865 Y71.849 E379.87549
G0 F6000 X178.974 Y71.341
G1 F1800 X121.399 Y128.916 E381.21565
G0 F6000 X121.086 Y128.522
G1 F1800 X178.958 Y70.65 E382.56273
G0 F6000 X178.941 Y69.959
G1 F1800 X121.07 Y127.831 E383.9098
G0 F6000 X121.053 Y127.14
G1 F1800 X178.925 Y69.268 E385.25688
G0 F6000 X178.816 Y69.738
G1 F1800 X178.939 Y69.861 E385.25974
G0 F6000 X178.909 Y68.578
G1 F1800 X121.037 Y126.449 E386.60681
G0 F6000 X121.021 Y125.758
G1 F1800 X178.416 Y68.363 E387.94279
G0 F6000 X177.692 Y68.38
G1 F1800 X121.005 Y125.067 E389.26228
G0 F6000 X120.989 Y124.376
G1 F1800 X176.968 Y68.397 E390.5653
G0 F6000 X176.244 Y68.414
G1 F1800 X120.973 Y123.685 E391.85184
G0 F6000 X120.956 Y122.994
G1 F1800 X175.52 Y68.43 E393.12192
G0 F6000 X174.796 Y68.447
G1 F1800 X120.94 Y122.304 E394.37553
G0 F6000 X120.924 Y121.613
G1 F1800 X174.072 Y68.464 E395.61266
G0 F6000 X173.348 Y68.481
G1 F1800 X120.908 Y120.921 E396.8333
G0 F6000 X120.892 Y120.23
G1 F1800 X172.624 Y68.498 E398.03746
G0 F6000 X171.9 Y68.515
G1 F1800 X120.876 Y119.539 E399.22514
G0 F6000 X120.86 Y118.849
G1 F1800 X171.176 Y68.532 E400.39635
G0 F6000 X170.453 Y68.549
G1 F1800 X120.843 Y118.158 E401.5511
G0 F6000 X120.827 Y117.467
G1 F1800 X169.728 Y68.566 E402.68936
G0 F6000 X169.004 Y68.582
G1 F1800 X120.812 Y116.775 E403.81113
G0 F6000 X120.795 Y116.085
G1 F1800 X168.28 Y68.599 E404.91645
G0 F6000 X167.556 Y68.616
G1 F1800 X120.779 Y115.394 E406.00528
G0 F6000 X120.763 Y114.703
G1 F1800 X166.832 Y68.633 E407.07764
G0 F6000 X166.108 Y68.65
G1 F1800 X120.746 Y114.012 E408.13352
G0 F6000 X120.73 Y113.321
G1 F1800 X165.385 Y68.667 E409.17294
G0 F6000 X164.661 Y68.684
G1 F1800 X120.715 Y112.63 E410.19587
G0 F6000 X120.698 Y111.939
G1 F1800 X163.937 Y68.701 E411.20232
G0 F6000 X163.212 Y68.718
G1 F1800 X120.682 Y111.248 E412.19229
G0 F6000 X120.666 Y110.557
G1 F1800 X162.488 Y68.735 E413.16577
G0 F6000 X161.764 Y68.751
G1 F1800 X120.65 Y109.866 E414.12279
G0 F6000 X120.633 Y109.175
G1 F1800 X161.041 Y68.768 E415.06335
G0 F6000 X160.317 Y68.785
G1 F1800 X120.617 Y108.485 E415.98744
G0 F6000 X120.602 Y107.793
G1 F1800 X159.593 Y68.802 E416.89503
G0 F6000 X158.869 Y68.819
G1 F1800 X120.585 Y107.102 E417.78615
G0 F6000 X120.569 Y106.411
G1 F1800 X158.145 Y68.836 E418.66079
G0 F6000 X157.421 Y68.853
G1 F1800 X120.553 Y105.72 E419.51895
G0 F6000 X120.536 Y105.03
G1 F1800 X156.696 Y68.87 E420.36064
G0 F6000 X155.973 Y68.886
G1 F1800 X120.52 Y104.339 E421.18588
G0 F6000 X120.43 Y103.721
G1 F1800 X155.249 Y68.903 E421.99635
G0 F6000 X154.525 Y68.92
G1 F1800 X119.706 Y103.738 E422.80681
G0 F6000 X118.982 Y103.755
G1 F1800 X153.801 Y68.937 E423.61728
G0 F6000 X153.686 Y68.344
G1 F1800 X118.258 Y103.772 E424.44193
G0 F6000 X117.534 Y103.789
G1 F1800 X153.67 Y67.653 E425.28306
G0 F6000 X153.655 Y66.962
G1 F1800 X116.81 Y103.806 E426.14069
G0 F6000 X116.086 Y103.823
G1 F1800 X153.638 Y66.271 E427.01478
G0 F6000 X153.622 Y65.58
G1 F1800 X115.362 Y103.84 E427.90536
G0 F6000 X115.085 Y103.41
G1 F1800 X153.606 Y64.889 E428.802
G0 F6000 X153.589 Y64.198
G1 F1800 X115.069 Y102.719 E429.69864
G0 F6000 X115.053 Y102.028
G1 F1800 X153.552 Y63.529 E430.59478
G0 F6000 X152.828 Y63.546
G1 F1800 X115.037 Y101.337 E431.47443
G0 F6000 X115.021 Y100.646
G1 F1800 X152.105 Y63.562 E432.33763
G0 F6000 X151.38 Y63.579
G1 F1800 X120.295 Y94.664 E433.06119
G0 F6000 X120.018 Y94.941
G1 F1800 X115.005 Y99.955 E433.17789
G0 F6000 X114.988 Y99.264
G1 F1800 X119.293 Y94.959 E433.2781
G0 F6000 X118.569 Y94.976
G1 F1800 X114.972 Y98.573 E433.36183
G0 F6000 X114.957 Y97.881
G1 F1800 X117.845 Y94.993 E433.42905
G0 F6000 X117.121 Y95.01
G1 F1800 X114.94 Y97.191 E433.47982
G0 F6000 X114.924 Y96.5
G1 F1800 X116.397 Y95.027 E433.5141
G0 F6000 X115.672 Y95.045
G1 F1800 X114.909 Y95.808 E433.53187
G0 F6000 X114.892 Y95.117
G1 F1800 X114.949 Y95.061 E433.53318
G0 F6000 X114.964 Y95.221
G0 X115.252 Y95.154
G0 X120.508 Y95.133
G0 X120.44 Y93.971
G0 X120.279 Y93.973
G1 F1800 X150.656 Y63.596 E434.24026
G0 F6000 X149.932 Y63.613
G1 F1800 X144.905 Y68.64 E434.35727
G0 F6000 X144.889 Y67.95
G1 F1800 X149.208 Y63.63 E434.45782
G0 F6000 X148.485 Y63.646
G1 F1800 X144.872 Y67.259 E434.54192
G0 F6000 X144.856 Y66.568
G1 F1800 X147.761 Y63.663 E434.60954
G0 F6000 X147.037 Y63.68
G1 F1800 X144.84 Y65.877 E434.66068
G0 F6000 X144.823 Y65.186
G1 F1800 X146.313 Y63.697 E434.69535
G0 F6000 X145.589 Y63.714
G1 F1800 X144.807 Y64.495 E434.71354
G0 F6000 X144.791 Y63.805
G1 F1800 X144.864 Y63.731 E434.71525
G0 F6000 X144.866 Y63.891
G0 X144.873 Y63.8
G0 X145.123 Y69.341
G0 X144.395 Y69.316
G0 X144.39 Y69.155
G1 F1800 X120.263 Y93.282 E435.27685
G0 F6000 X120.247 Y92.591
G1 F1800 X143.666 Y69.172 E435.82197
G0 F6000 X142.942 Y69.189
G1 F1800 X120.231 Y91.9 E436.35061
G0 F6000 X120.215 Y91.209
G1 F1800 X142.218 Y69.206 E436.86277
G0 F6000 X141.494 Y69.223
G1 F1800 X120.198 Y90.518 E437.35847
G0 F6000 X120.182 Y89.828
G1 F1800 X140.77 Y69.24 E437.83769
G0 F6000 X140.046 Y69.257
G1 F1800 X120.166 Y89.137 E438.30044
G0 F6000 X120.15 Y88.445
G1 F1800 X139.321 Y69.274 E438.74668
G0 F6000 X138.597 Y69.291
G1 F1800 X120.134 Y87.754 E439.17644
G0 F6000 X120.118 Y87.063
G1 F1800 X137.873 Y69.308 E439.58972
G0 F6000 X137.149 Y69.325
G1 F1800 X120.102 Y86.373 E439.98653
G0 F6000 X120.085 Y85.682
G1 F1800 X136.425 Y69.342 E440.36688
G0 F6000 X135.701 Y69.359
G1 F1800 X120.069 Y84.991 E440.73074
G0 F6000 X120.053 Y84.3
G1 F1800 X134.977 Y69.376 E441.07812
G0 F6000 X134.253 Y69.393
G1 F1800 X120.037 Y83.609 E441.40903
G0 F6000 X120.021 Y82.918
G1 F1800 X133.529 Y69.41 E441.72345
G0 F6000 X132.805 Y69.427
G1 F1800 X120.005 Y82.227 E442.0214
G0 F6000 X119.988 Y81.536
G1 F1800 X132.081 Y69.444 E442.30287
G0 F6000 X131.357 Y69.461
G1 F1800 X119.972 Y80.845 E442.56787
G0 F6000 X119.956 Y80.154
G1 F1800 X130.633 Y69.478 E442.81638
G0 F6000 X129.908 Y69.495
G1 F1800 X119.94 Y79.463 E443.04841
G0 F6000 X119.924 Y78.772
G1 F1800 X129.184 Y69.512 E443.26395
G0 F6000 X128.46 Y69.529
G1 F1800 X119.908 Y78.081 E443.46301
G0 F6000 X119.892 Y77.39
G1 F1800 X127.737 Y69.545 E443.64562
G0 F6000 X127.013 Y69.562
G1 F1800 X119.875 Y76.699 E443.81176
G0 F6000 X119.859 Y76.009
G1 F1800 X126.289 Y69.579 E443.96143
G0 F6000 X125.565 Y69.596
G1 F1800 X119.843 Y75.317 E444.09461
G0 F6000 X119.827 Y74.626
G1 F1800 X124.841 Y69.613 E444.21131
G0 F6000 X124.117 Y69.63
G1 F1800 X119.811 Y73.935 E444.31153
G0 F6000 X119.795 Y73.244
G1 F1800 X123.392 Y69.647 E444.39525
G0 F6000 X122.668 Y69.664
G1 F1800 X119.778 Y72.554 E444.46252
G0 F6000 X119.762 Y71.863
G1 F1800 X121.944 Y69.681 E444.51331
G0 F6000 X121.22 Y69.698
G1 F1800 X119.747 Y71.171 E444.5476
G0 F6000 X119.73 Y70.48
G1 F1800 X120.496 Y69.715 E444.56542
G0 F6000 X119.772 Y69.732
G1 F1800 X119.714 Y69.79 E444.56677
G1 F3000 E437.56677
G0 F6000 X154.552 Y134.248
; TYPE:WALL-OUTER
G1 F3000 E444.56677
G1 F1800 X155.417 Y134.228 E444.58101
G1 X155.445 Y135.44 E444.60096
G1 X155.24 Y135.554 E444.60482
G1 X155.251 Y136.044 E444.61289
G1 X155.033 Y136.322 E444.61871
G1 X154.801 Y136.054 E444.62454
G1 X154.789 Y135.564 E444.63261
G1 X154.58 Y135.46 E444.63645
G1 X154.563 Y134.698 E444.649
; LAYER:2
G0 F6000 X155.4 Y133.518 Z0.84
; TYPE:WALL-OUTER
G1 F1800 X146.236 Y133.731 E444.79987
G1 X146.16 Y130.462 E444.85369
G1 X146.706 Y130.449 E444.86268
G1 X146.668 Y128.857 E444.88889
G1 X146.122 Y128.87 E444.89788
G1 X146.113 Y128.466 E444.90453
G1 X120.973 Y129.053 E445.31843
G1 X120.387 Y103.914 E445.73231
G1 X115.121 Y104.037 E445.81901
G1 X114.907 Y94.873 E445.96988
G1 X120.173 Y94.75 E446.05658
G1 X119.585 Y69.611 E446.47046
G1 X144.724 Y69.024 E446.88434
G1 X144.601 Y63.758 E446.97104
G1 X153.765 Y63.544 E447.12191
G1 X153.888 Y68.81 E447.20861
G1 X179.028 Y68.223 E447.62251
G1 X179.614 Y93.361 E448.03637
G1 X184.88 Y93.238 E448.12307
G1 X185.094 Y102.402 E448.27394
G1 X179.828 Y102.525 E448.36064
G1 X180.416 Y127.665 E448.77454
G1 X155.277 Y128.252 E449.18842
G1 X155.389 Y133.068 E449.26771
G0 F6000 X155.202 Y133.282
; TYPE:FILL
G1 F1800 X116.935 Y95.015 E450.15845
G0 F6000 X116.244 Y95.031
G1 F1800 X154.561 Y133.348 E451.05035
G0 F6000 X155.08 Y133.138
G1 F1800 X155.19 Y132.727 E451.05735
G0 F6000 X155.186 Y132.559
G1 F1800 X117.626 Y94.999 E451.93163
G0 F6000 X118.317 Y94.982
G1 F1800 X155.169 Y131.835 E452.78944
G0 F6000 X155.041 Y131.467
G1 F1800 X155.159 Y131.435 E452.79145
G0 F6000 X155.152 Y131.111
G1 F1800 X119.008 Y94.967 E453.63277
G0 F6000 X119.699 Y94.951
G1 F1800 X155.135 Y130.386 E454.4576
G0 F6000 X155.025 Y130.785
G1 F1800 X155.147 Y130.908 E454.46045
G0 F6000 X155.118 Y129.662
G1 F1800 X120.366 Y94.91 E455.26937
G0 F6000 X120.349 Y94.186
G1 F1800 X155.101 Y128.938 E456.07829
G0 F6000 X155.084 Y128.214
G1 F1800 X120.332 Y93.462 E456.88721
G0 F6000 X120.315 Y92.738
G1 F1800 X155.631 Y128.054 E457.70925
G0 F6000 X156.322 Y128.037
G1 F1800 X120.298 Y92.014 E458.54777
G0 F6000 X120.282 Y91.291
G1 F1800 X157.013 Y128.021 E459.40274
G0 F6000 X157.703 Y128.005
G1 F1800 X120.265 Y90.566 E460.27419
G0 F6000 X120.248 Y89.842
G1 F1800 X158.395 Y127.989 E461.16213
G0 F6000 X159.086 Y127.973
G1 F1800 X120.231 Y89.118 E462.06656
G0 F6000 X120.214 Y88.394
G1 F1800 X159.777 Y127.957 E462.98746
G0 F6000 X160.467 Y127.941
G1 F1800 X120.197 Y87.67 E463.92483
G0 F6000 X120.18 Y86.946
G1 F1800 X161.158 Y127.924 E464.87867
G0 F6000 X161.85 Y127.909
G1 F1800 X120.163 Y86.222 E465.84901
G0 F6000 X120.146 Y85.498
G1 F1800 X162.541 Y127.892 E466.83582
G0 F6000 X163.232 Y127.876
G1 F1800 X120.129 Y84.774 E467.83912
G0 F6000 X120.112 Y84.05
G1 F1800 X163.922 Y127.86 E468.85888
G0 F6000 X164.613 Y127.844
G1 F1800 X120.095 Y83.326 E469.89512
G0 F6000 X120.078 Y82.602
G1 F1800 X165.304 Y127.827 E470.94782
G0 F6000 X165.996 Y127.812
G1 F1800 X120.061 Y81.878 E472.01704
G0 F6000 X120.044 Y81.153
G1 F1800 X166.686 Y127.796 E473.10273
G0 F6000 X167.377 Y127.779
G1 F1800 X120.028 Y80.43 E474.20486
G0 F6000 X120.011 Y79.706
G1 F1800 X168.068 Y127.763 E475.32348
G0 F6000 X168.759 Y127.747
G1 F1800 X119.994 Y78.982 E476.45858
G0 F6000 X119.977 Y78.258
G1 F1800 X169.451 Y127.731 E477.61017
G0 F6000 X170.141 Y127.715
G1 F1800 X119.96 Y77.534 E478.77822
G0 F6000 X119.943 Y76.81
G1 F1800 X170.832 Y127.699 E479.96276
G0 F6000 X171.523 Y127.682
G1 F1800 X119.926 Y76.086 E481.16377
G0 F6000 X119.909 Y75.362
G1 F1800 X172.214 Y127.666 E482.38125
G0 F6000 X172.905 Y127.651
G1 F1800 X119.892 Y74.637 E483.61524
G0 F6000 X119.875 Y73.913
G1 F1800 X173.596 Y127.634 E484.8657
G0 F6000 X174.287 Y127.618
G1 F1800 X119.858 Y73.189 E486.13263
G0 F6000 X119.841 Y72.465
G1 F1800 X174.978 Y127.602 E487.41605
G0 F6000 X175.669 Y127.586
G1 F1800 X119.824 Y71.741 E488.71595
G0 F6000 X119.807 Y71.017
G1 F1800 X176.36 Y127.569 E490.03231
G0 F6000 X177.051 Y127.554
G1 F1800 X119.79 Y70.293 E491.36517
G0 F6000 X119.995 Y69.79
G1 F1800 X177.742 Y127.538 E492.70935
G0 F6000 X178.433 Y127.521
G1 F1800 X120.686 Y69.774 E494.05352
G0 F6000 X121.377 Y69.758
G1 F1800 X179.124 Y127.505 E495.39769
G0 F6000 X179.815 Y127.489
G1 F1800 X122.067 Y69.741 E496.74189
G0 F6000 X122.759 Y69.726
G1 F1800 X180.213 Y127.18 E498.07923
G0 F6000 X180.196 Y126.456
G1 F1800 X123.45 Y69.71 E499.4001
G0 F6000 X124.141 Y69.693
G1 F1800 X180.179 Y125.732 E500.70451
G0 F6000 X180.162 Y125.007
G1 F1800 X124.831 Y69.677 E501.99243
G0 F6000 X125.522 Y69.661
G1 F1800 X180.145 Y124.283 E503.26387
G0 F6000 X180.128 Y123.559
G1 F1800 X126.214 Y69.645 E504.51882
G0 F6000 X126.905 Y69.629
G1 F1800 X180.111 Y122.835 E505.75729
G0 F6000 X180.095 Y122.112
G1 F1800 X127.596 Y69.613 E506.9793
G0 F6000 X128.286 Y69.596
G1 F1800 X180.078 Y121.388 E508.18486
G0 F6000 X180.061 Y120.664
G1 F1800 X128.977 Y69.58 E509.37393
G0 F6000 X129.668 Y69.564
G1 F1800 X180.044 Y119.94 E510.54653
G0 F6000 X180.027 Y119.216
G1 F1800 X130.36 Y69.548 E511.70263
G0 F6000 X131.05 Y69.532
G1 F1800 X180.01 Y118.492 E512.84227
G0 F6000 X179.993 Y117.767
G1 F1800 X131.741 Y69.516 E513.96541
G0 F6000 X132.432 Y69.5
G1 F1800 X179.976 Y117.043 E515.07208
G0 F6000 X179.959 Y116.319
G1 F1800 X133.123 Y69.483 E516.16227
G0 F6000 X133.815 Y69.468
G1 F1800 X179.942 Y115.595 E517.23596
G0 F6000 X179.925 Y114.871
G1 F1800 X134.505 Y69.452 E518.29319
G0 F6000 X135.196 Y69.435
G1 F1800 X179.908 Y114.147 E519.33394
G0 F6000 X179.891 Y113.423
G1 F1800 X135.887 Y69.419 E520.35822
G0 F6000 X136.578 Y69.403
G1 F1800 X179.874 Y112.699 E521.36602
G0 F6000 X179.857 Y111.975
G1 F1800 X137.269 Y69.387 E522.35733
G0 F6000 X137.96 Y69.371
G1 F1800 X179.841 Y111.251 E523.33218
G0 F6000 X179.824 Y110.527
G1 F1800 X138.651 Y69.355 E524.29055
G0 F6000 X139.342 Y69.338
G1 F1800 X179.807 Y109.803 E525.23244
G0 F6000 X179.79 Y109.079
G1 F1800 X140.033 Y69.322 E526.15786
G0 F6000 X140.724 Y69.306
G1 F1800 X179.773 Y108.355 E527.0668
G0 F6000 X179.756 Y107.631
G1 F1800 X141.415 Y69.29 E527.95926
G0 F6000 X142.106 Y69.274
G1 F1800 X179.739 Y106.907 E528.83524
G0 F6000 X179.722 Y106.183
G1 F1800 X142.797 Y69.258 E529.69474
G0 F6000 X143.488 Y69.242
G1 F1800 X179.705 Y105.459 E530.53776
G0 F6000 X179.688 Y104.735
G1 F1800 X144.179 Y69.225 E531.36431
G0 F6000 X144.87 Y69.21
G1 F1800 X179.671 Y104.011 E532.17437
G0 F6000 X179.654 Y103.287
G1 F1800 X144.903 Y68.535 E532.98327
G0 F6000 X144.886 Y67.811
G1 F1800 X179.637 Y102.563 E533.79218
G0 F6000 X180.11 Y102.328
G1 F1800 X144.868 Y67.086 E534.6125
G0 F6000 X144.851 Y66.362
G1 F1800 X180.801 Y102.312 E535.44931
G0 F6000 X181.492 Y102.296
G1 F1800 X144.834 Y65.638 E536.30259
G0 F6000 X144.817 Y64.914
G1 F1800 X182.183 Y102.28 E537.17235
G0 F6000 X182.874 Y102.264
G1 F1800 X144.8 Y64.19 E538.0586
G0 F6000 X145.249 Y63.932
G1 F1800 X183.565 Y102.248 E538.95047
G0 F6000 X184.256 Y102.232
G1 F1800 X145.94 Y63.916 E539.84235
G0 F6000 X146.632 Y63.9
G1 F1800 X184.897 Y102.165 E540.73304
G0 F6000 X184.88 Y101.442
G1 F1800 X147.322 Y63.884 E541.60727
G0 F6000 X148.013 Y63.868
G1 F1800 X184.863 Y100.718 E542.46503
G0 F6000 X184.846 Y99.994
G1 F1800 X153.853 Y69 E543.18646
G0 F6000 X153.698 Y68.846
G1 F1800 X148.704 Y63.851 E543.30271
G0 F6000 X149.396 Y63.836
G1 F1800 X153.681 Y68.121 E543.40246
G0 F6000 X153.664 Y67.397
G1 F1800 X150.086 Y63.819 E543.48574
G0 F6000 X150.777 Y63.803
G1 F1800 X153.647 Y66.673 E543.55254
G0 F6000 X153.63 Y65.949
G1 F1800 X151.468 Y63.787 E543.60287
G0 F6000 X152.16 Y63.771
G1 F1800 X153.613 Y65.225 E543.6367
G0 F6000 X153.597 Y64.501
G1 F1800 X152.851 Y63.755 E543.65407
G0 F6000 X153.541 Y63.739
G1 F1800 X153.58 Y63.777 E543.65496
G0 F6000 X153.422 Y63.811
G0 X153.49 Y64.132
G0 X153.575 Y64.523
G0 X154.544 Y68.984
G0 X154.544 Y68.984
G1 F1800 X184.829 Y99.27 E544.35991
G0 F6000 X184.812 Y98.545
G1 F1800 X179.813 Y93.546 E544.47628
G0 F6000 X179.418 Y93.151
G1 F1800 X155.236 Y68.969 E545.03916
G0 F6000 X155.926 Y68.952
G1 F1800 X179.401 Y92.427 E545.58558
G0 F6000 X179.282 Y92.482
G1 F1800 X179.393 Y92.068 E545.59264
G0 F6000 X179.384 Y91.703
G1 F1800 X156.617 Y68.936 E546.12258
G0 F6000 X157.308 Y68.92
G1 F1800 X179.367 Y90.979 E546.63605
G0 F6000 X179.351 Y90.255
G1 F1800 X157.999 Y68.904 E547.13304
G0 F6000 X158.691 Y68.888
G1 F1800 X179.334 Y89.531 E547.61355
G0 F6000 X179.331 Y89.469
G1 F1800 X179.213 Y89.5 E547.61555
G0 F6000 X179.317 Y88.807
G1 F1800 X159.381 Y68.872 E548.07959
G0 F6000 X160.072 Y68.855
G1 F1800 X179.3 Y88.083 E548.52716
G0 F6000 X179.185 Y88.286
G1 F1800 X179.307 Y88.408 E548.53
G0 F6000 X179.283 Y87.359
G1 F1800 X160.763 Y68.839 E548.96109
G0 F6000 X161.454 Y68.823
G1 F1800 X179.266 Y86.635 E549.37569
G0 F6000 X179.249 Y85.911
G1 F1800 X162.145 Y68.807 E549.77382
G0 F6000 X162.836 Y68.791
G1 F1800 X179.233 Y85.187 E550.15548
G0 F6000 X179.229 Y85.06
G1 F1800 X179.11 Y85.092 E550.15751
G0 F6000 X179.216 Y84.463
G1 F1800 X163.527 Y68.775 E550.52269
G0 F6000 X164.218 Y68.759
G1 F1800 X179.199 Y83.739 E550.87139
G0 F6000 X179.182 Y83.015
G1 F1800 X164.909 Y68.742 E551.20362
G0 F6000 X165.6 Y68.726
G1 F1800 X179.165 Y82.291 E551.51937
G0 F6000 X179.163 Y82.204
G1 F1800 X179.04 Y82.081 E551.52223
G0 F6000 X179.148 Y81.567
G1 F1800 X166.291 Y68.71 E551.8215
G0 F6000 X166.982 Y68.694
G1 F1800 X179.131 Y80.843 E552.10429
G0 F6000 X179.126 Y80.651
G1 F1800 X179.007 Y80.683 E552.10632
G0 F6000 X179.115 Y80.12
G1 F1800 X167.673 Y68.678 E552.37266
G0 F6000 X168.364 Y68.662
G1 F1800 X179.098 Y79.396 E552.62251
G0 F6000 X179.081 Y78.671
G1 F1800 X169.055 Y68.645 E552.85588
G0 F6000 X169.745 Y68.629
G1 F1800 X179.064 Y77.947 E553.07279
G0 F6000 X178.928 Y77.249
G1 F1800 X179.038 Y76.837 E553.07981
G0 F6000 X179.03 Y76.499
G1 F1800 X171.128 Y68.597 E553.26374
G0 F6000 X171.819 Y68.581
G1 F1800 X179.013 Y75.775 E553.4312
G0 F6000 X178.895 Y75.877
G1 F1800 X179.021 Y76.121 E553.43404
G1 X178.905 Y76.274 E553.4372
G0 F6000 X179.047 Y77.223
G1 F1800 X170.437 Y68.614 E553.63761
G0 F6000 X172.51 Y68.565
G1 F1800 X178.997 Y75.052 E553.7886
G0 F6000 X178.98 Y74.328
G1 F1800 X173.2 Y68.549 E553.92313
G0 F6000 X173.891 Y68.532
G1 F1800 X178.963 Y73.604 E554.04119
G0 F6000 X178.946 Y72.88
G1 F1800 X174.583 Y68.517 E554.14275
G0 F6000 X175.274 Y68.5
G1 F1800 X178.929 Y72.156 E554.22784
G0 F6000 X178.801 Y71.866
G1 F1800 X178.921 Y71.834 E554.22988
G0 F6000 X178.912 Y71.431
G1 F1800 X175.964 Y68.484 E554.29849
G0 F6000 X176.655 Y68.468
G1 F1800 X178.895 Y70.707 E554.35062
G0 F6000 X178.878 Y69.984
G1 F1800 X177.346 Y68.452 E554.38628
G0 F6000 X178.038 Y68.436
G1 F1800 X178.861 Y69.26 E554.40545
G0 F6000 X178.75 Y69.672
G1 F1800 X178.873 Y69.795 E554.40831
G0 F6000 X178.844 Y68.536
G1 F1800 X178.729 Y68.42 E554.411
G1 F3000 E547.411
G0 F6000 X178.734 Y68.58
G0 X178.796 Y69.478
G0 X178.825 Y69.877
G0 X180.505 Y93.531
G0 X180.505 Y93.531
G1 F3000 E554.411
G1 F1800 X184.795 Y97.821 E554.51086
G0 F6000 X184.779 Y97.098
G1 F1800 X181.196 Y93.514 E554.59427
G0 F6000 X181.886 Y93.498
G1 F1800 X184.762 Y96.374 E554.66121
G0 F6000 X184.745 Y95.65
G1 F1800 X182.578 Y93.483 E554.71166
G0 F6000 X183.269 Y93.466
G1 F1800 X184.728 Y94.926 E554.74563
G0 F6000 X184.711 Y94.202
G1 F1800 X183.96 Y93.45 E554.76312
G0 F6000 X184.651 Y93.434
G1 F1800 X184.694 Y93.478 E554.76413
G1 F3000 E547.76413
G0 F6000 X184.537 Y93.505
G0 X158.055 Y127.78
G0 X154.877 Y127.87
G0 X153.867 Y133.204
G0 X153.869 Y133.363
G1 F3000 E554.76413
G1 F1800 X115.553 Y95.047 E555.65601
G0 F6000 X115.107 Y95.308
G1 F1800 X153.179 Y133.38 E556.54221
G0 F6000 X152.487 Y133.395
G1 F1800 X115.124 Y96.032 E557.4119
G0 F6000 X115.141 Y96.756
G1 F1800 X151.796 Y133.411 E558.26511
G0 F6000 X151.105 Y133.427
G1 F1800 X146.864 Y129.186 E558.36383
G0 F6000 X146.882 Y129.911
G1 F1800 X150.414 Y133.443 E558.44605
G0 F6000 X149.722 Y133.459
G1 F1800 X146.897 Y130.633 E558.51181
G0 F6000 X146.357 Y130.801
G1 F1800 X149.031 Y133.475 E558.57406
G0 F6000 X148.34 Y133.491
G1 F1800 X146.374 Y131.525 E558.61982
G0 F6000 X146.39 Y132.248
G1 F1800 X147.649 Y133.507 E558.64913
G0 F6000 X146.958 Y133.522
G1 F1800 X146.407 Y132.972 E558.66194
G0 F6000 X146.569 Y132.969
G0 X146.478 Y130.903
G0 X147.106 Y130.831
G0 X147.05 Y128.457
G0 X146.375 Y128.513
G0 X146.351 Y128.673
G1 F1800 X146.305 Y128.627 E558.66301
G0 F6000 X145.956 Y128.279
G1 F1800 X115.157 Y97.48 E559.37991
G0 F6000 X115.174 Y98.204
G1 F1800 X145.265 Y128.295 E560.08034
G0 F6000 X144.575 Y128.311
G1 F1800 X120.585 Y104.321 E560.63875
G0 F6000 X120.602 Y105.045
G1 F1800 X143.883 Y128.327 E561.18067
G0 F6000 X143.192 Y128.343
G1 F1800 X120.618 Y105.769 E561.70612
G0 F6000 X120.635 Y106.493
G1 F1800 X142.501 Y128.359 E562.2151
G0 F6000 X141.81 Y128.375
G1 F1800 X120.652 Y107.217 E562.70759
G0 F6000 X120.669 Y107.941
G1 F1800 X141.12 Y128.392 E563.18362
G0 F6000 X140.428 Y128.407
G1 F1800 X120.686 Y108.666 E563.64314
G0 F6000 X120.703 Y109.389
G1 F1800 X139.737 Y128.424 E564.08621
G0 F6000 X139.046 Y128.44
G1 F1800 X120.72 Y110.113 E564.51279
G0 F6000 X120.737 Y110.837
G1 F1800 X138.356 Y128.456 E564.92291
G0 F6000 X137.664 Y128.472
G1 F1800 X120.754 Y111.561 E565.31653
G0 F6000 X120.771 Y112.285
G1 F1800 X136.973 Y128.488 E565.69367
G0 F6000 X136.282 Y128.504
G1 F1800 X120.787 Y113.009 E566.05435
G0 F6000 X120.804 Y113.733
G1 F1800 X135.591 Y128.52 E566.39854
G0 F6000 X134.901 Y128.537
G1 F1800 X120.821 Y114.457 E566.72628
G0 F6000 X120.838 Y115.182
G1 F1800 X134.209 Y128.552 E567.03751
G0 F6000 X133.518 Y128.568
G1 F1800 X120.855 Y115.906 E567.33225
G0 F6000 X120.872 Y116.63
G1 F1800 X132.827 Y128.585 E567.61052
G0 F6000 X132.137 Y128.601
G1 F1800 X120.889 Y117.354 E567.87233
G0 F6000 X120.906 Y118.078
G1 F1800 X131.446 Y128.617 E568.11766
G0 F6000 X130.754 Y128.633
G1 F1800 X120.923 Y118.802 E568.34649
G0 F6000 X120.94 Y119.526
G1 F1800 X130.063 Y128.649 E568.55885
G0 F6000 X129.372 Y128.665
G1 F1800 X120.956 Y120.249 E568.75475
G0 F6000 X120.973 Y120.973
G1 F1800 X128.682 Y128.682 E568.93419
G0 F6000 X127.991 Y128.698
G1 F1800 X120.99 Y121.698 E569.09714
G0 F6000 X121.007 Y122.422
G1 F1800 X127.299 Y128.713 E569.24358
G0 F6000 X126.608 Y128.73
G1 F1800 X121.024 Y123.146 E569.37356
G0 F6000 X121.041 Y123.87
G1 F1800 X125.918 Y128.746 E569.48707
G0 F6000 X125.227 Y128.762
G1 F1800 X121.058 Y124.594 E569.5841
G0 F6000 X121.075 Y125.318
G1 F1800 X124.536 Y128.778 E569.66465
G0 F6000 X123.844 Y128.794
G1 F1800 X121.092 Y126.042 E569.72871
G0 F6000 X121.109 Y126.766
G1 F1800 X123.153 Y128.81 E569.77629
G0 F6000 X122.463 Y128.827
G1 F1800 X121.126 Y127.49 E569.80741
G0 F6000 X121.143 Y128.214
G1 F1800 X121.772 Y128.843 E569.82205
G1 F3000 E562.82205
G0 F6000 X121.768 Y128.685
G0 X120.955 Y117.178
G0 X120.769 Y103.514
G0 X119.994 Y103.573
G0 X119.996 Y103.732
G1 F3000 E569.82205
G1 F1800 X115.191 Y98.927 E569.93389
G0 F6000 X115.208 Y99.651
G1 F1800 X119.305 Y103.748 E570.02926
G0 F6000 X118.614 Y103.765
G1 F1800 X115.225 Y100.375 E570.10816
G0 F6000 X115.242 Y101.1
G1 F1800 X117.923 Y103.781 E570.17056
G0 F6000 X117.231 Y103.796
G1 F1800 X115.259 Y101.824 E570.21646
G0 F6000 X115.275 Y102.547
G1 F1800 X116.541 Y103.813 E570.24593
G0 F6000 X115.85 Y103.829
G1 F1800 X115.292 Y103.271 E570.25892
G0 F6000 X116.342 Y102.758
G1 F3000 E563.25892
G0 F6000 X146.248 Y134.231
; TYPE:WALL-OUTER
G1 F3000 E570.25892
G1 F1800 X147.113 Y134.212 E570.27316
G1 X147.142 Y135.475 E570.29396
G1 X146.944 Y135.524 E570.29731
G1 X146.718 Y135.819 E570.30343
G1 X146.476 Y135.534 E570.30958
G1 X146.277 Y135.496 E570.31292
G1 X146.259 Y134.681 E570.32633
G0 F6000 X146.533 Y134.413
; TYPE:FILL
G1 F1800 X146.936 Y134.816 E570.33572
G0 F6000 X154.547 Y134.038
; TYPE:WALL-OUTER
G1 F1800 X155.412 Y134.018 E570.34996
G1 X155.441 Y135.281 E570.37075
G1 X155.243 Y135.33 E570.37411
G1 X155.017 Y135.625 E570.38022
G1 X154.775 Y135.34 E570.38638
G1 X154.576 Y135.302 E570.38971
G1 X154.558 Y134.488 E570.40311
G0 F6000 X154.79 Y134.221
; TYPE:FILL
G1 F1800 X154.745 Y134.39 E570.40599
; LAYER:3
G0 F6000 X155.395 Y133.308 Z1.05
; TYPE:WALL-OUTER
G1 F1800 X146.231 Y133.521 E570.55687
G1 X146.16 Y130.462 E570.60723
G1 X146.706 Y130.449 E570.61622
G1 X146.668 Y128.857 E570.64243
G1 X146.122 Y128.87 E570.65142
G1 X146.111 Y128.402 E570.65912
G1 X121.036 Y128.987 E571.07195
G1 X120.451 Y103.912 E571.48478
G1 X115.331 Y104.032 E571.56907
G1 X115.117 Y94.868 E571.71994
G1 X120.237 Y94.748 E571.80424
G1 X119.651 Y69.673 E572.21707
G1 X144.726 Y69.088 E572.6299
G1 X144.606 Y63.968 E572.71419
G1 X153.77 Y63.754 E572.86506
G1 X153.89 Y68.874 E572.94936
G1 X178.965 Y68.288 E573.36219
G1 X179.55 Y93.363 E573.77501
G1 X184.67 Y93.243 E573.85931
G1 X184.884 Y102.407 E574.01018
G1 X179.764 Y102.527 E574.09448
G1 X180.35 Y127.602 E574.5073
G1 X155.275 Y128.188 E574.92013
G1 X155.384 Y132.858 E574.99702
G0 F6000 X155.084 Y133.124
; TYPE:FILL
G1 F1800 X155.188 Y132.666 E575.00377
G1 X154.656 Y133.136 E575.01546
G0 F6000 X154.66 Y132.424
G1 F1800 X153.932 Y133.152 E575.0324
G0 F6000 X153.936 Y132.441
G1 F1800 X153.208 Y133.169 E575.04935
G0 F6000 X153.212 Y132.458
G1 F1800 X152.485 Y133.185 E575.06627
G0 F6000 X152.488 Y132.475
G1 F1800 X151.761 Y133.202 E575.08319
G0 F6000 X151.764 Y132.492
G1 F1800 X151.037 Y133.219 E575.10012
G0 F6000 X150.813 Y132.634
G1 F1800 X146.851 Y128.672 E575.19234
G0 F6000 X146.842 Y128.662
G1 F1800 X115.964 Y97.785 E575.91107
G0 F6000 X115.959 Y97.577
G1 F1800 X179.064 Y80.668 E576.98637
G0 F6000 X179.097 Y82.138
G1 F1800 X165.746 Y68.788 E577.29713
G0 F6000 X167.9 Y68.736
G1 F1800 X150.779 Y132.633 E578.38592
G0 F6000 X150.674 Y132.637
G1 F1800 X155.159 Y131.435 E578.46235
G0 F6000 X155.147 Y130.907
G1 F1800 X119.201 Y94.962 E579.29905
G0 F6000 X119.204 Y95.122
G0 X116.497 Y95.185
G0 X116.497 Y95.185
G0 X116.495 Y95.025
G1 F1800 X115.947 Y97.068 E579.33386
G0 F6000 X116.06 Y96.778
G1 F1800 X115.359 Y97.125 E579.34998
G1 X116.036 Y95.741 E579.36611
G1 X115.327 Y95.743 E579.38224
G1 X115.672 Y95.045 E579.39505
G0 F6000 X115.674 Y95.204
G0 X115.528 Y97.483
G0 X115.528 Y97.483
G0 X116.076 Y97.469
G1 F1800 X115.391 Y98.507 E579.41118
G1 X116.1 Y98.506 E579.42731
G1 X115.423 Y99.89 E579.44344
G1 X116.132 Y99.887 E579.45956
G1 X115.455 Y101.272 E579.47565
G1 X116.164 Y101.27 E579.49178
G1 X115.479 Y102.309 E579.51226
G0 F6000 X116.062 Y101.985
G1 F1800 X179.166 Y85.077 E580.58754
G0 F6000 X179.007 Y85.081
G0 X179.083 Y88.347
G0 X179.083 Y88.347
G0 X179.242 Y88.343
G1 F1800 X159.825 Y68.926 E581.03951
G0 F6000 X158.972 Y68.945
G1 F1800 X143.073 Y128.282 E582.0506
G0 F6000 X143.07 Y128.123
G0 X140.459 Y128.184
G0 X140.459 Y128.184
G0 X140.462 Y128.342
G1 F1800 X120.749 Y108.629 E582.50946
G0 F6000 X120.772 Y109.596
G1 F1800 X180.749 Y93.525 E583.53146
G0 F6000 X179.334 Y92.288
G1 F1800 X169.857 Y127.657 E584.13414
G0 F6000 X170.071 Y127.652
G1 F1800 X120.025 Y77.606 E585.29906
G0 F6000 X120.053 Y78.735
G1 F1800 X156.363 Y69.006 E585.91777
G0 F6000 X154.508 Y69.049
G1 F1800 X138.609 Y128.386 E586.92887
G0 F6000 X138.606 Y128.227
G0 X134.537 Y128.322
G0 X134.537 Y128.322
G0 X134.54 Y128.48
G1 F1800 X120.894 Y114.834 E587.2465
G0 F6000 X120.875 Y114.004
G1 F1800 X183.979 Y97.096 E588.32178
G0 F6000 X183.854 Y96.866
G1 F1800 X184.539 Y95.827 E588.33788
G1 X183.83 Y95.829 E588.35401
G1 X184.507 Y94.445 E588.37009
G1 X183.798 Y94.447 E588.38621
G1 X184.396 Y93.44 E588.40164
G1 X184.457 Y93.558 E588.40382
G0 F6000 X183.456 Y93.461
G1 F1800 X181.086 Y102.305 E588.55452
G0 F6000 X181.085 Y102.307
G1 F1800 X144.845 Y66.066 E589.39809
G0 F6000 X145.155 Y64.855
G1 F1800 X145.883 Y64.127 E589.41503
G0 F6000 X145.879 Y64.838
G1 F1800 X146.606 Y64.111 E589.43196
G0 F6000 X146.802 Y64.696
G1 F1800 X129.681 Y128.594 E590.52077
G0 F6000 X128.618 Y128.618
G1 F1800 X121.039 Y121.039 E590.69718
G0 F6000 X121.2 Y121.036
G0 X121.242 Y122.818
G0 X121.242 Y122.818
G0 X121.081 Y122.821
G1 F1800 X179.68 Y107.12 E591.6957
G0 F6000 X179.676 Y106.957
G1 F1800 X142.058 Y69.339 E592.57133
G0 F6000 X141.116 Y69.361
G1 F1800 X125.216 Y128.698 E593.58243
G0 F6000 X125.213 Y128.54
G0 X122.692 Y128.599
G0 X122.692 Y128.599
G0 X122.696 Y128.756
G1 F1800 X121.184 Y127.244 E593.61762
G0 F6000 X121.183 Y127.23
G1 F1800 X179.782 Y111.529 E594.61614
G0 F6000 X179.625 Y111.532
G0 X179.663 Y113.165
G0 X179.663 Y113.165
G0 X179.821 Y113.162
G1 F1800 X136.137 Y69.478 E595.63296
G0 F6000 X136.652 Y69.465
G1 F1800 X121.183 Y127.195 E596.61668
G0 F6000 X121.344 Y127.193
G0 X121.139 Y118.41
G0 X121.139 Y118.41
G0 X120.977 Y118.413
G1 F1800 X179.576 Y102.711 E597.6152
G0 F6000 X179.419 Y102.713
G0 X179.327 Y102.743
G0 X179.364 Y102.145
G0 X181.09 Y102.146
G0 X181.093 Y102.305
G1 F1800 X184.082 Y101.504 E597.66613
G0 F6000 X183.967 Y101.703
G1 F1800 X184.651 Y100.665 E597.68221
G1 X183.942 Y100.667 E597.69832
G1 X184.619 Y99.283 E597.71444
G1 X183.919 Y99.63 E597.7273
G0 F6000 X184.028 Y99.189
G1 F1800 X153.903 Y69.064 E598.42852
G0 F6000 X153.699 Y68.86
G1 F1800 X149.473 Y64.635 E598.52688
G0 F6000 X149.499 Y64.754
G1 F1800 X150.226 Y64.026 E598.54381
G0 F6000 X150.222 Y64.737
G1 F1800 X150.95 Y64.01 E598.56074
G0 F6000 X151.266 Y64.592
G1 F1800 X134.145 Y128.49 E599.64955
G0 F6000 X132.934 Y128.518
G1 F1800 X179.886 Y115.937 E600.44961
G0 F6000 X179.728 Y115.94
G0 X179.808 Y119.37
G0 X179.808 Y119.37
G0 X179.966 Y119.367
G1 F1800 X130.215 Y69.616 E601.60766
G0 F6000 X130.218 Y69.776
G0 X132.192 Y69.73
G0 X132.192 Y69.73
G0 X132.188 Y69.569
G1 F1800 X120.828 Y111.965 E602.33008
G0 F6000 X120.988 Y111.962
G0 X120.83 Y105.183
G0 X120.83 Y105.183
G0 X120.669 Y105.187
G1 F1800 X179.269 Y89.485 E603.32862
G0 F6000 X179.11 Y89.488
G0 X179.095 Y89.468
G0 X179.168 Y93.763
G0 X184.405 Y96.868
G0 X184.563 Y96.865
G1 F1800 X183.878 Y97.902 E603.34469
G1 X184.587 Y97.9 E603.36082
G1 X183.902 Y98.939 E603.38131
G0 F6000 X184.518 Y101.705
G0 X184.518 Y101.705
G0 X184.675 Y101.702
G1 F1800 X184.144 Y102.234 E603.39368
G0 F6000 X184.142 Y102.075
G0 X184.184 Y102.023
G0 X179.364 Y102.145
G0 X179.531 Y107.52
G0 X179.689 Y107.518
G1 F1800 X174.321 Y127.552 E603.73505
G0 F6000 X174.318 Y127.393
G0 X175.99 Y127.354
G0 X175.99 Y127.354
G0 X175.993 Y127.513
G1 F1800 X119.88 Y71.401 E605.04118
G0 F6000 X119.846 Y69.918
G1 F1800 X120.095 Y69.852 E605.04542
G0 F6000 X120.097 Y70.012
G0 X123.263 Y69.938
G0 X123.263 Y69.938
G0 X123.26 Y69.777
G1 F1800 X120.117 Y81.506 E605.24528
G0 F6000 X120.277 Y81.503
G0 X120.316 Y83.14
G0 X120.316 Y83.14
G0 X120.155 Y83.144
G1 F1800 X174.5 Y68.582 E606.17131
G0 F6000 X172.364 Y68.631
G1 F1800 X156.465 Y127.969 E607.18242
G0 F6000 X156.461 Y127.811
G0 X158.224 Y127.77
G0 X158.224 Y127.77
G0 X158.228 Y127.929
G1 F1800 X120.316 Y90.016 E608.0649
G0 F6000 X120.476 Y90.014
G0 X120.522 Y91.958
G0 X120.522 Y91.958
G0 X120.361 Y91.961
G1 F1800 X178.96 Y76.26 E609.06342
G0 F6000 X178.953 Y75.934
G1 F1800 X171.667 Y68.649 E609.233
G0 F6000 X176.829 Y68.527
G1 F1800 X160.929 Y127.865 E610.24412
G0 F6000 X160.925 Y127.706
G0 X164.145 Y127.631
G0 X164.145 Y127.631
G0 X164.149 Y127.79
G1 F1800 X120.171 Y83.811 E611.2678
G0 F6000 X120.331 Y83.808
G0 X120.419 Y87.549
G0 X120.419 Y87.549
G0 X120.259 Y87.552
G1 F1800 X178.857 Y71.851 E612.2663
G0 F6000 X178.699 Y71.854
G0 X178.649 Y69.731
G0 X178.649 Y69.731
G0 X178.808 Y69.729
G1 F1800 X177.589 Y68.51 E612.29467
G0 F6000 X177.568 Y68.371
G0 X177.625 Y68.766
G0 X178.82 Y77.06
G0 X178.979 Y77.058
G1 F1800 X165.393 Y127.761 E613.15865
G0 F6000 X165.39 Y127.602
G0 X169.199 Y127.513
G0 X169.199 Y127.513
G0 X169.202 Y127.672
G1 F1800 X180.092 Y124.754 E613.34421
G0 F6000 X180.111 Y125.572
G1 F1800 X124.293 Y69.753 E614.64349
G0 F6000 X124.295 Y69.914
G0 X127.727 Y69.834
G0 X127.727 Y69.834
G0 X127.724 Y69.673
G1 F1800 X118.589 Y103.764 E615.2244
G0 F6000 X118.586 Y103.606
G0 X116.221 Y103.688
G0 X116.221 Y103.688
G1 F1800 X116.015 Y103.825 E615.22756
G1 X115.67 Y103.7 E615.23027
G1 X116.196 Y102.652 E615.24641
G1 X115.495 Y103 E615.25929
G1 F3000 E608.25929
G0 F6000 X115.656 Y102.998
G0 X116.855 Y95.273
G0 X120.637 Y95.13
G0 X120.11 Y74.323
G0 X119.949 Y74.327
G1 F3000 E615.25929
G1 F1800 X138.232 Y69.428 E615.57083
G0 F6000 X138.236 Y69.589
G0 X138.42 Y69.535
G0 X145.126 Y69.47
G0 X145.042 Y67.643
G0 X144.882 Y67.646
G1 F1800 X153.615 Y65.306 E615.71964
G0 F6000 X153.118 Y64.67
G1 F1800 X153.589 Y64.198 E615.73062
G0 F6000 X153.122 Y63.959
G1 F1800 X152.394 Y64.687 E615.74756
G0 F6000 X152.398 Y63.976
G1 F1800 X151.67 Y64.703 E615.76449
G0 F6000 X151.674 Y63.993
G1 F1800 X150.946 Y64.72 E615.78143
G0 F6000 X150.932 Y64.17
G0 X149.504 Y64.203
G0 X149.504 Y64.203
G0 X149.502 Y64.043
G1 F1800 X148.775 Y64.77 E615.79835
G0 F6000 X148.778 Y64.06
G1 F1800 X148.051 Y64.787 E615.81527
G0 F6000 X148.054 Y64.077
G1 F1800 X147.327 Y64.804 E615.8322
G0 F6000 X147.33 Y64.094
G1 F1800 X146.603 Y64.821 E615.84912
G0 F6000 X146.589 Y64.271
G0 X145.161 Y64.305
G0 X145.161 Y64.305
G0 X145.159 Y64.144
G1 F1800 X144.808 Y64.495 E615.85729
G0 F6000 X144.968 Y64.491
G0 X153.389 Y66.474
G0 X153.778 Y66.565
G0 X163.436 Y68.841
G0 X163.436 Y68.841
G1 F1800 X146.899 Y130.559 E616.90895
G0 F6000 X146.879 Y130.633
G1 F1800 X146.395 Y132.44 E616.93974
G0 F6000 X146.697 Y132.609
G1 F1800 X146.405 Y132.901 E616.94654
G0 F6000 X146.694 Y133.319
G1 F1800 X147.421 Y132.592 E616.96346
G0 F6000 X147.419 Y133.302
G1 F1800 X148.145 Y132.576 E616.98036
G0 F6000 X148.142 Y133.286
G1 F1800 X148.869 Y132.559 E616.99728
G0 F6000 X148.866 Y133.269
G1 F1800 X149.593 Y132.542 E617.01421
G0 F6000 X149.589 Y133.252
G1 F1800 X150.316 Y132.525 E617.03113
G0 F6000 X150.313 Y133.235
G1 F1800 X151.04 Y132.508 E617.04805
G0 F6000 X147.027 Y129.217
G0 X147.027 Y129.217
G0 X146.865 Y129.221
G1 F1800 X179.988 Y120.346 E617.61246
G0 F6000 X179.831 Y120.349
G0 X179.887 Y122.75
G0 X179.887 Y122.75
G0 X180.045 Y122.746
G1 F1800 X178.786 Y127.447 E617.69256
G0 F6000 X178.764 Y126.389
G1 F3000 E610.69256
G0 F6000 X147.108 Y134.002
; TYPE:WALL-OUTER
G1 F3000 E617.69256
G1 F1800 X147.126 Y134.777 E617.70532
G1 X146.771 Y135.144 E617.71373
G1 X146.705 Y135.161 E617.71485
G1 X146.632 Y135.147 E617.71607
G1 X146.261 Y134.796 E617.72448
G1 X146.243 Y134.021 E617.73724
G1 X146.658 Y134.012 E617.74407
G0 F6000 X146.44 Y134.32
; TYPE:FILL
G1 F1800 X146.878 Y134.758 E617.75426
G0 F6000 X154.559 Y134.602
; TYPE:WALL-OUTER
G1 F1800 X154.542 Y133.828 E617.76701
G1 X155.407 Y133.808 E617.78125
G1 X155.425 Y134.583 E617.79401
G1 X155.07 Y134.95 E617.80241
G1 X155.004 Y134.967 E617.80353
G1 X154.931 Y134.953 E617.80476
G1 X154.887 Y134.912 E617.80575
G0 F6000 X154.744 Y134.392
; TYPE:FILL
G1 F1800 X154.847 Y134.009 E617.81227
; LAYER:4
G0 F6000 X155.39 Y133.098 Z1.26
; TYPE:WALL-OUTER
G1 F1800 X146.226 Y133.311 E617.96315
G1 X146.16 Y130.462 E618.01005
G1 X146.706 Y130.449 E618.01904
G1 X146.668 Y128.857 E618.04525
G1 X146.122 Y128.87 E618.05424
G1 X146.11 Y128.338 E618.063
G1 X121.099 Y128.922 E618.47477
G1 X120.515 Y103.911 E618.88655
G1 X115.541 Y104.027 E618.96844
G1 X115.327 Y94.863 E619.11931
G1 X120.301 Y94.747 E619.2012
G1 X119.716 Y69.736 E619.61298
G1 X144.727 Y69.152 E620.02475
G1 X144.611 Y64.178 E620.10664
G1 X153.775 Y63.964 E620.25752
G1 X153.891 Y68.938 E620.33941
G1 X178.902 Y68.354 E620.75118
G1 X179.486 Y93.364 E621.16294
G1 X184.46 Y93.248 E621.24483
G1 X184.674 Y102.412 E621.3957
G1 X179.7 Y102.528 E621.47759
G1 X180.285 Y127.539 E621.88937
G1 X155.274 Y128.124 E622.30114
G1 X155.379 Y132.648 E622.37562
G0 F6000 X155.14 Y132.913
; TYPE:FILL
G1 F1800 X155.188 Y132.643 E622.37878
G1 X154.492 Y132.218 E622.38686
G1 X154.496 Y132.929 E622.40301
G1 X153.109 Y132.25 E622.41918
G1 X153.113 Y132.961 E622.43533
G1 X152.073 Y132.274 E622.45584
G0 F6000 X151.534 Y132.406
G1 F1800 X155.159 Y131.435 E622.51761
G0 F6000 X155.147 Y130.907
G1 F1800 X119.201 Y94.962 E623.35431
G0 F6000 X119.204 Y95.122
G0 X116.497 Y95.185
G0 X116.497 Y95.185
G0 X116.495 Y95.025
G1 F1800 X116.141 Y96.345 E623.3768
G0 F6000 X116.263 Y96.464
G1 F1800 X115.537 Y95.738 E623.3937
G0 F6000 X115.553 Y95.047
G1 F1800 X116.246 Y95.74 E623.40983
G0 F6000 X115.553 Y96.462
G1 F1800 X116.28 Y97.188 E623.42674
G0 F6000 X116.168 Y97.521
G1 F1800 X178.999 Y80.685 E624.49738
G0 F6000 X179.032 Y82.073
G1 F1800 X165.808 Y68.85 E624.80518
G0 F6000 X167.883 Y68.8
G1 F1800 X150.836 Y132.422 E625.88929
G0 F6000 X150.691 Y132.306
G1 F1800 X151.04 Y133.009 E625.90546
G1 X150 Y132.323 E625.92597
G0 F6000 X150.608 Y132.429
G1 F1800 X146.851 Y128.672 E626.01342
G0 F6000 X146.842 Y128.662
G1 F1800 X116.179 Y98 E626.72715
G0 F6000 X116.296 Y97.911
G1 F1800 X115.57 Y97.186 E626.74403
G0 F6000 X115.587 Y97.91
G1 F1800 X116.313 Y98.635 E626.76092
G0 F6000 X115.604 Y98.634
G1 F1800 X116.33 Y99.359 E626.77781
G0 F6000 X115.621 Y99.357
G1 F1800 X116.347 Y100.083 E626.79471
G0 F6000 X115.638 Y100.081
G1 F1800 X116.363 Y100.807 E626.81159
G0 F6000 X115.655 Y100.805
G1 F1800 X116.38 Y101.531 E626.82848
G0 F6000 X116.271 Y101.929
G1 F1800 X179.102 Y85.094 E627.89911
G0 F6000 X178.943 Y85.098
G0 X179.018 Y88.282
G0 X179.018 Y88.282
G0 X179.177 Y88.278
G1 F1800 X159.886 Y68.988 E628.34813
G0 F6000 X158.955 Y69.01
G1 F1800 X143.09 Y128.216 E629.357
G0 F6000 X143.087 Y128.059
G0 X140.396 Y128.122
G0 X140.396 Y128.122
G0 X140.399 Y128.279
G1 F1800 X120.816 Y108.696 E629.81283
G0 F6000 X120.836 Y109.579
G1 F1800 X180.751 Y93.524 E630.83378
G0 F6000 X179.276 Y92.506
G1 F1800 X169.874 Y127.592 E631.43164
G0 F6000 X170.008 Y127.589
G1 F1800 X120.091 Y77.672 E632.59355
G0 F6000 X120.115 Y78.719
G1 F1800 X156.101 Y69.076 E633.20675
G0 F6000 X154.491 Y69.114
G1 F1800 X138.626 Y128.321 E634.21563
G0 F6000 X138.623 Y128.163
G0 X134.475 Y128.26
G0 X134.475 Y128.26
G0 X134.478 Y128.418
G1 F1800 X120.961 Y114.901 E634.53026
G0 F6000 X120.939 Y113.987
G1 F1800 X183.77 Y97.152 E635.60089
G0 F6000 X183.656 Y97.389
G1 F1800 X184.382 Y98.115 E635.61779
G0 F6000 X183.673 Y98.113
G1 F1800 X184.399 Y98.839 E635.63469
G0 F6000 X183.813 Y98.974
G1 F1800 X153.964 Y69.126 E636.32947
G0 F6000 X153.698 Y68.86
G1 F1800 X149.677 Y64.838 E636.42308
G0 F6000 X149.809 Y64.956
G1 F1800 X148.769 Y64.27 E636.4392
G1 X148.772 Y64.98 E636.45532
G1 X147.387 Y64.302 E636.47142
G1 X147.389 Y65.012 E636.48754
G1 X146.005 Y64.334 E636.50362
G1 X146.354 Y65.036 E636.51653
G0 F6000 X146.745 Y64.907
G1 F1800 X129.698 Y128.529 E637.60064
G0 F6000 X128.556 Y128.556
G1 F1800 X121.106 Y121.106 E637.77405
G0 F6000 X121.266 Y121.103
G0 X121.306 Y122.801
G0 X121.306 Y122.801
G0 X121.145 Y122.804
G1 F1800 X179.616 Y107.137 E638.77038
G0 F6000 X179.61 Y106.891
G1 F1800 X142.12 Y69.401 E639.64303
G0 F6000 X141.099 Y69.425
G1 F1800 X125.234 Y128.634 E640.65195
G0 F6000 X125.231 Y128.476
G0 X122.63 Y128.536
G0 X122.63 Y128.536
G0 X122.634 Y128.694
G1 F1800 X121.251 Y127.311 E640.68414
G0 F6000 X121.248 Y127.213
G1 F1800 X179.72 Y111.545 E641.6805
G0 F6000 X179.561 Y111.548
G0 X179.597 Y113.099
G0 X179.597 Y113.099
G0 X179.755 Y113.096
G1 F1800 X136.199 Y69.54 E642.69434
G0 F6000 X136.635 Y69.529
G1 F1800 X121.242 Y126.974 E643.6732
G0 F6000 X121.403 Y126.972
G0 X121.203 Y118.393
G0 X121.203 Y118.393
G0 X121.042 Y118.396
G1 F1800 X179.513 Y102.728 E644.66954
G0 F6000 X179.355 Y102.73
G0 X179.263 Y102.76
G0 X179.3 Y102.146
G0 X181.082 Y102.146
G0 X181.085 Y102.306
G1 F1800 X144.844 Y66.065 E645.51312
G0 F6000 X144.971 Y65.068
G1 F1800 X144.893 Y64.636 E645.51669
G1 X145.662 Y65.052 E645.53108
G0 F6000 X145.648 Y64.503
G0 X145.042 Y67.643
G0 X145.042 Y67.643
G0 X144.882 Y67.646
G1 F1800 X153.615 Y65.306 E645.67989
G0 F6000 X153.263 Y64.875
G1 F1800 X152.916 Y64.174 E645.69598
G1 X153.597 Y64.501 E645.70841
G0 F6000 X152.573 Y64.891
G1 F1800 X151.533 Y64.206 E645.72452
G1 X151.882 Y64.908 E645.73743
G0 F6000 X151.21 Y64.803
G1 F1800 X134.162 Y128.425 E646.82154
G0 F6000 X133.194 Y128.448
G1 F1800 X179.822 Y115.954 E647.61608
G0 F6000 X179.664 Y115.957
G0 X179.743 Y119.304
G0 X179.743 Y119.304
G0 X179.9 Y119.301
G1 F1800 X130.278 Y69.679 E648.77112
G0 F6000 X130.281 Y69.839
G0 X132.174 Y69.795
G0 X132.174 Y69.795
G0 X132.17 Y69.634
G1 F1800 X120.886 Y111.746 E649.4887
G0 F6000 X121.047 Y111.743
G0 X120.894 Y105.166
G0 X120.894 Y105.166
G0 X120.733 Y105.17
G1 F1800 X179.205 Y89.502 E650.48506
G0 F6000 X179.046 Y89.505
G0 X178.997 Y89.461
G0 X179.295 Y89.728
G0 X183.456 Y93.461
G0 X183.456 Y93.461
G1 F1800 X181.086 Y102.305 E650.63576
G0 F6000 X181.092 Y102.305
G1 F1800 X183.874 Y101.56 E650.68316
G0 F6000 X183.757 Y101.732
G1 F1800 X184.256 Y102.232 E650.69479
G0 F6000 X184.466 Y101.734
G1 F1800 X183.74 Y101.009 E650.71168
G0 F6000 X184.449 Y101.01
G1 F1800 X183.724 Y100.285 E650.72855
G0 F6000 X184.432 Y100.286
G1 F1800 X183.707 Y99.561 E650.74543
G0 F6000 X184.416 Y99.563
G1 F1800 X183.69 Y98.837 E650.76233
G0 F6000 X184.207 Y97.394
G0 X184.207 Y97.394
G0 X184.365 Y97.391
G1 F1800 X183.639 Y96.665 E650.77923
G0 F6000 X184.349 Y96.667
G1 F1800 X183.622 Y95.941 E650.79614
G0 F6000 X184.332 Y95.943
G1 F1800 X183.606 Y95.218 E650.81303
G0 F6000 X184.315 Y95.219
G1 F1800 X183.589 Y94.494 E650.82991
G0 F6000 X184.298 Y94.496
G1 F1800 X183.572 Y93.77 E650.84681
G0 F6000 X183.96 Y93.45
G1 F1800 X184.281 Y93.772 E650.8543
G0 F6000 X184.123 Y93.774
G0 X181.366 Y102.05
G0 X179.3 Y102.146
G0 X179.472 Y107.742
G0 X179.63 Y107.739
G1 F1800 X174.339 Y127.487 E651.1908
G0 F6000 X174.336 Y127.329
G0 X175.927 Y127.291
G0 X175.927 Y127.291
G0 X175.93 Y127.451
G1 F1800 X119.946 Y71.467 E652.49393
G0 F6000 X120.106 Y71.463
G0 X120.173 Y74.306
G0 X120.173 Y74.306
G0 X120.013 Y74.31
G1 F1800 X137.971 Y69.498 E652.79993
G0 F6000 X137.974 Y69.659
G0 X127.709 Y69.899
G0 X127.709 Y69.899
G0 X127.706 Y69.738
G1 F1800 X118.589 Y103.763 E653.37971
G0 F6000 X118.586 Y103.606
G0 X116.43 Y103.702
G0 X116.43 Y103.702
G1 F1800 X115.705 Y102.977 E653.39659
G0 F6000 X116.414 Y102.979
G1 F1800 X115.688 Y102.253 E653.41349
G0 F6000 X116.397 Y102.255
G1 F1800 X115.672 Y101.529 E653.43038
G0 F6000 X115.832 Y101.526
G0 X115.883 Y103.699
G0 X115.883 Y103.699
G0 X115.722 Y103.701
G1 F1800 X115.897 Y103.827 E653.43333
G1 X115.829 Y103.709 E653.43557
G0 F6000 X119.265 Y95.204
G0 X120.701 Y95.129
G0 X120.585 Y91.941
G0 X120.425 Y91.944
G1 F1800 X178.896 Y76.277 E654.43191
G0 F6000 X178.887 Y75.869
G1 F1800 X171.73 Y68.711 E654.59851
G0 F6000 X172.347 Y68.696
G1 F1800 X156.482 Y127.905 E655.60742
G0 F6000 X156.478 Y127.746
G0 X158.162 Y127.707
G0 X158.162 Y127.707
G0 X158.166 Y127.866
G1 F1800 X120.382 Y90.082 E656.48692
G0 F6000 X120.542 Y90.08
G0 X120.482 Y87.533
G0 X120.482 Y87.533
G0 X120.321 Y87.536
G1 F1800 X178.794 Y71.868 E657.48329
G0 F6000 X178.635 Y71.871
G0 X178.583 Y69.666
G0 X178.583 Y69.666
G0 X178.742 Y69.664
G1 F1800 X177.652 Y68.573 E657.50867
G0 F6000 X176.811 Y68.592
G1 F1800 X160.946 Y127.8 E658.51757
G0 F6000 X160.942 Y127.642
G0 X164.083 Y127.568
G0 X164.083 Y127.568
G0 X164.087 Y127.728
G1 F1800 X120.236 Y83.877 E659.53828
G0 F6000 X120.219 Y83.127
G1 F1800 X174.237 Y68.653 E660.45874
G0 F6000 X174.174 Y68.535
G0 X174.36 Y68.889
G0 X178.761 Y77.28
G0 X178.92 Y77.277
G1 F1800 X165.41 Y127.696 E661.31788
G0 F6000 X165.407 Y127.537
G0 X169.462 Y127.443
G0 X169.462 Y127.443
G0 X169.465 Y127.602
G1 F1800 X180.028 Y124.771 E661.49787
G0 F6000 X180.045 Y125.506
G1 F1800 X124.356 Y69.816 E662.79415
G0 F6000 X123.242 Y69.842
G1 F1800 X120.176 Y81.285 E662.98913
G1 F3000 E655.98913
G0 F6000 X120.336 Y81.282
G0 X140.754 Y69.589
G0 X145.127 Y69.534
G0 X149.808 Y64.406
G0 X149.806 Y64.246
G1 F3000 E662.98913
G1 F1800 X150.844 Y64.931 E663.00526
G1 X150.497 Y64.23 E663.01814
G0 F6000 X150.5 Y64.39
G0 X153.37 Y65.393
G0 X153.748 Y65.525
G0 X163.419 Y68.905
G0 X163.419 Y68.905
G1 F1800 X146.899 Y130.559 E664.06871
G0 F6000 X146.879 Y130.633
G1 F1800 X146.395 Y132.44 E664.0995
G0 F6000 X146.545 Y132.402
G1 F1800 X147.584 Y133.089 E664.11566
G1 X147.581 Y132.378 E664.13181
G1 X148.966 Y133.057 E664.14796
G1 X148.963 Y132.346 E664.16411
G1 X150.004 Y133.033 E664.18463
G0 F6000 X150.002 Y132.874
G0 X151.382 Y132.29
G0 X151.382 Y132.29
G1 F1800 X152.077 Y132.985 E664.20081
G0 F6000 X152.074 Y132.825
G0 X146.543 Y132.954
G0 X146.543 Y132.954
G0 X146.547 Y133.112
G1 F1800 X146.407 Y132.972 E664.20407
G0 F6000 X146.569 Y132.969
G0 X146.821 Y130.893
G0 X147.106 Y130.831
G0 X147.027 Y129.217
G0 X146.865 Y129.221
G1 F1800 X179.926 Y120.362 E664.76743
G0 F6000 X179.767 Y120.365
G0 X179.828 Y122.969
G0 X179.828 Y122.969
G0 X179.987 Y122.965
G1 F1800 X178.803 Y127.383 E664.84271
G0 F6000 X178.782 Y126.324
G1 F3000 E657.84271
G0 F6000 X147.103 Y133.792
; TYPE:WALL-OUTER
G1 F3000 E664.84271
G1 F1800 X147.129 Y134.907 E664.86107
G1 X146.928 Y134.992 E664.86466
G1 X146.699 Y135.058 E664.86858
G1 X146.472 Y135.003 E664.87243
G1 X146.264 Y134.927 E664.87607
G1 X146.238 Y133.811 E664.89444
G1 X146.653 Y133.802 E664.90128
G0 F6000 X146.439 Y134.319
; TYPE:FILL
G1 F1800 X146.912 Y134.792 E664.91229
G0 F6000 X154.563 Y134.733
; TYPE:WALL-OUTER
G1 F1800 X154.537 Y133.618 E664.93064
G1 X155.402 Y133.598 E664.94488
G1 X155.428 Y134.713 E664.96324
G1 X155.227 Y134.798 E664.96683
G1 X154.998 Y134.864 E664.97076
G1 X154.995 Y134.864 E664.9708
G0 F6000 X154.745 Y134.39
; TYPE:FILL
G1 F1800 X154.903 Y133.799 E664.98087
; LAYER:5
G0 F6000 X154.315 Y132.723 Z1.47
; TYPE:BRIDGE
G1 F1200 X155.177 Y132.19 E664.99755
G0 F6000 X154.522 Y132.008
G1 F1200 X153.325 Y132.746 E665.0207
G0 F6000 X153.533 Y132.03
G1 F1200 X152.336 Y132.769 E665.04385
G0 F6000 X152.544 Y132.054
G1 F1200 X151.347 Y132.792 E665.067
G0 F6000 X151.555 Y132.076
G1 F1200 X150.358 Y132.815 E665.09015
G0 F6000 X150.566 Y132.099
G1 F1200 X149.369 Y132.838 E665.11331
G0 F6000 X149.577 Y132.123
G1 F1200 X148.379 Y132.862 E665.13648
G0 F6000 X148.588 Y132.145
G1 F1200 X147.39 Y132.885 E665.15965
G0 F6000 X146.897 Y133.19
G1 F1200 X146.664 Y133.626 E665.16888
G1 X146.677 Y134.206 E665.1781
G1 X146.478 Y134.917 E665.18731
G1 X146.937 Y134.927 E665.19487
G0 F6000 X146.778 Y134.931
G0 X146.567 Y132.901
G0 X146.567 Y132.901
G0 X146.407 Y132.904
G1 F1200 X147.599 Y132.168 E665.21793
G0 F6000 X146.61 Y132.191
G1 F1200 X146.393 Y132.325 E665.22213
G0 F6000 X147.086 Y133.082
; TYPE:WALL-OUTER
G1 F1800 X147.135 Y135.187 E665.25678
G1 X147.032 Y135.327 E665.25964
G1 X146.881 Y135.4 E665.2624
G1 X146.708 Y135.438 E665.26532
G1 X146.536 Y135.409 E665.26819
G1 X146.381 Y135.342 E665.27097
G1 X146.27 Y135.207 E665.27385
G1 X146.16 Y130.462 E665.35197
G1 X146.706 Y130.449 E665.36096
G1 X146.668 Y128.857 E665.38717
G1 X146.122 Y128.87 E665.39616
G1 X146.108 Y128.273 E665.40598
G1 X121.161 Y128.856 E665.81671
G1 X120.579 Y103.909 E666.22743
G1 X115.751 Y104.022 E666.30691
G1 X115.537 Y94.858 E666.45779
G1 X120.365 Y94.745 E666.53727
G1 X119.782 Y69.799 E666.94798
G1 X144.729 Y69.216 E667.3587
G1 X144.616 Y64.388 E667.43818
G1 X153.78 Y64.174 E667.58906
G1 X153.893 Y69.002 E667.66855
G1 X178.84 Y68.42 E668.07927
G1 X179.422 Y93.366 E668.48997
G1 X184.25 Y93.253 E668.56946
G1 X184.464 Y102.417 E668.72033
G1 X179.636 Y102.53 E668.79982
G1 X180.219 Y127.477 E669.21054
G1 X155.272 Y128.06 E669.62126
G1 X155.385 Y132.888 E669.70075
G1 X147.536 Y133.071 E669.82997
G0 F6000 X146.428 Y132.316
; TYPE:FILL
G1 F1800 X146.879 Y130.633 E669.85865
G0 F6000 X146.899 Y130.559
G1 F1800 X163.401 Y68.97 E670.90811
G0 F6000 X165.871 Y68.913
G1 F1800 X178.967 Y82.008 E671.21293
G0 F6000 X178.936 Y80.702
G1 F1800 X116.377 Y97.465 E672.27893
G0 F6000 X116.503 Y97.749
G1 F1800 X115.809 Y98.443 E672.29509
G0 F6000 X116.394 Y98.215
G1 F1800 X146.258 Y128.078 E672.99022
G0 F6000 X146.292 Y128.112
G1 F1800 X146.842 Y128.662 E673.00302
G0 F6000 X146.851 Y128.672
G1 F1800 X150.403 Y132.223 E673.08569
G0 F6000 X150.892 Y132.211
G1 F1800 X167.865 Y68.866 E674.16507
G0 F6000 X171.793 Y68.774
G1 F1800 X178.822 Y75.803 E674.32869
G0 F6000 X178.833 Y76.294
G1 F1800 X120.489 Y91.927 E675.32286
G0 F6000 X120.649 Y91.924
G0 X120.607 Y90.146
G0 X120.607 Y90.146
G0 X120.447 Y90.148
G1 F1800 X158.104 Y127.804 E676.19939
G0 F6000 X158.1 Y127.644
G0 X156.495 Y127.682
G0 X156.495 Y127.682
G0 X156.499 Y127.841
G1 F1800 X172.33 Y68.762 E677.20609
G0 F6000 X173.974 Y68.723
G1 F1800 X120.283 Y83.11 E678.12098
G0 F6000 X120.302 Y83.943
G1 F1800 X164.025 Y127.666 E679.13871
G0 F6000 X165.428 Y127.631
G1 F1800 X178.861 Y77.496 E679.993
G0 F6000 X178.702 Y77.499
G0 X178.571 Y71.888
G0 X178.571 Y71.888
G0 X178.73 Y71.885
G1 F1800 X120.386 Y87.518 E680.98717
G0 F6000 X120.546 Y87.515
G0 X120.395 Y81.062
G0 X120.395 Y81.062
G0 X120.235 Y81.065
G1 F1800 X123.225 Y69.908 E681.17729
G0 F6000 X124.418 Y69.879
G1 F1800 X179.98 Y125.441 E682.4706
G0 F6000 X179.964 Y124.788
G1 F1800 X169.726 Y127.532 E682.64506
G0 F6000 X169.892 Y127.527
G1 F1800 X179.217 Y92.725 E683.23808
G0 F6000 X180.75 Y93.524
G1 F1800 X120.899 Y109.562 E684.25793
G0 F6000 X120.881 Y108.761
G1 F1800 X140.336 Y128.216 E684.71078
G0 F6000 X140.333 Y128.058
G0 X138.641 Y128.098
G0 X138.641 Y128.098
G0 X138.644 Y128.255
G1 F1800 X154.473 Y69.178 E685.71745
G0 F6000 X154.027 Y69.188
G1 F1800 X183.598 Y98.759 E686.40577
G0 F6000 X183.475 Y98.659
G1 F1800 X184.16 Y97.62 E686.42187
G1 X183.452 Y97.622 E686.43797
G1 X184.128 Y96.238 E686.45404
G1 X183.427 Y96.586 E686.46692
G0 F6000 X183.561 Y97.207
G1 F1800 X121.002 Y113.97 E687.53292
G0 F6000 X121.026 Y114.966
G1 F1800 X134.415 Y128.355 E687.84458
G0 F6000 X134.179 Y128.361
G1 F1800 X151.153 Y65.013 E688.92402
G0 F6000 X151.241 Y65.133
G1 F1800 X151.968 Y64.406 E688.94094
G0 F6000 X151.965 Y65.116
G1 F1800 X152.691 Y64.389 E688.95785
G0 F6000 X152.689 Y65.099
G1 F1800 X153.416 Y64.372 E688.97477
G0 F6000 X153.606 Y64.889
G1 F1800 X153.413 Y65.082 E688.97927
G0 F6000 X153.615 Y65.306
G1 F1800 X144.882 Y67.646 E689.12807
G0 F6000 X145.042 Y67.643
G0 X145.005 Y66.062
G0 X145.005 Y66.062
G0 X144.844 Y66.065
G1 F1800 X181.085 Y102.306 E689.97165
G0 F6000 X181.086 Y102.305
G1 F1800 X183.456 Y93.461 E690.12235
G0 F6000 X183.73 Y93.455
G1 F1800 X183.371 Y94.167 E690.13086
G1 X184.08 Y94.165 E690.14699
G1 X183.403 Y95.549 E690.16311
G1 X184.105 Y95.202 E690.176
G0 F6000 X183.946 Y95.204
G0 X184.027 Y98.659
G0 X184.027 Y98.659
G0 X184.185 Y98.657
G1 F1800 X183.5 Y99.695 E690.19213
G1 X184.208 Y99.694 E690.20821
G1 X183.531 Y101.078 E690.22434
G1 X184.24 Y101.076 E690.24047
G1 X183.556 Y102.114 E690.26093
G0 F6000 X183.665 Y101.616
G1 F1800 X181.092 Y102.305 E690.30477
G0 F6000 X181.089 Y102.146
G0 X180.957 Y102.189
G0 X179.236 Y102.148
G0 X179.291 Y102.748
G0 X179.449 Y102.746
G1 F1800 X121.105 Y118.379 E691.29894
G0 F6000 X121.266 Y118.376
G0 X121.331 Y121.168
G0 X121.331 Y121.168
G0 X121.171 Y121.171
G1 F1800 X128.493 Y128.493 E691.46938
G0 F6000 X129.715 Y128.465
G1 F1800 X146.689 Y65.118 E692.5488
G0 F6000 X146.897 Y65.234
G1 F1800 X147.624 Y64.507 E692.56572
G0 F6000 X147.621 Y65.217
G1 F1800 X148.348 Y64.49 E692.58265
G0 F6000 X148.346 Y65.2
G1 F1800 X149.072 Y64.473 E692.59956
G0 F6000 X149.07 Y65.183
G1 F1800 X149.796 Y64.457 E692.61646
G0 F6000 X149.882 Y65.043
G1 F1800 X153.699 Y68.86 E692.7053
G0 F6000 X155.84 Y69.146
G1 F1800 X120.179 Y78.701 E693.31296
G0 F6000 X120.157 Y77.737
G1 F1800 X169.946 Y127.527 E694.4719
G0 F6000 X169.943 Y127.368
G0 X174.353 Y127.265
G0 X174.353 Y127.265
G0 X174.356 Y127.423
G1 F1800 X179.571 Y107.959 E694.80357
G0 F6000 X179.552 Y107.154
G1 F1800 X121.208 Y122.787 E695.79774
G0 F6000 X121.369 Y122.784
G0 X121.461 Y126.753
G0 X121.461 Y126.753
G0 X121.301 Y126.755
G1 F1800 X136.617 Y69.594 E696.77175
G0 F6000 X136.262 Y69.603
G1 F1800 X179.689 Y113.031 E697.78261
G0 F6000 X179.655 Y111.563
G1 F1800 X121.311 Y127.196 E698.77678
G0 F6000 X121.316 Y127.376
G1 F1800 X122.572 Y128.631 E698.80601
G0 F6000 X122.568 Y128.473
G0 X125.248 Y128.411
G0 X125.248 Y128.411
G0 X125.251 Y128.569
G1 F1800 X141.081 Y69.49 E699.8127
G0 F6000 X142.183 Y69.464
G1 F1800 X179.545 Y106.826 E700.68237
G0 F6000 X179.387 Y106.828
G0 X179.342 Y106.872
G0 X179.236 Y102.148
G0 X184.141 Y102.075
G0 X184.143 Y102.234
G1 F1800 X184.264 Y102.113 E700.68519
G0 F6000 X184.107 Y102.117
G0 X180.711 Y93.772
G0 X179.04 Y93.766
G0 X178.983 Y89.522
G0 X179.142 Y89.519
G1 F1800 X120.796 Y105.153 E701.6794
G0 F6000 X120.957 Y105.149
G0 X121.024 Y105.192
G0 X120.961 Y103.509
G0 X118.586 Y103.606
G0 X118.589 Y103.763
G1 F1800 X127.689 Y69.803 E702.25807
G0 F6000 X127.692 Y69.964
G0 X130.343 Y69.902
G0 X130.343 Y69.902
G0 X130.34 Y69.741
G1 F1800 X179.835 Y119.236 E703.41016
G0 F6000 X179.862 Y120.38
G1 F1800 X146.865 Y129.221 E703.97243
G0 F6000 X147.027 Y129.217
G0 X147.117 Y129.245
G0 X147.05 Y128.457
G0 X146.49 Y127.873
G0 X143.105 Y127.993
G0 X143.108 Y128.151
G1 F1800 X158.937 Y69.074 E704.97909
G0 F6000 X159.949 Y69.051
G1 F1800 X179.112 Y88.213 E705.42513
G0 F6000 X178.952 Y88.217
G0 X178.88 Y85.115
G0 X178.88 Y85.115
G0 X179.039 Y85.111
G1 F1800 X116.479 Y101.874 E706.49114
G0 F6000 X116.599 Y101.896
G1 F1800 X115.898 Y102.243 E706.50726
G1 X116.575 Y100.859 E706.52339
G1 X115.866 Y100.861 E706.53952
G1 X116.543 Y99.477 E706.55565
G1 X115.834 Y99.479 E706.57177
G1 X116.519 Y98.441 E706.59224
G0 F6000 X115.794 Y97.751
G1 F1800 X116.479 Y96.713 E706.60837
G1 X115.77 Y96.715 E706.6245
G1 X116.394 Y95.65 E706.64059
G1 X116.445 Y95.026 E706.65081
G1 X115.746 Y95.678 E706.66655
G0 F6000 X115.906 Y95.675
G0 X119.204 Y95.122
G0 X119.204 Y95.122
G0 X119.201 Y94.961
G1 F1800 X155.147 Y130.907 E707.50326
G0 F6000 X155.159 Y131.435
G1 F1800 X152.393 Y132.176 E707.55039
G0 F6000 X154.908 Y130.825
G0 X154.872 Y127.678
G0 X160.96 Y127.578
G0 X160.964 Y127.736
G1 F1800 X176.794 Y68.658 E708.55707
G0 F6000 X177.715 Y68.636
G1 F1800 X178.677 Y69.599 E708.57947
G1 F3000 E701.57947
G0 F6000 X178.518 Y69.601
G0 X174.265 Y68.817
G0 X153.511 Y69.402
G0 X151.247 Y64.583
G0 X151.244 Y64.423
G1 F3000 E708.57947
G1 F1800 X150.517 Y65.149 E708.59638
G0 F6000 X150.52 Y64.44
G1 F1800 X149.793 Y65.166 E708.61329
G0 F6000 X149.779 Y64.617
G0 X146.903 Y64.684
G0 X146.903 Y64.684
G0 X146.9 Y64.524
G1 F1800 X146.173 Y65.251 E708.63022
G0 F6000 X146.176 Y64.541
G1 F1800 X145.45 Y65.267 E708.64712
G0 F6000 X144.823 Y65.186
G1 F1800 X145.452 Y64.558 E708.66175
G0 F6000 X145.454 Y64.718
G0 X145.049 Y64.979
G0 X145.129 Y69.598
G0 X137.71 Y69.73
G0 X137.707 Y69.569
G1 F1800 X120.077 Y74.293 E708.96216
G0 F6000 X120.237 Y74.289
G0 X120.172 Y71.529
G0 X120.172 Y71.529
G0 X120.012 Y71.533
G1 F1800 X175.868 Y127.388 E710.2623
G0 F6000 X175.865 Y127.229
G0 X178.818 Y127.16
G0 X178.818 Y127.16
G0 X178.82 Y127.319
G1 F1800 X179.927 Y123.186 E710.33272
G0 F6000 X179.769 Y123.189
G0 X179.6 Y115.974
G0 X179.6 Y115.974
G0 X179.758 Y115.971
G1 F1800 X133.459 Y128.377 E711.12165
G1 F3000 E704.12165
G0 F6000 X133.456 Y128.219
G0 X121.106 Y111.523
G0 X121.106 Y111.523
G0 X120.946 Y111.526
G1 F3000 E711.12165
G1 F1800 X132.153 Y69.699 E711.83438
G1 F3000 E704.83438
G0 F6000 X132.157 Y69.859
G0 X120.671 Y93.229
G0 X120.765 Y95.127
G0 X116.067 Y102.601
G0 X116.616 Y102.587
G1 F3000 E711.83438
G1 F1800 X115.928 Y103.547 E711.85047
G1 X116.016 Y103.824 E711.85071
G1 X116.631 Y103.278 E711.86425
G0 F6000 X154.532 Y133.408
; TYPE:WALL-OUTER
G1 F1800 X155.397 Y133.388 E711.87849
G1 X155.434 Y134.993 E711.90491
G1 X155.331 Y135.133 E711.90777
G1 X155.18 Y135.206 E711.91053
G1 X155.007 Y135.244 E711.91345
G1 X154.831 Y135.214 E711.91639
G1 X154.681 Y135.15 E711.91907
G1 X154.569 Y135.013 E711.92199
G1 X154.543 Y133.858 E711.941
G0 F6000 X154.729 Y133.769
; TYPE:FILL
G1 F1800 X154.935 Y133.588 E711.9452
G1 X154.744 Y134.426 E711.95889
G1 X155.227 Y134.332 E711.96992
G1 X154.883 Y135.029 E711.98272
; LAYER:6
G0 F6000 X155.38 Y132.67 Z1.68
; TYPE:WALL-OUTER
G1 F1800 X146.216 Y132.884 E712.13359
G1 X146.16 Y130.462 E712.17346
G1 X146.706 Y130.449 E712.18245
G1 X146.668 Y128.857 E712.20866
G1 X146.122 Y128.87 E712.21765
G1 X146.107 Y128.209 E712.22854
G1 X121.224 Y128.79 E712.6382
G1 X120.643 Y103.908 E713.04785
G1 X115.961 Y104.017 E713.12494
G1 X115.747 Y94.853 E713.27581
G1 X120.429 Y94.744 E713.35289
G1 X119.848 Y69.862 E713.76254
G1 X144.73 Y69.28 E714.17219
G1 X144.621 Y64.598 E714.24928
G1 X153.785 Y64.384 E714.40015
G1 X153.894 Y69.066 E714.47723
G1 X178.777 Y68.485 E714.8869
G1 X179.358 Y93.367 E715.29655
G1 X184.04 Y93.258 E715.37363
G1 X184.254 Y102.422 E715.52451
G1 X179.572 Y102.531 E715.60159
G1 X180.153 Y127.414 E716.01126
G1 X155.271 Y127.996 E716.42091
G1 X155.369 Y132.22 E716.49045
G0 F6000 X155.113 Y132.486
; TYPE:FILL
G1 F1800 X154.772 Y131.791 E716.5064
G1 X155.169 Y131.835 E716.51298
G0 F6000 X155.159 Y131.435
G1 F1800 X153.252 Y131.946 E716.54547
G0 F6000 X153.045 Y131.832
G1 F1800 X154.077 Y132.51 E716.56145
G1 X153.388 Y132.175 E716.57741
G1 X152.008 Y131.856 E716.59336
G1 X152.003 Y132.558 E716.6093
G1 X150.972 Y131.88 E716.62961
G0 F6000 X150.949 Y132
G1 F1800 X167.848 Y68.93 E717.70431
G0 F6000 X165.933 Y68.975
G1 F1800 X178.9 Y81.942 E718.00615
G0 F6000 X178.872 Y80.719
G1 F1800 X116.585 Y97.409 E719.06751
G0 F6000 X116.71 Y97.618
G1 F1800 X115.984 Y96.892 E719.08441
G0 F6000 X116.693 Y96.894
G1 F1800 X115.967 Y96.168 E719.10131
G0 F6000 X116.677 Y96.171
G1 F1800 X115.95 Y95.444 E719.11823
G0 F6000 X116.244 Y95.03
G1 F1800 X116.66 Y95.447 E719.12792
G0 F6000 X116.652 Y95.181
G0 X116.161 Y97.613
G0 X116.161 Y97.613
G0 X116.001 Y97.616
G1 F1800 X116.727 Y98.342 E719.14482
G0 F6000 X116.609 Y98.429
G1 F1800 X146.195 Y128.016 E719.8335
G0 F6000 X146.293 Y128.113
G1 F1800 X146.842 Y128.662 E719.84628
G0 F6000 X146.851 Y128.672
G1 F1800 X150.197 Y132.018 E719.92417
G0 F6000 X150.281 Y131.896
G1 F1800 X150.622 Y132.59 E719.94015
G1 X149.244 Y131.92 E719.95609
G1 X149.239 Y132.623 E719.97204
G1 X147.862 Y131.952 E719.98797
G1 X147.857 Y132.655 E720.00391
G1 X146.825 Y131.976 E720.02425
G0 F6000 X146.485 Y132.103
G1 F1800 X146.879 Y130.633 E720.0493
G0 F6000 X146.899 Y130.559
G1 F1800 X163.384 Y69.034 E721.09767
G0 F6000 X160.012 Y69.114
G1 F1800 X179.045 Y88.147 E721.5407
G0 F6000 X179.078 Y89.536
G1 F1800 X120.86 Y105.136 E722.53273
G0 F6000 X121.021 Y105.132
G0 X121.089 Y105.173
G0 X121.025 Y103.508
G0 X118.586 Y103.606
G0 X118.589 Y103.763
G1 F1800 X127.672 Y69.867 E723.11031
G0 F6000 X127.675 Y70.028
G0 X130.406 Y69.965
G0 X130.406 Y69.965
G0 X130.403 Y69.804
G1 F1800 X179.769 Y119.17 E724.2594
G0 F6000 X179.797 Y120.397
G1 F1800 X146.865 Y129.221 E724.82056
G0 F6000 X147.027 Y129.217
G0 X146.97 Y129.571
G0 X147.106 Y130.831
G0 X146.552 Y132.245
G0 X146.39 Y132.248
G1 F1800 X146.821 Y132.679 E724.83059
G0 F6000 X146.818 Y132.52
G0 X146.571 Y132.215
G0 X147.106 Y130.831
G0 X147.05 Y128.457
G0 X146.49 Y127.809
G0 X143.122 Y127.929
G0 X143.125 Y128.087
G1 F1800 X158.92 Y69.138 E725.83507
G0 F6000 X155.578 Y69.216
G1 F1800 X120.244 Y78.684 E726.43716
G0 F6000 X120.223 Y77.803
G1 F1800 X169.883 Y127.464 E727.5931
G0 F6000 X169.909 Y127.464
G1 F1800 X179.158 Y92.946 E728.18128
G0 F6000 X180.75 Y93.524
G1 F1800 X120.963 Y109.545 E729.20005
G0 F6000 X120.947 Y108.827
G1 F1800 X140.274 Y128.154 E729.64992
G0 F6000 X140.271 Y127.995
G0 X138.658 Y128.033
G0 X138.658 Y128.033
G0 X138.661 Y128.191
G1 F1800 X154.456 Y69.243 E730.65438
G0 F6000 X154.09 Y69.251
G1 F1800 X183.383 Y98.544 E731.33623
G0 F6000 X183.26 Y98.407
G1 F1800 X183.985 Y99.132 E731.35311
G0 F6000 X183.277 Y99.131
G1 F1800 X184.002 Y99.856 E731.36999
G0 F6000 X183.293 Y99.854
G1 F1800 X184.019 Y100.58 E731.38688
G0 F6000 X183.31 Y100.578
G1 F1800 X184.035 Y101.304 E731.40377
G0 F6000 X183.455 Y101.672
G1 F1800 X181.092 Y102.305 E731.44404
G0 F6000 X181.086 Y102.305
G1 F1800 X183.28 Y94.119 E731.58353
G0 F6000 X183.159 Y94.064
G1 F1800 X183.885 Y94.789 E731.60041
G0 F6000 X183.176 Y94.787
G1 F1800 X183.902 Y95.513 E731.61731
G0 F6000 X183.192 Y95.511
G1 F1800 X183.918 Y96.237 E731.63421
G0 F6000 X183.209 Y96.235
G1 F1800 X183.935 Y96.961 E731.65111
G0 F6000 X183.353 Y97.263
G1 F1800 X121.066 Y113.953 E732.71247
G0 F6000 X121.092 Y115.032
G1 F1800 X134.352 Y128.292 E733.02112
G0 F6000 X134.197 Y128.295
G1 F1800 X151.096 Y65.225 E734.09583
G0 F6000 X150.91 Y65.35
G1 F1800 X150.217 Y64.657 E734.11196
G0 F6000 X150.088 Y65.249
G1 F1800 X153.698 Y68.86 E734.196
G0 F6000 X153.621 Y67.728
G0 X153.594 Y67.329
G0 X153.457 Y65.308
G0 X153.615 Y65.306
G1 F1800 X144.882 Y67.646 E734.34481
G0 F6000 X145.042 Y67.643
G0 X145.005 Y66.062
G0 X145.005 Y66.062
G0 X144.844 Y66.065
G1 F1800 X181.085 Y102.306 E735.18838
G0 F6000 X181.082 Y102.146
G0 X180.951 Y102.189
G0 X179.172 Y102.149
G0 X179.228 Y102.765
G0 X179.385 Y102.763
G1 F1800 X121.169 Y118.362 E736.18038
G0 F6000 X121.33 Y118.359
G0 X121.397 Y121.233
G0 X121.397 Y121.233
G0 X121.236 Y121.236
G1 F1800 X128.43 Y128.43 E736.34783
G0 F6000 X129.733 Y128.399
G1 F1800 X146.632 Y65.329 E737.42253
G0 F6000 X146.764 Y65.446
G1 F1800 X146.416 Y64.745 E737.43863
G1 X147.8 Y65.423 E737.45472
G1 X147.797 Y64.713 E737.47084
G1 X149.182 Y65.39 E737.48693
G1 X149.18 Y64.681 E737.50306
G1 X150.219 Y65.367 E737.52355
G0 F6000 X150.908 Y64.641
G1 F1800 X151.947 Y65.326 E737.53965
G1 X151.944 Y64.617 E737.55578
G1 X153.298 Y65.263 E737.57188
G1 X152.981 Y64.592 E737.58409
G0 F6000 X152.984 Y64.753
G0 X146.059 Y64.914
G0 X146.059 Y64.914
G0 X146.073 Y65.463
G1 F1800 X145.098 Y64.841 E737.60023
G1 X145.382 Y65.479 E737.61173
G0 F6000 X144.992 Y65.489
G0 X145.003 Y65.471
G0 X145.13 Y69.662
G0 X142.25 Y69.688
G0 X142.246 Y69.527
G1 F1800 X179.479 Y106.761 E738.47841
G0 F6000 X179.488 Y107.171
G1 F1800 X121.272 Y122.77 E739.4704
G0 F6000 X121.433 Y122.767
G0 X121.521 Y126.533
G0 X121.521 Y126.533
G0 X121.36 Y126.536
G1 F1800 X136.6 Y69.659 E740.43958
G0 F6000 X136.324 Y69.665
G1 F1800 X179.624 Y112.965 E741.44746
G0 F6000 X179.591 Y111.58
G1 F1800 X121.375 Y127.179 E742.43946
G0 F6000 X121.381 Y127.441
G1 F1800 X122.509 Y128.568 E742.4657
G0 F6000 X122.505 Y128.41
G0 X125.265 Y128.346
G0 X125.265 Y128.346
G0 X125.268 Y128.504
G1 F1800 X141.064 Y69.554 E743.4702
G0 F6000 X141.067 Y69.715
G0 X137.447 Y69.8
G0 X137.447 Y69.8
G0 X137.444 Y69.639
G1 F1800 X120.141 Y74.275 E743.76504
G0 F6000 X120.301 Y74.271
G0 X120.238 Y71.594
G0 X120.238 Y71.594
G0 X120.078 Y71.598
G1 F1800 X175.805 Y127.325 E745.06219
G0 F6000 X174.373 Y127.358
G1 F1800 X179.512 Y108.18 E745.38898
G0 F6000 X179.354 Y108.183
G0 X179.336 Y108.208
G0 X179.172 Y102.149
G0 X183.562 Y102.089
G0 X183.564 Y102.247
G1 F1800 X183.344 Y102.027 E745.3941
G0 F6000 X184.052 Y102.028
G1 F1800 X183.327 Y101.302 E745.41099
G0 F6000 X183.811 Y98.41
G0 X183.811 Y98.41
G0 X183.968 Y98.408
G1 F1800 X183.243 Y97.683 E745.42787
G0 F6000 X183.952 Y97.685
G1 F1800 X183.226 Y96.959 E745.44477
G0 F6000 X183.709 Y94.067
G0 X183.709 Y94.067
G0 X183.868 Y94.065
G1 F1800 X183.362 Y93.463 E745.45869
G1 X183.424 Y93.582 E745.4609
G0 F6000 X183.487 Y93.698
G0 X178.976 Y93.767
G0 X178.816 Y85.132
G0 X178.975 Y85.128
G1 F1800 X116.688 Y101.818 E746.52227
G0 F6000 X116.811 Y101.962
G1 F1800 X116.085 Y101.235 E746.53918
G0 F6000 X116.794 Y101.238
G1 F1800 X116.068 Y100.511 E746.55609
G0 F6000 X116.777 Y100.514
G1 F1800 X116.051 Y99.788 E746.57299
G0 F6000 X116.761 Y99.79
G1 F1800 X116.034 Y99.064 E746.5899
G0 F6000 X116.744 Y99.067
G1 F1800 X116.017 Y98.34 E746.60682
G0 F6000 X116.178 Y98.337
G0 X116.262 Y101.956
G0 X116.262 Y101.956
G0 X116.101 Y101.959
G1 F1800 X116.828 Y102.686 E746.62374
G0 F6000 X116.118 Y102.683
G1 F1800 X116.845 Y103.41 E746.64066
G0 F6000 X116.54 Y103.812
G1 F1800 X116.135 Y103.407 E746.65009
G0 F6000 X116.296 Y103.405
G0 X119.204 Y95.122
G0 X119.204 Y95.122
G0 X119.201 Y94.961
G1 F1800 X155.147 Y130.908 E747.48681
G0 F6000 X154.989 Y130.911
G0 X154.999 Y130.886
G0 X154.871 Y127.614
G0 X156.513 Y127.617
G0 X156.517 Y127.776
G1 F1800 X172.312 Y68.826 E748.49131
G0 F6000 X171.855 Y68.837
G1 F1800 X178.755 Y75.737 E748.65192
G0 F6000 X178.769 Y76.311
G1 F1800 X120.552 Y91.91 E749.64393
G0 F6000 X120.713 Y91.907
G0 X120.673 Y90.211
G0 X120.673 Y90.211
G0 X120.512 Y90.213
G1 F1800 X158.041 Y127.741 E750.51747
G0 F6000 X158.037 Y127.582
G0 X160.977 Y127.513
G0 X160.977 Y127.513
G0 X160.981 Y127.672
G1 F1800 X176.776 Y68.721 E751.52199
G0 F6000 X177.777 Y68.698
G1 F1800 X178.61 Y69.532 E751.54139
G0 F6000 X178.452 Y69.534
G0 X178.507 Y71.905
G0 X178.507 Y71.905
G0 X178.666 Y71.902
G1 F1800 X120.45 Y87.501 E752.53338
G0 F6000 X120.61 Y87.498
G0 X120.528 Y84.005
G0 X120.528 Y84.005
G0 X120.367 Y84.008
G1 F1800 X163.962 Y127.603 E753.54814
G0 F6000 X165.445 Y127.568
G1 F1800 X178.802 Y77.716 E754.3976
G0 F6000 X178.643 Y77.719
G0 X173.843 Y69.027
G0 X173.65 Y68.677
G0 X173.715 Y68.793
G0 X173.715 Y68.793
G1 F1800 X120.346 Y83.093 E755.307
G0 F6000 X120.507 Y83.089
G0 X120.454 Y80.84
G0 X120.454 Y80.84
G0 X120.295 Y80.843
G1 F1800 X123.208 Y69.971 E755.49226
G0 F6000 X124.481 Y69.942
G1 F1800 X179.914 Y125.375 E756.78257
G0 F6000 X179.9 Y124.806
G1 F1800 X169.987 Y127.462 E756.95148
G0 F6000 X169.984 Y127.302
G0 X178.835 Y127.095
G0 X178.835 Y127.095
G0 X178.837 Y127.254
G1 F1800 X179.868 Y123.408 E757.01702
G0 F6000 X179.71 Y123.411
G0 X179.536 Y115.991
G0 X179.536 Y115.991
G0 X179.695 Y115.988
G1 F1800 X133.72 Y128.307 E757.80043
G1 F3000 E750.80043
G0 F6000 X133.717 Y128.148
G0 X121.165 Y111.304
G0 X121.165 Y111.304
G0 X121.004 Y111.307
G1 F3000 E757.80043
G1 F1800 X132.136 Y69.763 E758.50833
G1 F3000 E751.50833
G0 F6000 X146.247 Y134.22
; TYPE:WALL-OUTER
G1 F3000 E758.50833
G1 F1800 X147.113 Y134.2 E758.52259
G1 X147.136 Y135.222 E758.53942
G1 X146.964 Y135.454 E758.54417
G1 X146.976 Y135.582 E758.54628
G1 X146.95 Y135.639 E758.54732
G1 X146.476 Y135.65 E758.55512
G1 X146.448 Y135.594 E758.55615
G1 X146.453 Y135.466 E758.55826
G1 X146.271 Y135.242 E758.56301
G1 X146.258 Y134.67 E758.57243
G0 F6000 X146.523 Y134.403
; TYPE:FILL
G1 F1800 X146.936 Y134.816 E758.58204
G0 F6000 X154.57 Y135.049
; TYPE:WALL-OUTER
G1 F1800 X154.546 Y134.026 E758.59888
G1 X155.411 Y134.006 E758.61312
G1 X155.435 Y135.028 E758.62995
G1 X155.263 Y135.26 E758.6347
G1 X155.275 Y135.388 E758.63682
G1 X155.249 Y135.445 E758.63785
G1 X154.775 Y135.456 E758.64565
G1 X154.763 Y135.432 E758.6461
G0 F6000 X154.744 Y134.392
; TYPE:FILL
G1 F1800 X154.793 Y134.208 E758.64923
; LAYER:7
G0 F6000 X154.746 Y132.133 Z1.89
G0 X155.108 Y132.125
G0 X155.108 Y132.125
G0 X155.375 Y132.468
; TYPE:WALL-OUTER
G1 F1800 X146.211 Y132.682 E758.8001
G1 X146.16 Y130.462 E758.83665
G1 X146.706 Y130.449 E758.84564
G1 X146.668 Y128.857 E758.87185
G1 X146.122 Y128.87 E758.88084
G1 X146.105 Y128.145 E758.89278
G1 X121.287 Y128.725 E759.30137
G1 X120.708 Y103.906 E759.70999
G1 X116.17 Y104.012 E759.7847
G1 X115.956 Y94.848 E759.93557
G1 X120.494 Y94.742 E760.01029
G1 X119.913 Y69.924 E760.41888
G1 X144.732 Y69.345 E760.8275
G1 X144.626 Y64.808 E760.90219
G1 X153.79 Y64.594 E761.05307
G1 X153.896 Y69.131 E761.12776
G1 X178.714 Y68.551 E761.53636
G1 X179.293 Y93.369 E761.94495
G1 X183.831 Y93.263 E762.01967
G1 X184.045 Y102.427 E762.17054
G1 X179.507 Y102.533 E762.24525
G1 X180.088 Y127.351 E762.65385
G1 X155.269 Y127.931 E763.06246
G1 X155.364 Y132.018 E763.12975
G0 F6000 X155.171 Y131.914
; TYPE:FILL
G1 F1800 X154.792 Y132.292 E763.13856
G0 F6000 X154.796 Y131.581
G1 F1800 X154.069 Y132.308 E763.15548
G0 F6000 X154.109 Y131.716
G1 F1800 X155.159 Y131.435 E763.17337
G0 F6000 X155.147 Y130.907
G1 F1800 X119.201 Y94.961 E764.01008
G0 F6000 X119.204 Y95.122
G0 X116.862 Y95.176
G0 X116.862 Y95.176
G0 X116.866 Y95.265
G1 F1800 X116.163 Y95.614 E764.02626
G1 X116.397 Y95.027 E764.03666
G0 F6000 X116.882 Y95.956
G1 F1800 X116.195 Y96.996 E764.05282
G1 X116.906 Y96.993 E764.06897
G1 X116.227 Y98.378 E764.08512
G1 X116.93 Y98.029 E764.09804
G0 F6000 X116.824 Y98.644
G1 F1800 X146.132 Y127.953 E764.78025
G0 F6000 X146.292 Y128.112
G1 F1800 X146.842 Y128.662 E764.79305
G0 F6000 X146.851 Y128.672
G1 F1800 X149.992 Y131.813 E764.86616
G0 F6000 X149.729 Y131.699
G1 F1800 X149.001 Y132.426 E764.8831
G0 F6000 X149.005 Y131.716
G1 F1800 X148.278 Y132.443 E764.90002
G0 F6000 X148.281 Y131.732
G1 F1800 X147.554 Y132.46 E764.91695
G0 F6000 X147.557 Y131.749
G1 F1800 X146.83 Y132.477 E764.93389
G0 F6000 X146.394 Y132.443
G1 F1800 X146.505 Y132.03 E764.94093
G0 F6000 X146.541 Y131.893
G1 F1800 X146.879 Y130.633 E764.9624
G0 F6000 X146.899 Y130.559
G1 F1800 X163.367 Y69.1 E766.00965
G0 F6000 X165.996 Y69.038
G1 F1800 X178.834 Y81.875 E766.30847
G0 F6000 X178.808 Y80.737
G1 F1800 X116.794 Y97.353 E767.36518
G0 F6000 X116.946 Y98.721
G1 F1800 X116.259 Y99.76 E767.38133
G1 X116.97 Y99.757 E767.39746
G1 X116.291 Y101.142 E767.4136
G1 X117.002 Y101.139 E767.42975
G1 X116.324 Y102.524 E767.4459
G1 X117.026 Y102.176 E767.45879
G0 F6000 X116.898 Y101.761
G1 F1800 X178.91 Y85.145 E768.51547
G0 F6000 X178.752 Y85.149
G0 X178.82 Y88.084
G0 X178.82 Y88.084
G0 X178.979 Y88.08
G1 F1800 X160.075 Y69.176 E768.95549
G0 F6000 X158.903 Y69.204
G1 F1800 X143.142 Y128.023 E769.95776
G0 F6000 X143.139 Y127.864
G0 X140.208 Y127.933
G0 X140.208 Y127.933
G0 X140.211 Y128.091
G1 F1800 X121.013 Y108.893 E770.40463
G0 F6000 X121.027 Y109.527
G1 F1800 X180.75 Y93.525 E771.4223
G0 F6000 X179.098 Y93.168
G1 F1800 X169.927 Y127.398 E772.00557
G0 F6000 X169.82 Y127.401
G1 F1800 X120.288 Y77.869 E773.15852
G0 F6000 X120.307 Y78.667
G1 F1800 X155.31 Y69.288 E773.75497
G0 F6000 X154.439 Y69.308
G1 F1800 X138.678 Y128.127 E774.75724
G0 F6000 X138.675 Y127.969
G0 X134.285 Y128.071
G0 X134.285 Y128.071
G0 X134.289 Y128.229
G1 F1800 X121.158 Y115.098 E775.06289
G0 F6000 X121.131 Y113.936
G1 F1800 X183.144 Y97.319 E776.11958
G0 F6000 X183.017 Y96.996
G1 F1800 X183.703 Y95.956 E776.1357
G1 X182.993 Y95.959 E776.15183
G1 X183.679 Y94.92 E776.17232
G0 F6000 X183.086 Y94.842
G1 F1800 X181.086 Y102.305 E776.29949
G0 F6000 X181.085 Y102.307
G1 F1800 X144.844 Y66.065 E777.14308
G0 F6000 X145.019 Y65.697
G1 F1800 X145.746 Y64.971 E777.15999
G0 F6000 X145.743 Y65.681
G1 F1800 X146.47 Y64.954 E777.17691
G0 F6000 X146.575 Y65.541
G1 F1800 X129.75 Y128.335 E778.24691
G0 F6000 X128.368 Y128.368
G1 F1800 X121.303 Y121.303 E778.41136
G0 F6000 X121.336 Y122.753
G1 F1800 X179.424 Y107.188 E779.40117
G0 F6000 X179.412 Y106.693
G1 F1800 X142.309 Y69.59 E780.26481
G0 F6000 X141.047 Y69.619
G1 F1800 X125.286 Y128.439 E781.2671
G0 F6000 X125.283 Y128.282
G0 X122.442 Y128.348
G0 X122.442 Y128.348
G0 X122.446 Y128.506
G1 F1800 X121.448 Y127.508 E781.29033
G0 F6000 X121.438 Y127.162
G1 F1800 X179.527 Y111.597 E782.28016
G0 F6000 X179.557 Y112.898
G1 F1800 X136.388 Y69.729 E783.285
G0 F6000 X136.583 Y69.724
G1 F1800 X121.419 Y126.314 E784.24929
G0 F6000 X121.58 Y126.311
G0 X121.394 Y118.341
G0 X121.394 Y118.341
G0 X121.233 Y118.344
G1 F1800 X179.321 Y102.78 E785.23909
G0 F6000 X179.163 Y102.782
G0 X179.072 Y102.811
G0 X179.107 Y102.151
G0 X181.089 Y102.147
G0 X181.092 Y102.305
G1 F1800 X183.247 Y101.728 E785.27581
G0 F6000 X183.129 Y101.834
G1 F1800 X183.815 Y100.794 E785.29193
G1 X183.105 Y100.797 E785.30806
G1 X183.783 Y99.412 E785.3242
G1 X183.072 Y99.415 E785.34033
G1 X183.759 Y98.376 E785.36083
G0 F6000 X183.168 Y98.329
G1 F1800 X154.153 Y69.314 E786.03621
G0 F6000 X153.699 Y68.86
G1 F1800 X150.293 Y65.454 E786.11549
G0 F6000 X150.087 Y65.579
G1 F1800 X150.813 Y64.853 E786.13239
G0 F6000 X151.04 Y65.436
G1 F1800 X134.214 Y128.231 E787.20241
G0 F6000 X133.983 Y128.237
G1 F1800 X179.631 Y116.005 E787.98024
G0 F6000 X179.473 Y116.008
G0 X179.545 Y119.107
G0 X179.545 Y119.107
G0 X179.703 Y119.104
G1 F1800 X130.466 Y69.867 E789.12633
G0 F6000 X130.469 Y70.027
G0 X132.123 Y69.989
G0 X132.123 Y69.989
G0 X132.119 Y69.827
G1 F1800 X121.064 Y111.082 E789.82931
G0 F6000 X121.225 Y111.079
G0 X121.086 Y105.115
G0 X121.086 Y105.115
G0 X120.925 Y105.119
G1 F1800 X179.013 Y89.554 E790.81912
G0 F6000 X178.855 Y89.557
G0 X178.812 Y89.516
G0 X178.911 Y93.769
G0 X182.937 Y93.541
G0 X182.937 Y93.541
G1 F1800 X183.215 Y93.527 E790.82072
G1 X183.551 Y93.499 E790.82277
G1 X182.961 Y94.577 E790.83891
G1 X183.663 Y94.229 E790.85181
G0 F6000 X183.504 Y94.231
G0 X183.569 Y96.996
G0 X183.569 Y96.996
G0 X183.727 Y96.993
G1 F1800 X183.041 Y98.033 E790.86797
G1 X183.743 Y97.684 E790.88087
G0 F6000 X183.585 Y97.687
G0 X183.681 Y101.834
G0 X183.681 Y101.834
G0 X183.839 Y101.831
G1 F1800 X183.419 Y102.251 E790.89065
G0 F6000 X183.417 Y102.092
G0 X183.459 Y102.025
G0 X179.107 Y102.151
G0 X179.295 Y108.404
G0 X179.453 Y108.401
G1 F1800 X174.391 Y127.294 E791.21258
G0 F6000 X175.742 Y127.262
G1 F1800 X120.143 Y71.664 E792.50674
G0 F6000 X120.303 Y71.66
G0 X120.364 Y74.256
G0 X120.364 Y74.256
G0 X120.204 Y74.259
G1 F1800 X137.181 Y69.71 E792.79602
G0 F6000 X137.184 Y69.871
G0 X137.376 Y69.816
G0 X145.132 Y69.727
G0 X145.042 Y67.643
G0 X144.882 Y67.646
G1 F1800 X153.329 Y65.383 E792.93996
G0 F6000 X153.498 Y65.338
G1 F1800 X153.61 Y65.097 E792.94195
G1 X152.983 Y65.512 E792.95433
G0 F6000 X152.986 Y64.802
G1 F1800 X152.259 Y65.529 E792.97125
G0 F6000 X152.262 Y64.819
G1 F1800 X151.535 Y65.546 E792.98817
G0 F6000 X151.537 Y64.836
G1 F1800 X150.811 Y65.562 E793.00507
G0 F6000 X150.089 Y64.87
G1 F1800 X149.363 Y65.596 E793.02197
G0 F6000 X149.366 Y64.886
G1 F1800 X148.639 Y65.613 E793.03889
G0 F6000 X148.642 Y64.903
G1 F1800 X147.915 Y65.63 E793.05581
G0 F6000 X147.918 Y64.92
G1 F1800 X147.192 Y65.647 E793.07273
G0 F6000 X147.194 Y64.937
G1 F1800 X146.467 Y65.664 E793.08965
G0 F6000 X146.453 Y65.115
G0 X145.024 Y65.148
G0 X145.024 Y65.148
G0 X145.022 Y64.988
G1 F1800 X144.823 Y65.186 E793.09427
G1 F3000 E786.09427
G0 F6000 X144.985 Y65.183
G0 X145.076 Y65.157
G0 X145.132 Y69.727
G0 X127.658 Y70.093
G0 X127.655 Y69.931
G1 F3000 E793.09427
G1 F1800 X118.589 Y103.763 E793.67076
G0 F6000 X118.586 Y103.606
G0 X117.058 Y103.558
G0 X117.058 Y103.558
G1 F1800 X116.579 Y103.683 E793.67652
G1 X117.042 Y102.867 E793.69196
G0 F6000 X119.65 Y95.199
G0 X120.894 Y95.124
G0 X120.777 Y91.89
G0 X120.617 Y91.893
G1 F1800 X178.704 Y76.328 E794.68175
G0 F6000 X178.69 Y75.671
G1 F1800 X171.918 Y68.899 E794.83939
G0 F6000 X172.295 Y68.89
G1 F1800 X156.534 Y127.711 E795.84169
G0 F6000 X157.977 Y127.678
G1 F1800 X120.579 Y90.279 E796.71221
G0 F6000 X120.739 Y90.277
G0 X120.674 Y87.481
G0 X120.674 Y87.481
G0 X120.514 Y87.484
G1 F1800 X178.601 Y71.92 E797.702
G0 F6000 X178.443 Y71.923
G0 X178.386 Y69.468
G0 X178.386 Y69.468
G0 X178.545 Y69.466
G1 F1800 X177.84 Y68.761 E797.71841
G0 F6000 X176.759 Y68.786
G1 F1800 X160.998 Y127.607 E798.72071
G0 F6000 X160.994 Y127.448
G0 X163.894 Y127.38
G0 X163.894 Y127.38
G0 X163.898 Y127.539
G1 F1800 X120.434 Y84.074 E799.73243
G0 F6000 X120.41 Y83.076
G1 F1800 X173.448 Y68.864 E800.63619
G0 F6000 X167.831 Y68.994
G1 F1800 X151.005 Y131.788 E801.70619
G0 F6000 X151.177 Y131.665
G1 F1800 X150.449 Y132.393 E801.72314
G0 F6000 X150.453 Y131.682
G1 F1800 X149.725 Y132.409 E801.74007
G0 F6000 X151.173 Y132.376
G1 F1800 X151.901 Y131.648 E801.75702
G0 F6000 X151.897 Y132.359
G1 F1800 X152.624 Y131.632 E801.77394
G0 F6000 X152.621 Y132.342
G1 F1800 X153.348 Y131.615 E801.79086
G0 F6000 X153.345 Y132.325
G1 F1800 X154.072 Y131.598 E801.80779
G0 F6000 X146.833 Y131.766
G1 F1800 X146.389 Y132.21 E801.81812
G0 F6000 X146.551 Y132.207
G0 X146.759 Y130.893
G0 X147.106 Y130.831
G0 X147.027 Y129.217
G0 X146.865 Y129.221
G1 F1800 X179.734 Y120.414 E802.3782
G0 F6000 X179.576 Y120.417
G0 X179.651 Y123.629
G0 X179.651 Y123.629
G0 X179.809 Y123.626
G1 F1800 X178.855 Y127.19 E802.43893
G0 F6000 X178.853 Y127.03
G0 X179.69 Y125.313
G0 X179.69 Y125.313
G0 X179.849 Y125.309
G1 F1800 X124.544 Y70.005 E803.72624
G0 F6000 X123.191 Y70.035
G1 F1800 X120.353 Y80.625 E803.9067
G1 F3000 E796.9067
G0 F6000 X120.513 Y80.622
G0 X178.584 Y77.942
G0 X178.584 Y77.942
G0 X178.743 Y77.939
G1 F3000 E803.9067
G1 F1800 X165.462 Y127.503 E804.75126
G0 F6000 X165.459 Y127.343
G0 X170.25 Y127.231
G0 X170.25 Y127.231
G0 X170.253 Y127.39
G1 F1800 X179.837 Y124.822 E804.91457
G0 F6000 X178.779 Y124.847
G1 F3000 E797.91457
G0 F6000 X147.119 Y134.494
; TYPE:WALL-OUTER
G1 F3000 E804.91457
G1 F1800 X147.137 Y135.259 E804.92717
G1 X147.051 Y135.376 E804.92956
G1 X147.069 Y135.585 E804.93301
G1 X147.033 Y135.613 E804.93376
G1 X146.392 Y135.628 E804.94431
G1 X146.356 Y135.603 E804.94504
G1 X146.365 Y135.391 E804.94853
G1 X146.272 Y135.278 E804.95094
G1 X146.254 Y134.514 E804.96352
G1 X146.669 Y134.505 E804.97035
G0 F6000 X146.811 Y134.691
; TYPE:FILL
G1 F1800 X146.936 Y134.816 E804.97326
G0 F6000 X154.553 Y134.32
; TYPE:WALL-OUTER
G1 F1800 X155.418 Y134.3 E804.9875
G1 X155.436 Y135.065 E805.00009
G1 X155.35 Y135.182 E805.00248
G1 X155.368 Y135.391 E805.00594
G1 X155.332 Y135.419 E805.00669
G1 X154.689 Y135.434 E805.01727
G1 X154.655 Y135.41 E805.01796
G1 X154.664 Y135.197 E805.02147
G1 X154.571 Y135.084 E805.02388
G1 X154.564 Y134.77 E805.02905
; LAYER:8
G0 F6000 X155.37 Y132.258 Z2.1
; TYPE:WALL-OUTER
G1 F1800 X146.206 Y132.472 E805.17992
G1 X146.16 Y130.462 E805.21301
G1 X146.706 Y130.449 E805.222
G1 X146.668 Y128.857 E805.24821
G1 X146.122 Y128.87 E805.2572
G1 X146.104 Y128.081 E805.27019
G1 X121.349 Y128.659 E805.67775
G1 X120.772 Y103.905 E806.08529
G1 X116.38 Y104.007 E806.1576
G1 X116.166 Y94.843 E806.30847
G1 X120.558 Y94.741 E806.38078
G1 X119.979 Y69.987 E806.78833
G1 X144.733 Y69.409 E807.19587
G1 X144.631 Y65.017 E807.26818
G1 X153.795 Y64.803 E807.41905
G1 X153.897 Y69.195 E807.49136
G1 X178.652 Y68.616 E807.89892
G1 X179.229 Y93.37 E808.30646
G1 X183.621 Y93.268 E808.37877
G1 X183.835 Y102.432 E808.52964
G1 X179.443 Y102.534 E808.60195
G1 X180.022 Y127.289 E809.00951
G1 X155.268 Y127.867 E809.41705
G1 X155.359 Y131.808 E809.48194
G0 F6000 X155.168 Y131.834
; TYPE:FILL
G1 F1800 X154.837 Y131.429 E809.49265
G1 X155.159 Y131.435 E809.49795
G0 F6000 X155.147 Y130.908
G1 F1800 X119.201 Y94.962 E810.33466
G0 F6000 X119.204 Y95.122
G0 X117.073 Y95.171
G0 X117.073 Y95.171
G0 X117.074 Y95.153
G1 F1800 X116.934 Y95.014 E810.33791
G0 F6000 X116.362 Y95.149
G1 F1800 X117.09 Y95.877 E810.35485
G0 F6000 X116.379 Y95.873
G1 F1800 X117.107 Y96.601 E810.3718
G0 F6000 X117.003 Y97.297
G1 F1800 X178.744 Y80.754 E811.42385
G0 F6000 X178.769 Y81.81
G1 F1800 X166.059 Y69.1 E811.7197
G0 F6000 X167.814 Y69.059
G1 F1800 X151.062 Y131.577 E812.785
G0 F6000 X151.252 Y131.453
G1 F1800 X152.292 Y132.14 E812.80117
G1 X152.288 Y131.429 E812.81732
G1 X153.674 Y132.108 E812.83347
G1 X153.671 Y131.397 E812.84962
G1 X154.711 Y132.084 E812.87014
G0 F6000 X154.709 Y131.924
G0 X151.252 Y132.004
G0 X151.252 Y132.004
G0 X151.255 Y132.163
G1 F1800 X150.215 Y131.477 E812.88626
G1 X150.219 Y132.188 E812.90241
G1 X149.179 Y131.502 E812.92291
G0 F6000 X149.787 Y131.608
G1 F1800 X146.851 Y128.672 E812.99125
G0 F6000 X146.842 Y128.662
G1 F1800 X146.293 Y128.113 E813.00403
G0 F6000 X146.071 Y127.891
G1 F1800 X117.039 Y98.859 E813.67981
G0 F6000 X117.157 Y98.772
G1 F1800 X116.43 Y98.045 E813.69673
G0 F6000 X117.141 Y98.049
G1 F1800 X116.413 Y97.321 E813.71367
G0 F6000 X117.124 Y97.325
G1 F1800 X116.396 Y96.597 E813.73062
G0 F6000 X116.557 Y96.594
G0 X116.607 Y98.767
G0 X116.607 Y98.767
G0 X116.447 Y98.769
G1 F1800 X117.174 Y99.496 E813.74754
G0 F6000 X116.464 Y99.493
G1 F1800 X117.191 Y100.221 E813.76448
G0 F6000 X116.48 Y100.217
G1 F1800 X117.208 Y100.945 E813.78142
G0 F6000 X116.497 Y100.941
G1 F1800 X117.224 Y101.668 E813.79834
G0 F6000 X117.106 Y101.706
G1 F1800 X178.846 Y85.162 E814.85039
G0 F6000 X178.688 Y85.166
G0 X178.755 Y88.018
G0 X178.755 Y88.018
G0 X178.913 Y88.014
G1 F1800 X160.137 Y69.239 E815.28742
G0 F6000 X158.885 Y69.268
G1 F1800 X143.159 Y127.958 E816.28749
G0 F6000 X143.156 Y127.8
G0 X140.146 Y127.87
G0 X140.146 Y127.87
G0 X140.149 Y128.029
G1 F1800 X121.078 Y108.958 E816.7314
G0 F6000 X121.091 Y109.51
G1 F1800 X180.75 Y93.524 E817.74799
G0 F6000 X180.752 Y93.684
G0 X180.438 Y93.629
G0 X180.044 Y93.561
G0 X179.039 Y93.39
G0 X179.039 Y93.39
G1 F1800 X169.944 Y127.334 E818.32639
G0 F6000 X169.757 Y127.338
G1 F1800 X120.354 Y77.935 E819.47633
G0 F6000 X120.371 Y78.65
G1 F1800 X155.048 Y69.358 E820.06723
G0 F6000 X154.421 Y69.373
G1 F1800 X138.695 Y128.062 E821.06728
G0 F6000 X138.692 Y127.904
G0 X134.241 Y128.008
G0 X134.241 Y128.008
G0 X134.245 Y128.166
G1 F1800 X179.567 Y116.022 E821.83956
G0 F6000 X179.409 Y116.025
G0 X179.479 Y119.04
G0 X179.479 Y119.04
G0 X179.636 Y119.037
G1 F1800 X130.529 Y69.93 E822.98262
G0 F6000 X130.532 Y70.09
G0 X132.105 Y70.053
G0 X132.105 Y70.053
G0 X132.101 Y69.892
G1 F1800 X121.123 Y110.864 E823.68077
G0 F6000 X121.284 Y110.861
G0 X121.355 Y113.916
G0 X121.355 Y113.916
G0 X121.194 Y113.919
G1 F1800 X182.935 Y97.375 E824.73283
G0 F6000 X182.813 Y97.253
G1 F1800 X183.54 Y97.98 E824.74976
G0 F6000 X182.952 Y98.113
G1 F1800 X154.216 Y69.377 E825.41864
G0 F6000 X153.698 Y68.86
G1 F1800 X150.499 Y65.66 E825.49311
G0 F6000 X150.63 Y65.777
G1 F1800 X149.59 Y65.091 E825.50923
G1 X149.593 Y65.801 E825.52536
G1 X148.208 Y65.123 E825.5415
G1 X148.211 Y65.833 E825.55763
G1 X146.826 Y65.155 E825.57372
G1 X147.175 Y65.857 E825.58662
G0 F6000 X146.519 Y65.752
G1 F1800 X129.767 Y128.271 E826.65194
G0 F6000 X128.305 Y128.305
G1 F1800 X121.368 Y121.368 E826.81341
G0 F6000 X121.4 Y122.736
G1 F1800 X179.361 Y107.205 E827.80106
G0 F6000 X179.347 Y106.628
G1 F1800 X142.371 Y69.652 E828.66175
G0 F6000 X141.029 Y69.684
G1 F1800 X125.303 Y128.375 E829.66183
G0 F6000 X125.3 Y128.217
