; Generated with MatterSlice 1.0
; filamentDiameter = 2.85
; extrusionWidth = 0.5
; firstLayerExtrusionWidth = 0.5
; layerThickness = 0.21
; firstLayerThickness = 0.42
; automatic settings before start_gcode
G21 ; set units to millimeters
M107 ; fan off
M190 S115 ; wait for bed temperature to be reached
M104 T0 S240 ; start heating extruder 1
T0 ; set the active extruder to 0
; settings from start_gcode
G28 ; home all axes
M117 HD Printing...
; automatic settings after start_gcode
M109 T0 S240 ; wait for extruder 1 to reach temperature
T0 ; set the active extruder to 0
G90 ; use absolute coordinates
G92 E0 ; reset the expected extruder position
M82 ; use absolute distance for extrusion
; Layer count: 9
; Layer Change GCode
; LAYER:0
M400
M107
G0 F6000 X182.874 Y73.614 Z0.42
; TYPE:SKIRT
G1 F3000 E0
G1 F900 X189.937 Y78.654 E0.28563
G1 X195.343 Y84.673 E0.55195
G1 X198.779 Y91.47 E0.80266
G1 X199.965 Y98.726 E1.04469
G1 X198.779 Y105.982 E1.28671
G1 X195.343 Y112.779 E1.53742
G1 X189.937 Y118.798 E1.80374
G1 X182.872 Y123.839 E2.08945
G1 X174.434 Y127.774 E2.39593
G1 X173.487 Y128.044 E2.42835
G1 X155.357 Y129.185 E3.02634
G1 X144.643 Y129.185 E3.37903
G1 X126.513 Y128.044 E3.97702
G1 X125.523 Y127.761 E4.01092
G1 X117.126 Y123.839 E4.316
G1 X110.062 Y118.798 E4.60167
G1 X104.657 Y112.779 E4.86797
G1 X101.221 Y105.982 E5.11868
G1 X100.035 Y98.726 E5.36071
G1 X101.221 Y91.47 E5.60273
G1 X104.657 Y84.673 E5.85344
G1 X110.062 Y78.654 E6.11974
G1 X117.126 Y73.614 E6.4054
G1 X123.116 Y70.815 E6.62304
G1 X176.884 Y70.815 E8.39301
G1 X182.874 Y73.614 E8.61065
G0 F6000 X182.62 Y74.047
G1 F900 X189.602 Y79.029 E8.893
G1 X194.927 Y84.958 E9.15534
G1 X198.298 Y91.627 E9.40132
G1 X199.459 Y98.726 E9.63811
G1 X198.298 Y105.825 E9.87491
G1 X194.927 Y112.494 E10.12089
G1 X189.602 Y118.423 E10.38323
G1 X182.619 Y123.405 E10.6656
G1 X174.258 Y127.304 E10.96929
G1 X173.402 Y127.548 E10.99859
G1 X155.341 Y128.685 E11.59431
G1 X144.659 Y128.685 E11.94594
G1 X126.598 Y127.548 E12.54166
G1 X125.699 Y127.291 E12.57244
G1 X117.379 Y123.405 E12.87472
G1 X110.397 Y118.423 E13.15707
G1 X105.073 Y112.494 E13.41938
G1 X101.702 Y105.825 E13.66537
G1 X100.541 Y98.726 E13.90216
G1 X101.702 Y91.627 E14.13896
G1 X105.073 Y84.958 E14.38494
G1 X110.397 Y79.029 E14.64725
G1 X117.379 Y74.047 E14.9296
G1 X123.227 Y71.315 E15.14208
G1 X176.773 Y71.315 E16.90473
G1 X182.62 Y74.047 E17.11718
G0 F6000 X182.367 Y74.481
G1 F900 X189.266 Y79.404 E17.39618
G1 X194.51 Y85.243 E17.65453
G1 X197.817 Y91.784 E17.8958
G1 X198.952 Y98.726 E18.12736
G1 X197.817 Y105.668 E18.35891
G1 X194.51 Y112.209 E18.60019
G1 X189.266 Y118.048 E18.85853
G1 X182.366 Y122.972 E19.13758
G1 X174.083 Y126.834 E19.43842
G1 X173.317 Y127.052 E19.46464
G1 X155.326 Y128.185 E20.05805
G1 X144.674 Y128.185 E20.4087
G1 X126.683 Y127.052 E21.00211
G1 X125.874 Y126.821 E21.0298
G1 X117.632 Y122.971 E21.32926
G1 X110.732 Y118.048 E21.60828
G1 X105.49 Y112.209 E21.86659
G1 X102.183 Y105.668 E22.10786
G1 X101.048 Y98.726 E22.33941
G1 X102.183 Y91.784 E22.57097
G1 X105.49 Y85.243 E22.81224
G1 X110.732 Y79.404 E23.07055
G1 X117.632 Y74.481 E23.34957
G1 X123.338 Y71.815 E23.55689
G1 X176.662 Y71.815 E25.31224
G1 X182.367 Y74.481 E25.51953
G1 F3000 E18.51953
G0 F6000 X181.228 Y76.432
G0 X180.106 Y77.554
G0 X181.708 Y83.839
G0 X181.16 Y88.66
G0 X179.649 Y89.927
G0 X175.332 Y89.978
G0 X169.889 Y88.393
G0 X141.434 Y109.294
; TYPE:WALL-OUTER
G1 F3000 E25.51953
G1 F900 X140.701 Y109.131 E25.54425
G1 X137.165 Y108.957 E25.66079
G1 X133.876 Y109.428 E25.77017
G1 X130.981 Y110.527 E25.8721
G1 X128.603 Y112.211 E25.96802
G1 X126.859 Y114.407 E26.06033
G1 X125.829 Y117.016 E26.15267
G1 X125.559 Y119.917 E26.24858
G1 X126.056 Y122.973 E26.3505
G1 X126.635 Y124.417 E26.40171
G1 X118.893 Y120.8 E26.68301
G1 X112.41 Y116.174 E26.94518
G1 X107.571 Y110.786 E27.18357
G1 X104.589 Y104.885 E27.40122
G1 X103.582 Y98.726 E27.60666
G1 X104.589 Y92.567 E27.81209
G1 X107.571 Y86.666 E28.02974
G1 X112.41 Y81.278 E28.26814
G1 X118.893 Y76.652 E28.53031
G1 X123.14 Y74.668 E28.68461
G1 X122.121 Y76.21 E28.74546
G1 X120.171 Y80.224 E28.89236
G1 X119.164 Y83.806 E29.01484
G1 X119.191 Y86.694 E29.10992
G1 X120.313 Y88.654 E29.18426
G1 X122.439 Y89.418 E29.25863
G1 X125.287 Y88.944 E29.35367
G1 X128.64 Y87.33 E29.47616
G1 X132.206 Y84.748 E29.62109
G1 X132.915 Y87.255 E29.70686
G1 X134.414 Y88.864 E29.77925
G1 X136.558 Y89.358 E29.85167
G1 X139.104 Y88.714 E29.93812
G1 X141.852 Y87.027 E30.04427
G1 X144.602 Y84.443 E30.16849
G1 X147.148 Y81.167 E30.30507
G1 X149.287 Y77.463 E30.44587
G1 X150 Y75.711 E30.50813
G1 X150.713 Y77.463 E30.5704
G1 X152.852 Y81.167 E30.7112
G1 X155.398 Y84.443 E30.84778
G1 X158.148 Y87.027 E30.972
G1 X160.896 Y88.714 E31.07814
G1 X163.442 Y89.358 E31.16459
G1 X165.586 Y88.864 E31.23702
G1 X167.085 Y87.255 E31.30941
G1 X167.794 Y84.748 E31.39517
G1 X171.36 Y87.33 E31.5401
G1 X174.713 Y88.944 E31.6626
G1 X177.561 Y89.418 E31.75764
G1 X179.687 Y88.654 E31.83201
G1 X180.809 Y86.694 E31.90635
G1 X180.836 Y83.806 E32.00142
G1 X179.829 Y80.224 E32.12391
G1 X177.879 Y76.21 E32.27081
G1 X176.859 Y74.666 E32.33173
G1 X181.102 Y76.649 E32.4859
G1 X187.589 Y81.278 E32.74823
G1 X192.429 Y86.666 E32.98665
G1 X195.411 Y92.567 E33.2043
G1 X196.418 Y98.726 E33.40973
G1 X195.411 Y104.885 E33.61517
G1 X192.429 Y110.786 E33.83282
G1 X187.589 Y116.174 E34.07124
G1 X181.107 Y120.8 E34.33338
G1 X173.368 Y124.408 E34.61446
G1 X173.944 Y122.973 E34.66536
G1 X174.441 Y119.917 E34.76728
G1 X174.171 Y117.016 E34.86319
G1 X173.141 Y114.407 E34.95553
G1 X171.396 Y112.211 E35.04786
G1 X169.02 Y110.527 E35.14373
G1 X166.124 Y109.428 E35.24569
G1 X162.834 Y108.957 E35.3551
G1 X159.24 Y109.144 E35.47357
G1 X158.565 Y109.294 E35.49633
G1 X155.14 Y125.28 E36.03451
G1 X152.139 Y120.476 E36.22097
G1 X147.861 Y120.476 E36.36179
G1 X144.86 Y125.28 E36.54825
G1 X141.434 Y109.294 E37.08644
G0 F6000 X141.815 Y109.289
; TYPE:BOTTOM-FILL
G1 F900 X155.294 Y122.767 E37.71391
G0 F6000 X155.169 Y123.349
G1 F900 X153.054 Y121.234 E37.81237
G0 F6000 X151.92 Y120.1
G1 F900 X142.008 Y110.189 E38.27379
G0 F6000 X142.202 Y111.089
G1 F900 X151.213 Y120.1 E38.69329
G0 F6000 X150.506 Y120.1
G1 F900 X142.394 Y111.988 E39.07093
G0 F6000 X142.587 Y112.888
G1 F900 X149.799 Y120.1 E39.40668
G0 F6000 X149.092 Y120.1
G1 F900 X142.78 Y113.789 E39.7005
G0 F6000 X142.972 Y114.688
G1 F900 X148.384 Y120.1 E39.95245
G0 F6000 X147.677 Y120.1
G1 F900 X143.165 Y115.588 E40.1625
G0 F6000 X143.358 Y116.488
G1 F900 X147.39 Y120.519 E40.35018
G0 F6000 X147.118 Y120.955
G1 F900 X143.551 Y117.388 E40.51624
G0 F6000 X143.744 Y118.288
G1 F900 X146.846 Y121.39 E40.66065
G0 F6000 X146.574 Y121.826
G1 F900 X143.937 Y119.188 E40.78343
G0 F6000 X144.129 Y120.087
G1 F900 X146.302 Y122.26 E40.88459
G0 F6000 X146.03 Y122.696
G1 F900 X144.322 Y120.988 E40.96411
G0 F6000 X144.515 Y121.888
G1 F900 X145.758 Y123.131 E41.02197
G0 F6000 X145.487 Y123.566
G1 F900 X144.708 Y122.788 E41.05822
G0 F6000 X144.901 Y123.687
G1 F900 X145.215 Y124.002 E41.07286
G0 F6000 X145.028 Y123.815
G0 X145.764 Y120.915
G0 X148 Y119.604
G0 X153.122 Y119.604
G0 X154.421 Y121.772
G0 X154.231 Y123.118
G1 F900 X155.045 Y123.932 E41.11075
G0 F6000 X155.419 Y122.185
G1 F900 X122.947 Y89.713 E42.62245
G0 F6000 X123.553 Y89.612
G1 F900 X155.543 Y121.602 E44.1117
G0 F6000 X155.668 Y121.02
G1 F900 X124.159 Y89.511 E45.57856
G0 F6000 X124.765 Y89.41
G1 F900 X155.793 Y120.437 E47.02301
G0 F6000 X155.918 Y119.856
G1 F900 X125.372 Y89.309 E48.44506
G0 F6000 X125.855 Y89.085
G1 F900 X156.042 Y119.273 E49.8504
G0 F6000 X156.167 Y118.69
G1 F900 X126.332 Y88.855 E51.23934
G0 F6000 X126.809 Y88.625
G1 F900 X156.292 Y118.108 E52.61188
G0 F6000 X156.416 Y117.526
G1 F900 X127.286 Y88.396 E53.96799
G0 F6000 X127.764 Y88.166
G1 F900 X156.542 Y116.944 E55.30771
G0 F6000 X156.666 Y116.361
G1 F900 X128.241 Y87.936 E56.63101
G0 F6000 X128.718 Y87.706
G1 F900 X156.791 Y115.779 E57.93791
G0 F6000 X156.916 Y115.196
G1 F900 X129.145 Y87.426 E59.23073
G0 F6000 X129.556 Y87.129
G1 F900 X157.04 Y114.614 E60.51024
G0 F6000 X157.165 Y114.032
G1 F900 X129.966 Y86.832 E61.77648
G0 F6000 X130.376 Y86.535
G1 F900 X157.29 Y113.449 E63.02942
G0 F6000 X157.415 Y112.867
G1 F900 X130.786 Y86.238 E64.2691
G0 F6000 X131.196 Y85.941
G1 F900 X132.53 Y87.276 E64.33123
G0 F6000 X132.252 Y86.29
G1 F900 X131.606 Y85.644 E64.3613
G0 F6000 X131.793 Y85.831
G0 X131.458 Y87.976
G0 X132.919 Y89.791
G0 X134.529 Y89.275
G1 F900 X157.539 Y112.285 E65.4325
G0 F6000 X157.664 Y111.702
G1 F900 X135.448 Y89.486 E66.46674
G0 F6000 X136.366 Y89.697
G1 F900 X157.789 Y111.12 E67.46406
G0 F6000 X157.913 Y110.537
G1 F900 X137.006 Y89.63 E68.43736
G0 F6000 X137.571 Y89.487
G1 F900 X158.039 Y109.955 E69.39022
G0 F6000 X158.163 Y109.373
G1 F900 X138.136 Y89.345 E70.32258
G0 F6000 X138.7 Y89.202
G1 F900 X158.436 Y108.938 E71.24137
G0 F6000 X159.014 Y108.81
G1 F900 X139.261 Y89.057 E72.16094
G0 F6000 X139.7 Y88.788
G1 F900 X159.659 Y108.747 E73.09011
G0 F6000 X160.331 Y108.712
G1 F900 X140.137 Y88.519 E74.03019
G0 F6000 X140.576 Y88.25
G1 F900 X161.003 Y108.677 E74.98114
G0 F6000 X161.675 Y108.642
G1 F900 X141.014 Y87.981 E75.94299
G0 F6000 X141.452 Y87.712
G1 F900 X162.347 Y108.607 E76.91573
G0 F6000 X163.058 Y108.61
G1 F900 X141.89 Y87.442 E77.90118
G0 F6000 X142.286 Y87.132
G1 F900 X163.883 Y108.728 E78.90658
G0 F6000 X164.708 Y108.847
G1 F900 X142.651 Y86.789 E79.93344
G0 F6000 X143.015 Y86.447
G1 F900 X165.532 Y108.964 E80.98169
G0 F6000 X166.411 Y109.135
G1 F900 X143.38 Y86.104 E82.05387
G0 F6000 X143.744 Y85.762
G1 F900 X167.551 Y109.568 E83.16215
G0 F6000 X168.69 Y110.001
G1 F900 X144.109 Y85.419 E84.30651
G0 F6000 X144.473 Y85.076
G1 F900 X170.547 Y111.15 E85.52036
G0 F6000 X171.669 Y110.028
G0 X173.433 Y111.792
G0 X172.9 Y113.503
G1 F900 X180.204 Y120.807 E85.86038
G0 F6000 X180.686 Y120.582
G1 F900 X144.838 Y84.734 E87.52924
G0 F6000 X145.153 Y84.342
G1 F900 X181.132 Y120.321 E89.2042
G0 F6000 X181.544 Y120.026
G1 F900 X145.463 Y83.944 E90.88393
G0 F6000 X145.772 Y83.546
G1 F900 X181.957 Y119.732 E92.5685
G0 F6000 X182.369 Y119.437
G1 F900 X146.081 Y83.148 E94.25787
G0 F6000 X146.39 Y82.751
G1 F900 X182.782 Y119.143 E95.95205
G0 F6000 X183.195 Y118.849
G1 F900 X146.699 Y82.353 E97.65108
G0 F6000 X147.008 Y81.955
G1 F900 X183.608 Y118.554 E99.35492
G0 F6000 X184.021 Y118.26
G1 F900 X147.318 Y81.557 E101.06358
G0 F6000 X147.6 Y81.132
G1 F900 X184.433 Y117.965 E102.7783
G0 F6000 X184.846 Y117.671
G1 F900 X147.859 Y80.684 E104.50018
G0 F6000 X148.118 Y80.236
G1 F900 X185.258 Y117.376 E106.22919
G0 F6000 X185.671 Y117.082
G1 F900 X148.377 Y79.787 E107.96539
G0 F6000 X148.635 Y79.339
G1 F900 X186.083 Y116.787 E109.70873
G0 F6000 X186.496 Y116.493
G1 F900 X148.894 Y78.891 E111.45924
G0 F6000 X149.153 Y78.442
G1 F900 X154.118 Y83.407 E111.69038
G0 F6000 X152.996 Y84.529
G0 X151.549 Y82.552
G0 X152.188 Y80.77
G1 F900 X149.413 Y77.995 E111.81957
G0 F6000 X149.661 Y77.536
G1 F900 X151.222 Y79.097 E111.89224
G0 F6000 X150.316 Y77.484
G1 F900 X149.865 Y77.033 E111.91324
G0 F6000 X150.172 Y79.965
G0 X156.574 Y87.988
G0 X158.225 Y87.515
G1 F900 X186.909 Y116.198 E113.24856
G0 F6000 X187.321 Y115.903
G1 F900 X160.058 Y88.64 E114.51776
G0 F6000 X161.338 Y89.213
G1 F900 X187.659 Y115.534 E115.7431
G0 F6000 X187.993 Y115.161
G1 F900 X162.283 Y89.451 E116.93999
G0 F6000 X163.229 Y89.69
G1 F900 X188.327 Y114.788 E118.1084
G0 F6000 X188.663 Y114.416
G1 F900 X163.886 Y89.639 E119.26186
G0 F6000 X164.461 Y89.507
G1 F900 X188.997 Y114.044 E120.40413
G0 F6000 X189.332 Y113.671
G1 F900 X165.035 Y89.374 E121.53525
G0 F6000 X165.61 Y89.242
G1 F900 X189.666 Y113.299 E122.65517
G0 F6000 X190.001 Y112.926
G1 F900 X166.02 Y88.946 E123.77155
G0 F6000 X166.362 Y88.58
G1 F900 X190.336 Y112.554 E124.88763
G0 F6000 X190.67 Y112.181
G1 F900 X166.703 Y88.214 E126.00338
G0 F6000 X167.044 Y87.848
G1 F900 X191.005 Y111.809 E127.11886
G0 F6000 X191.339 Y111.436
G1 F900 X167.384 Y87.481 E128.23405
G0 F6000 X167.559 Y86.949
G1 F900 X191.674 Y111.063 E129.35667
G0 F6000 X192.009 Y110.691
G1 F900 X167.715 Y86.398 E130.48763
G0 F6000 X167.871 Y85.847
G1 F900 X192.277 Y110.253 E131.62382
G0 F6000 X192.514 Y109.783
G1 F900 X168.335 Y85.603 E132.74946
G0 F6000 X168.148 Y86.164
G0 X169.133 Y88.115
G0 X170.896 Y87.457
G1 F900 X192.752 Y109.313 E133.76694
G0 F6000 X192.989 Y108.844
G1 F900 X172.384 Y88.239 E134.72618
G0 F6000 X173.748 Y88.896
G1 F900 X193.226 Y108.374 E135.63296
G0 F6000 X193.464 Y107.904
G1 F900 X174.918 Y89.358 E136.49634
G0 F6000 X175.766 Y89.499
G1 F900 X193.702 Y107.434 E137.33131
G0 F6000 X193.938 Y106.964
G1 F900 X176.615 Y89.641 E138.13776
G0 F6000 X177.464 Y89.782
G1 F900 X194.176 Y106.495 E138.91579
G0 F6000 X194.414 Y106.025
G1 F900 X178.033 Y89.645 E139.67836
G0 F6000 X178.553 Y89.458
G1 F900 X194.65 Y105.555 E140.42774
G0 F6000 X194.888 Y105.085
G1 F900 X179.074 Y89.271 E141.16394
G0 F6000 X179.594 Y89.084
G1 F900 X195.082 Y104.572 E141.88496
G0 F6000 X195.181 Y103.964
G1 F900 X180.027 Y88.811 E142.59041
G0 F6000 X180.285 Y88.361
G1 F900 X195.28 Y103.357 E143.28851
G0 F6000 X195.379 Y102.748
G1 F900 X180.542 Y87.911 E143.97923
G0 F6000 X180.8 Y87.462
G1 F900 X195.479 Y102.141 E144.66259
G0 F6000 X195.579 Y101.534
G1 F900 X181.058 Y87.013 E145.3386
G0 F6000 X181.185 Y86.433
G1 F900 X195.678 Y100.926 E146.0133
G0 F6000 X195.778 Y100.318
G1 F900 X181.191 Y85.732 E146.69236
G0 F6000 X181.198 Y85.032
G1 F900 X195.877 Y99.71 E147.3757
G0 F6000 X195.976 Y99.103
G1 F900 X181.205 Y84.331 E148.06337
G0 F6000 X181.162 Y83.581
G1 F900 X195.985 Y98.405 E148.75346
G0 F6000 X195.847 Y97.559
G1 F900 X180.885 Y82.597 E149.44999
G0 F6000 X180.609 Y81.614
G1 F900 X195.708 Y96.713 E150.15291
G0 F6000 X195.57 Y95.868
G1 F900 X180.332 Y80.629 E150.86232
G0 F6000 X179.878 Y79.469
G1 F900 X195.432 Y95.023 E151.58641
G0 F6000 X195.293 Y94.177
G1 F900 X179.211 Y78.094 E152.33512
G0 F6000 X178.543 Y76.719
G1 F900 X195.155 Y93.332 E153.10849
G0 F6000 X194.879 Y92.348
G1 F900 X178.272 Y75.741 E153.88161
G0 F6000 X179.599 Y76.361
G1 F900 X194.157 Y90.919 E154.55934
G0 F6000 X193.434 Y89.49
G1 F900 X180.938 Y76.993 E155.1411
G0 F6000 X180.19 Y77.741
G0 X181.852 Y79.247
G0 X183.404 Y78.752
G1 F900 X192.712 Y88.06 E155.57442
G0 F6000 X191.59 Y89.182
G0 X190.658 Y87.405
G0 X191.033 Y85.674
G1 F900 X185.871 Y80.512 E155.81473
G1 F3000 E148.81473
G0 F6000 X184.749 Y81.634
G0 X185.37 Y81.955
G0 X174.523 Y113.514
G0 X173.834 Y115.144
G1 F3000 E155.81473
G1 F900 X179.721 Y121.031 E156.08879
G0 F6000 X179.239 Y121.256
G1 F900 X174.296 Y116.313 E156.31891
G0 F6000 X174.574 Y117.298
G1 F900 X178.757 Y121.481 E156.51364
G0 F6000 X178.275 Y121.706
G1 F900 X174.646 Y118.077 E156.68258
G0 F6000 X174.719 Y118.857
G1 F900 X177.792 Y121.931 E156.82567
G0 F6000 X177.31 Y122.156
G1 F900 X174.791 Y119.636 E156.94296
G0 F6000 X174.757 Y120.309
G1 F900 X176.828 Y122.381 E157.0394
G0 F6000 X176.346 Y122.605
G1 F900 X174.658 Y120.918 E157.11795
G0 F6000 X174.559 Y121.526
G1 F900 X175.863 Y122.83 E157.17866
G0 F6000 X175.381 Y123.055
G1 F900 X174.46 Y122.135 E157.22151
G0 F6000 X174.361 Y122.743
G1 F900 X174.658 Y123.392 E157.24651
G1 X174.214 Y123.303 E157.26142
G1 F3000 E150.26142
G0 F6000 X175.311 Y119.908
G0 X174.379 Y114.446
G0 X171.571 Y110.724
G0 X167.183 Y108.55
G0 X157.119 Y108.023
G0 X156.714 Y109.124
G0 X141.439 Y108.912
G1 F3000 E157.26142
G1 F900 X122.289 Y89.762 E158.15292
G0 F6000 X121.184 Y89.364
G1 F900 X140.569 Y108.749 E159.05537
G0 F6000 X139.826 Y108.713
G1 F900 X120.08 Y88.968 E159.97459
G0 F6000 X120.032 Y88.919
G1 F900 X112.666 Y81.554 E160.31749
G0 F6000 X112.331 Y81.926
G1 F900 X139.082 Y108.676 E161.56282
G0 F6000 X138.338 Y108.639
G1 F900 X111.996 Y82.298 E162.78912
G0 F6000 X111.662 Y82.67
G1 F900 X137.594 Y108.603 E163.99637
G0 F6000 X136.9 Y108.616
G1 F900 X111.327 Y83.043 E165.18689
G0 F6000 X110.993 Y83.415
G1 F900 X136.282 Y108.704 E166.36419
G0 F6000 X135.663 Y108.793
G1 F900 X110.658 Y83.788 E167.52827
G0 F6000 X110.324 Y84.161
G1 F900 X135.044 Y108.881 E168.67908
G0 F6000 X134.425 Y108.97
G1 F900 X109.989 Y84.533 E169.81669
G0 F6000 X109.655 Y84.906
G1 F900 X133.807 Y109.058 E170.94105
G0 F6000 X133.289 Y109.247
G1 F900 X109.32 Y85.278 E172.0569
G0 F6000 X108.985 Y85.651
G1 F900 X132.777 Y109.443 E173.16451
G0 F6000 X132.265 Y109.637
G1 F900 X108.651 Y86.023 E174.26383
G0 F6000 X108.316 Y86.396
G1 F900 X131.752 Y109.832 E175.35486
G0 F6000 X131.239 Y110.026
G1 F900 X107.982 Y86.769 E176.43756
G0 F6000 X107.715 Y87.209
G1 F900 X130.741 Y110.235 E177.50951
G0 F6000 X130.327 Y110.528
G1 F900 X107.478 Y87.679 E178.57321
G0 F6000 X107.241 Y88.149
G1 F900 X129.913 Y110.822 E179.6287
G0 F6000 X129.5 Y111.115
G1 F900 X107.003 Y88.618 E180.67602
G0 F6000 X106.766 Y89.089
G1 F900 X129.085 Y111.408 E181.71506
G0 F6000 X128.672 Y111.701
G1 F900 X106.529 Y89.558 E182.7459
G0 F6000 X106.291 Y90.028
G1 F900 X128.279 Y112.015 E183.7695
G0 F6000 X127.965 Y112.409
G1 F900 X106.054 Y90.498 E184.78954
G0 F6000 X105.817 Y90.967
G1 F900 X127.653 Y112.804 E185.80611
G0 F6000 X127.34 Y113.197
G1 F900 X105.579 Y91.437 E186.81914
G0 F6000 X105.342 Y91.907
G1 F900 X127.027 Y113.592 E187.82866
G0 F6000 X126.714 Y113.986
G1 F900 X105.105 Y92.377 E188.83464
G0 F6000 X104.914 Y92.894
G1 F900 X126.447 Y114.426 E189.83706
G0 F6000 X126.247 Y114.933
G1 F900 X104.815 Y93.501 E190.8348
G0 F6000 X104.716 Y94.109
G1 F900 X126.046 Y115.44 E191.82781
G0 F6000 X125.846 Y115.947
G1 F900 X104.616 Y94.716 E192.81617
G0 F6000 X104.516 Y95.324
G1 F900 X125.646 Y116.454 E193.79985
G0 F6000 X125.455 Y116.97
G1 F900 X104.417 Y95.932 E194.77925
G0 F6000 X104.318 Y96.539
G1 F900 X125.395 Y117.617 E195.76049
G0 F6000 X125.335 Y118.264
G1 F900 X104.218 Y97.147 E196.74356
G0 F6000 X104.119 Y97.755
G1 F900 X125.275 Y118.911 E197.72845
G0 F6000 X125.215 Y119.558
G1 F900 X104.019 Y98.362 E198.71521
G0 F6000 X104.016 Y99.066
G1 F900 X125.239 Y120.289 E199.70322
G0 F6000 X125.376 Y121.133
G1 F900 X104.154 Y99.911 E200.69118
G0 F6000 X104.292 Y100.757
G1 F900 X125.513 Y121.978 E201.6791
G0 F6000 X125.65 Y122.822
G1 F900 X104.43 Y101.602 E202.66697
G0 F6000 X104.569 Y102.447
G1 F900 X125.676 Y123.555 E203.6496
G0 F6000 X124.349 Y122.935
G1 F900 X104.706 Y103.292 E204.56406
G0 F6000 X104.845 Y104.138
G1 F900 X123.021 Y122.314 E205.41022
G0 F6000 X121.693 Y121.693
G1 F900 X105.134 Y105.134 E206.1811
G0 F6000 X105.857 Y106.564
G1 F900 X120.366 Y121.073 E206.85655
G0 F6000 X119.001 Y120.416
G1 F900 X106.58 Y107.995 E207.43479
G0 F6000 X107.303 Y109.424
G1 F900 X116.535 Y118.656 E207.86458
G0 F6000 X117.657 Y117.534
G0 X115.807 Y116.214
G0 X114.068 Y116.896
G1 F900 X109.115 Y111.943 E208.09516
G1 F3000 E201.09516
G0 F6000 X110.237 Y110.821
G0 X110.254 Y109.123
G0 X118.328 Y88.863
G0 X119.085 Y87.265
G1 F3000 E208.09516
G1 F900 X113.079 Y81.26 E208.37474
G0 F6000 X113.492 Y80.965
G1 F900 X118.811 Y86.284 E208.62236
G0 F6000 X118.804 Y85.57
G1 F900 X113.905 Y80.67 E208.85045
G0 F6000 X114.317 Y80.376
G1 F900 X118.798 Y84.857 E209.05906
G0 F6000 X118.791 Y84.142
G1 F900 X114.73 Y80.081 E209.24811
G0 F6000 X115.143 Y79.787
G1 F900 X118.858 Y83.502 E209.42106
G0 F6000 X119.013 Y82.951
G1 F900 X115.556 Y79.493 E209.58202
G0 F6000 X115.968 Y79.198
G1 F900 X119.168 Y82.399 E209.73101
G0 F6000 X119.324 Y81.847
G1 F900 X116.381 Y78.904 E209.86802
G0 F6000 X116.794 Y78.61
G1 F900 X119.479 Y81.295 E209.99302
G0 F6000 X119.634 Y80.743
G1 F900 X117.206 Y78.315 E210.10605
G0 F6000 X117.619 Y78.021
G1 F900 X119.789 Y80.191 E210.20707
G0 F6000 X120.007 Y79.702
G1 F900 X118.032 Y77.727 E210.29901
G0 F6000 X118.444 Y77.432
G1 F900 X120.238 Y79.226 E210.38253
G0 F6000 X120.469 Y78.75
G1 F900 X118.857 Y77.138 E210.45758
G0 F6000 X119.301 Y76.875
G1 F900 X120.701 Y78.274 E210.52273
G0 F6000 X120.932 Y77.798
G1 F900 X119.783 Y76.65 E210.5762
G0 F6000 X120.265 Y76.424
G1 F900 X121.163 Y77.322 E210.618
G0 F6000 X121.394 Y76.846
G1 F900 X120.747 Y76.199 E210.64812
G0 F6000 X121.229 Y75.974
G1 F900 X121.747 Y76.139 E210.66655
G1 X121.711 Y75.749 E210.67945
; Layer Change GCode
; LAYER:1
G1 F3000 E203.67945
G0 F6000 X121.711 Y75.749 Z0.63
G0 X119.502 Y78.43
G0 X118.292 Y82.717
G0 X118.84 Y88.66
G0 X120.623 Y90.453
G0 X122.632 Y90.587
G0 X140.359 Y107.851
G0 X140.896 Y107.824
G0 X141.434 Y109.294
; TYPE:WALL-OUTER
G1 F3000 E210.67945
G1 F1800 X140.701 Y109.131 E210.69181
G1 X137.165 Y108.957 E210.75008
G1 X133.876 Y109.428 E210.80476
G1 X130.981 Y110.527 E210.85573
G1 X128.603 Y112.211 E210.90369
G1 X126.859 Y114.407 E210.94985
G1 X125.829 Y117.016 E210.99601
G1 X125.559 Y119.917 E211.04397
G1 X126.056 Y122.973 E211.09493
G1 X126.635 Y124.417 E211.12054
G1 X118.893 Y120.8 E211.26118
G1 X112.41 Y116.174 E211.39227
G1 X107.571 Y110.786 E211.51147
G1 X104.589 Y104.885 E211.62029
G1 X103.582 Y98.726 E211.72301
G1 X104.589 Y92.567 E211.82573
G1 X107.571 Y86.666 E211.93455
G1 X112.41 Y81.278 E212.05375
G1 X118.893 Y76.652 E212.18483
G1 X123.14 Y74.668 E212.26199
G1 X122.121 Y76.21 E212.29241
G1 X120.171 Y80.224 E212.36586
G1 X119.164 Y83.806 E212.4271
G1 X119.191 Y86.694 E212.47464
G1 X120.313 Y88.654 E212.51181
G1 X122.439 Y89.418 E212.54899
G1 X125.287 Y88.944 E212.59651
G1 X128.64 Y87.33 E212.65776
G1 X132.206 Y84.748 E212.73023
G1 X132.915 Y87.255 E212.77311
G1 X134.414 Y88.864 E212.8093
G1 X136.558 Y89.358 E212.84552
G1 X139.104 Y88.714 E212.88874
G1 X141.852 Y87.027 E212.94181
G1 X144.602 Y84.443 E213.00392
G1 X147.148 Y81.167 E213.07221
G1 X149.287 Y77.463 E213.14261
G1 X150 Y75.711 E213.17375
G1 X150.713 Y77.463 E213.20488
G1 X152.852 Y81.167 E213.27528
G1 X155.398 Y84.443 E213.34357
G1 X158.148 Y87.027 E213.40568
G1 X160.896 Y88.714 E213.45875
G1 X163.442 Y89.358 E213.50198
G1 X165.586 Y88.864 E213.53819
G1 X167.085 Y87.255 E213.57438
G1 X167.794 Y84.748 E213.61727
G1 X171.36 Y87.33 E213.68973
G1 X174.713 Y88.944 E213.75098
G1 X177.561 Y89.418 E213.7985
G1 X179.687 Y88.654 E213.83568
G1 X180.809 Y86.694 E213.87286
G1 X180.836 Y83.806 E213.92039
G1 X179.829 Y80.224 E213.98163
G1 X177.879 Y76.21 E214.05508
G1 X176.859 Y74.666 E214.08554
G1 X181.102 Y76.649 E214.16263
G1 X187.589 Y81.278 E214.2938
G1 X192.429 Y86.666 E214.41301
G1 X195.411 Y92.567 E214.52183
G1 X196.418 Y98.726 E214.62455
G1 X195.411 Y104.885 E214.72727
G1 X192.429 Y110.786 E214.83609
G1 X187.589 Y116.174 E214.9553
G1 X181.106 Y120.8 E215.08638
G1 X173.365 Y124.417 E215.22702
G1 X173.944 Y122.973 E215.25262
G1 X174.441 Y119.917 E215.30358
G1 X174.171 Y117.016 E215.35154
G1 X173.141 Y114.407 E215.39771
G1 X171.396 Y112.211 E215.44387
G1 X169.02 Y110.527 E215.4918
G1 X166.124 Y109.428 E215.54279
G1 X162.835 Y108.957 E215.59747
G1 X159.299 Y109.131 E215.65574
G1 X158.565 Y109.294 E215.66812
G1 X155.14 Y125.28 E215.93721
G1 X152.139 Y120.476 E216.03044
G1 X147.861 Y120.476 E216.10085
G1 X144.86 Y125.28 E216.19408
G1 X141.434 Y109.294 E216.46317
G0 F6000 X141.801 Y109.221
; TYPE:FILL
G1 F1800 X161.714 Y89.308 E216.92669
G0 F6000 X161.15 Y89.165
G1 F1800 X141.41 Y108.905 E217.38617
G0 F6000 X140.831 Y108.777
G1 F1800 X160.622 Y88.986 E217.84684
G0 F6000 X160.183 Y88.717
G1 F1800 X140.171 Y108.73 E218.31267
G0 F6000 X139.497 Y108.697
G1 F1800 X159.746 Y88.448 E218.78401
G0 F6000 X159.307 Y88.179
G1 F1800 X138.823 Y108.663 E219.26081
G0 F6000 X138.149 Y108.63
G1 F1800 X158.869 Y87.91 E219.74311
G0 F6000 X158.431 Y87.641
G1 F1800 X137.475 Y108.597 E220.2309
G0 F6000 X136.724 Y108.642
G1 F1800 X157.993 Y87.372 E220.72598
G0 F6000 X157.616 Y87.042
G1 F1800 X135.899 Y108.759 E221.23149
G0 F6000 X135.074 Y108.877
G1 F1800 X157.252 Y86.699 E221.74772
G0 F6000 X156.887 Y86.357
G1 F1800 X134.249 Y108.995 E222.27466
G0 F6000 X133.288 Y109.248
G1 F1800 X156.523 Y86.014 E222.81549
G0 F6000 X156.158 Y85.672
G1 F1800 X132.149 Y109.681 E223.37435
G0 F6000 X131.009 Y110.114
G1 F1800 X155.794 Y85.329 E223.95126
G0 F6000 X155.429 Y84.987
G1 F1800 X128.817 Y111.598 E224.5707
G0 F6000 X127.808 Y112.607
G1 F1800 X119.668 Y120.747 E224.76017
G0 F6000 X119.187 Y120.522
G1 F1800 X155.073 Y84.635 E225.5955
G0 F6000 X154.763 Y84.238
G1 F1800 X118.759 Y120.242 E226.43356
G0 F6000 X118.346 Y119.948
G1 F1800 X154.454 Y83.84 E227.27404
G0 F6000 X154.145 Y83.442
G1 F1800 X117.933 Y119.654 E228.11694
G0 F6000 X117.521 Y119.359
G1 F1800 X153.836 Y83.044 E228.96224
G0 F6000 X153.527 Y82.646
G1 F1800 X117.108 Y119.065 E229.80996
G0 F6000 X116.695 Y118.77
G1 F1800 X153.218 Y82.248 E230.66009
G0 F6000 X152.908 Y81.851
G1 F1800 X116.283 Y118.476 E231.51261
G0 F6000 X115.87 Y118.182
G1 F1800 X152.599 Y81.453 E232.36754
G0 F6000 X152.329 Y81.015
G1 F1800 X115.457 Y117.887 E233.22581
G0 F6000 X115.044 Y117.593
G1 F1800 X152.071 Y80.567 E234.08767
G0 F6000 X151.812 Y80.118
G1 F1800 X114.631 Y117.299 E234.95313
G0 F6000 X114.219 Y117.004
G1 F1800 X151.553 Y79.67 E235.82214
G0 F6000 X151.294 Y79.222
G1 F1800 X113.806 Y116.71 E236.69475
G0 F6000 X113.393 Y116.415
G1 F1800 X151.035 Y78.773 E237.57094
G0 F6000 X150.777 Y78.325
G1 F1800 X146.526 Y82.575 E237.66987
G0 F6000 X147.461 Y83.51
G0 X148.672 Y82.202
G0 X148.063 Y80.332
G1 F1800 X150.518 Y77.877 E237.72702
G0 F6000 X150.283 Y77.404
G1 F1800 X149.029 Y78.659 E237.75622
G0 F6000 X149.809 Y77.171
G1 F1800 X150.069 Y76.912 E237.76226
G0 F6000 X149.882 Y76.912
G0 X149.627 Y80.091
G0 X142.934 Y88.342
G0 X141.291 Y87.81
G1 F1800 X112.981 Y116.121 E238.42124
G0 F6000 X112.586 Y115.809
G1 F1800 X139.459 Y88.936 E239.04676
G0 F6000 X138.412 Y89.275
G1 F1800 X112.251 Y115.436 E239.65571
G0 F6000 X111.917 Y115.063
G1 F1800 X137.467 Y89.514 E240.25042
G0 F6000 X136.537 Y89.736
G1 F1800 X111.582 Y114.691 E240.83129
G0 F6000 X111.248 Y114.318
G1 F1800 X135.962 Y89.604 E241.40656
G0 F6000 X135.387 Y89.472
G1 F1800 X110.913 Y113.946 E241.97624
G0 F6000 X110.578 Y113.574
G1 F1800 X134.812 Y89.34 E242.54033
G0 F6000 X134.237 Y89.207
G1 F1800 X110.244 Y113.201 E243.09882
G0 F6000 X109.909 Y112.828
G1 F1800 X133.887 Y88.85 E243.65695
G0 F6000 X133.547 Y88.484
G1 F1800 X109.575 Y112.456 E244.21495
G0 F6000 X109.24 Y112.083
G1 F1800 X133.206 Y88.118 E244.77279
G0 F6000 X132.865 Y87.751
G1 F1800 X108.906 Y111.71 E245.33048
G0 F6000 X108.572 Y111.338
G1 F1800 X132.553 Y87.356 E245.88869
G0 F6000 X132.397 Y86.805
G1 F1800 X108.237 Y110.965 E246.45106
G0 F6000 X107.902 Y110.593
G1 F1800 X132.242 Y86.253 E247.01762
G0 F6000 X132.086 Y85.702
G1 F1800 X107.659 Y110.129 E247.58621
G0 F6000 X107.422 Y109.659
G1 F1800 X130.992 Y86.089 E248.13484
G0 F6000 X131.553 Y86.65
G0 X130.532 Y88.321
G0 X128.619 Y87.754
G1 F1800 X107.184 Y109.19 E248.6338
G0 F6000 X106.947 Y108.72
G1 F1800 X127.256 Y88.41 E249.10654
G0 F6000 X125.893 Y89.067
G1 F1800 X106.71 Y108.25 E249.55306
G0 F6000 X106.472 Y107.78
G1 F1800 X124.858 Y89.395 E249.98101
G0 F6000 X124.009 Y89.536
G1 F1800 X106.235 Y107.311 E250.39475
G0 F6000 X105.997 Y106.841
G1 F1800 X123.161 Y89.678 E250.79426
G0 F6000 X122.348 Y89.783
G1 F1800 X105.759 Y106.372 E251.1804
G0 F6000 X105.522 Y105.901
G1 F1800 X121.828 Y89.596 E251.55994
G0 F6000 X121.308 Y89.409
G1 F1800 X105.285 Y105.432 E251.93291
G0 F6000 X105.047 Y104.962
G1 F1800 X120.787 Y89.222 E252.29929
G0 F6000 X120.268 Y89.035
G1 F1800 X104.89 Y104.413 E252.65724
G0 F6000 X104.791 Y103.805
G1 F1800 X119.902 Y88.693 E253.00899
G0 F6000 X119.645 Y88.244
G1 F1800 X104.691 Y103.197 E253.35706
G0 F6000 X104.592 Y102.589
G1 F1800 X119.387 Y87.794 E253.70144
G0 F6000 X119.13 Y87.344
G1 F1800 X104.492 Y101.982 E254.04217
G0 F6000 X104.393 Y101.374
G1 F1800 X118.873 Y86.894 E254.37921
G0 F6000 X118.811 Y86.249
G1 F1800 X104.294 Y100.766 E254.71713
G0 F6000 X104.194 Y100.159
G1 F1800 X118.804 Y85.549 E255.0572
G0 F6000 X118.798 Y84.848
G1 F1800 X104.095 Y99.551 E255.39944
G0 F6000 X103.995 Y98.944
G1 F1800 X118.791 Y84.148 E255.74384
G0 F6000 X118.908 Y83.324
G1 F1800 X104.049 Y98.183 E256.08972
G0 F6000 X104.187 Y97.338
G1 F1800 X119.185 Y82.339 E256.43883
G0 F6000 X119.462 Y81.356
G1 F1800 X104.325 Y96.492 E256.79116
G0 F6000 X104.464 Y95.646
G1 F1800 X119.738 Y80.372 E257.1467
G0 F6000 X120.294 Y79.109
G1 F1800 X104.602 Y94.801 E257.51196
G0 F6000 X104.74 Y93.956
G1 F1800 X120.964 Y77.732 E257.8896
G0 F6000 X120.049 Y76.525
G1 F1800 X106.03 Y90.545 E258.21593
G0 F6000 X105.308 Y91.974
G1 F1800 X121.377 Y75.905 E258.58997
G0 F6000 X121.632 Y76.357
G1 F1800 X104.879 Y93.11 E258.97992
G0 F6000 X105.814 Y93.858
G0 X107.313 Y90.849
G0 X106.753 Y89.115
G1 F1800 X118.414 Y77.454 E259.25136
G0 F6000 X119.162 Y78.202
G0 X118.92 Y79.016
G0 X117.499 Y79.709
G0 X115.947 Y79.214
G1 F1800 X107.475 Y87.686 E259.44856
G0 F6000 X108.41 Y88.621
G0 X111.01 Y85.431
G0 X110.595 Y83.858
G1 F1800 X113.48 Y80.974 E259.5157
G1 F3000 E252.5157
G0 F6000 X114.415 Y81.909
G0 X114.013 Y82.385
G0 X125.377 Y113.24
G0 X126.285 Y114.838
G1 F3000 E259.5157
G1 F1800 X120.15 Y120.972 E259.65849
G0 F6000 X120.632 Y121.198
G1 F1800 X125.823 Y116.007 E259.77932
G0 F6000 X125.443 Y117.094
G1 F1800 X121.114 Y121.422 E259.88008
G0 F6000 X121.596 Y121.648
G1 F1800 X125.371 Y117.873 E259.96795
G0 F6000 X125.299 Y118.652
G1 F1800 X122.078 Y121.873 E260.04292
G0 F6000 X122.559 Y122.098
G1 F1800 X125.226 Y119.432 E260.10499
G0 F6000 X125.216 Y120.149
G1 F1800 X123.042 Y122.323 E260.15559
G0 F6000 X123.523 Y122.549
G1 F1800 X125.314 Y120.758 E260.19728
G0 F6000 X125.413 Y121.366
G1 F1800 X124.006 Y122.774 E260.23004
G0 F6000 X124.487 Y122.999
G1 F1800 X125.512 Y121.974 E260.2539
G0 F6000 X125.611 Y122.582
G1 F1800 X124.969 Y123.224 E260.26885
G0 F6000 X125.451 Y123.45
G1 F1800 X125.73 Y123.17 E260.27535
G1 F3000 E253.27535
G0 F6000 X125.356 Y122.983
G0 X124.689 Y119.908
G0 X125.621 Y114.259
G0 X128.429 Y110.724
G0 X132.817 Y108.55
G0 X141.79 Y108.258
G0 X142.552 Y109.12
G0 X144.649 Y117.633
G0 X143.922 Y119.121
G1 F3000 E260.27535
G1 F1800 X174.018 Y89.025 E260.97589
G0 F6000 X174.495 Y89.255
G1 F1800 X144.047 Y119.703 E261.68463
G0 F6000 X144.172 Y120.285
G1 F1800 X175.073 Y89.384 E262.40391
G0 F6000 X175.679 Y89.485
G1 F1800 X144.297 Y120.867 E263.13438
G0 F6000 X144.421 Y121.45
G1 F1800 X176.285 Y89.586 E263.87608
G0 F6000 X176.891 Y89.687
G1 F1800 X144.546 Y122.032 E264.62897
G0 F6000 X144.671 Y122.615
G1 F1800 X158.23 Y109.055 E264.94459
G0 F6000 X158.323 Y108.963
G1 F1800 X177.497 Y89.788 E265.39091
G0 F6000 X178.524 Y89.468
G1 F1800 X159.231 Y108.762 E265.84
G0 F6000 X159.977 Y108.722
G1 F1800 X179.628 Y89.072 E266.29741
G0 F6000 X180.214 Y88.485
G1 F1800 X187.223 Y81.477 E266.46054
G0 F6000 X187.579 Y81.828
G1 F1800 X160.721 Y108.685 E267.0857
G0 F6000 X161.465 Y108.649
G1 F1800 X187.914 Y82.2 E267.70135
G0 F6000 X188.248 Y82.573
G1 F1800 X162.208 Y108.613 E268.30748
G0 F6000 X162.935 Y108.593
G1 F1800 X188.583 Y82.945 E268.90449
G0 F6000 X188.917 Y83.318
G1 F1800 X163.554 Y108.681 E269.49486
G0 F6000 X164.173 Y108.769
G1 F1800 X189.252 Y83.691 E270.07861
G0 F6000 X189.586 Y84.063
G1 F1800 X164.791 Y108.858 E270.65576
G0 F6000 X165.41 Y108.946
G1 F1800 X189.921 Y84.436 E271.22628
G0 F6000 X190.255 Y84.808
G1 F1800 X166.029 Y109.035 E271.7902
G0 F6000 X166.574 Y109.197
G1 F1800 X190.59 Y85.18 E272.34923
G0 F6000 X190.925 Y85.553
G1 F1800 X167.086 Y109.392 E272.90413
G0 F6000 X167.599 Y109.586
G1 F1800 X191.259 Y85.926 E273.45486
G0 F6000 X191.594 Y86.298
G1 F1800 X168.111 Y109.781 E274.00147
G0 F6000 X168.624 Y109.975
G1 F1800 X191.928 Y86.671 E274.54391
G0 F6000 X192.22 Y87.086
G1 F1800 X169.136 Y110.17 E275.08124
G0 F6000 X169.562 Y110.452
G1 F1800 X192.457 Y87.556 E275.61417
G0 F6000 X192.695 Y88.026
G1 F1800 X169.975 Y110.745 E276.14301
G0 F6000 X170.39 Y111.038
G1 F1800 X192.932 Y88.495 E276.66773
G0 F6000 X193.169 Y88.966
G1 F1800 X170.803 Y111.331 E277.18833
G0 F6000 X171.217 Y111.625
G1 F1800 X193.407 Y89.435 E277.70484
G0 F6000 X193.644 Y89.905
G1 F1800 X171.631 Y111.918 E278.21724
G0 F6000 X171.949 Y112.306
G1 F1800 X193.881 Y90.375 E278.72774
G0 F6000 X194.119 Y90.844
G1 F1800 X172.263 Y112.7 E279.23647
G0 F6000 X172.575 Y113.095
G1 F1800 X194.356 Y91.314 E279.74347
G0 F6000 X194.593 Y91.784
G1 F1800 X172.889 Y113.489 E280.24868
G0 F6000 X173.202 Y113.883
G1 F1800 X194.831 Y92.254 E280.75214
G0 F6000 X195.057 Y92.734
G1 F1800 X173.498 Y114.293 E281.25396
G0 F6000 X173.698 Y114.8
G1 F1800 X195.157 Y93.342 E281.75345
G0 F6000 X195.256 Y93.949
G1 F1800 X173.898 Y115.307 E282.2506
G0 F6000 X174.099 Y115.814
G1 F1800 X195.355 Y94.557 E282.74538
G0 F6000 X195.455 Y95.165
G1 F1800 X174.299 Y116.321 E283.23783
G0 F6000 X174.499 Y116.828
G1 F1800 X195.554 Y95.773 E283.72792
G0 F6000 X195.654 Y96.38
G1 F1800 X174.587 Y117.447 E284.2183
G0 F6000 X174.647 Y118.094
G1 F1800 X195.754 Y96.988 E284.70959
G0 F6000 X195.853 Y97.596
G1 F1800 X174.708 Y118.74 E285.20177
G0 F6000 X174.768 Y119.387
G1 F1800 X195.952 Y98.203 E285.69486
G0 F6000 X196.019 Y98.844
G1 F1800 X174.796 Y120.067 E286.18887
G0 F6000 X174.658 Y120.911
G1 F1800 X195.88 Y99.69 E286.68284
G0 F6000 X195.742 Y100.535
G1 F1800 X174.521 Y121.756 E287.1768
G0 F6000 X174.383 Y122.601
G1 F1800 X195.604 Y101.38 E287.67076
G0 F6000 X195.465 Y102.226
G1 F1800 X174.193 Y123.498 E288.1659
G0 F6000 X175.301 Y123.097
G1 F1800 X195.327 Y103.071 E288.63205
G0 F6000 X195.189 Y103.917
G1 F1800 X176.628 Y122.477 E289.06408
G0 F6000 X177.956 Y121.856
G1 F1800 X195.051 Y104.762 E289.46198
G0 F6000 X194.331 Y106.189
G1 F1800 X179.284 Y121.236 E289.81223
G0 F6000 X180.612 Y120.615
G1 F1800 X193.608 Y107.618 E290.11475
G0 F6000 X192.886 Y109.047
G1 F1800 X182.816 Y119.117 E290.34915
G0 F6000 X181.694 Y117.995
G0 X183.544 Y116.675
G0 X185.283 Y117.357
G1 F1800 X192.164 Y110.477 E290.5093
G1 F3000 E283.5093
G0 F6000 X191.042 Y109.355
G0 X190.87 Y107.696
G0 X181.161 Y86.832
G1 F3000 E290.5093
G1 F1800 X186.81 Y81.182 E290.64081
G0 F6000 X186.398 Y80.888
G1 F1800 X181.188 Y86.098 E290.76208
G0 F6000 X181.195 Y85.383
G1 F1800 X185.985 Y80.593 E290.87357
G0 F6000 X185.572 Y80.299
G1 F1800 X181.202 Y84.669 E290.97529
G0 F6000 X181.208 Y83.956
G1 F1800 X185.16 Y80.004 E291.06728
G0 F6000 X184.747 Y79.71
G1 F1800 X181.099 Y83.358 E291.1522
G0 F6000 X180.944 Y82.806
G1 F1800 X184.334 Y79.416 E291.23111
G0 F6000 X183.922 Y79.121
G1 F1800 X180.788 Y82.254 E291.30405
G0 F6000 X180.633 Y81.702
G1 F1800 X183.509 Y78.827 E291.37098
G0 F6000 X183.096 Y78.532
G1 F1800 X180.478 Y81.151 E291.43193
G0 F6000 X180.323 Y80.598
G1 F1800 X182.683 Y78.238 E291.48686
G0 F6000 X182.27 Y77.944
G1 F1800 X180.162 Y80.052 E291.53593
G0 F6000 X179.931 Y79.577
G1 F1800 X181.858 Y77.649 E291.5808
G0 F6000 X181.445 Y77.355
G1 F1800 X179.699 Y79.101 E291.62144
G0 F6000 X179.468 Y78.625
G1 F1800 X181.032 Y77.061 E291.65784
G0 F6000 X180.571 Y76.815
G1 F1800 X179.237 Y78.149 E291.68889
G0 F6000 X179.006 Y77.673
G1 F1800 X180.089 Y76.59 E291.7141
G0 F6000 X179.607 Y76.365
G1 F1800 X178.774 Y77.197 E291.73348
G0 F6000 X178.543 Y76.721
G1 F1800 X179.124 Y76.14 E291.747
G0 F6000 X178.643 Y75.914
G1 F1800 X178.312 Y76.245 E291.75471
G1 F3000 E284.75471
G0 F6000 X178.499 Y76.058
G0 X180.459 Y78.377
G0 X181.708 Y83.839
G0 X181.16 Y88.66
G0 X179.649 Y89.927
G0 X175.327 Y90.008
G0 X172.29 Y89.596
G0 X172.586 Y88.336
G1 F3000 E291.75471
G1 F1800 X143.548 Y117.374 E292.43062
G0 F6000 X143.672 Y117.956
G1 F1800 X173.063 Y88.565 E293.11475
G0 F6000 X173.54 Y88.795
G1 F1800 X143.797 Y118.538 E293.80708
G0 F6000 X143.423 Y116.791
G1 F1800 X172.109 Y88.106 E294.47479
G0 F6000 X171.631 Y87.876
G1 F1800 X143.298 Y116.209 E295.13429
G0 F6000 X143.174 Y115.626
G1 F1800 X171.155 Y87.645 E295.7856
G0 F6000 X170.745 Y87.348
G1 F1800 X143.049 Y115.044 E296.43028
G0 F6000 X142.924 Y114.462
G1 F1800 X170.334 Y87.051 E297.06831
G0 F6000 X169.924 Y86.754
G1 F1800 X142.799 Y113.88 E297.6997
G0 F6000 X142.675 Y113.297
G1 F1800 X169.514 Y86.457 E298.32444
G0 F6000 X169.104 Y86.16
G1 F1800 X142.549 Y112.715 E298.94256
G0 F6000 X142.425 Y112.132
G1 F1800 X165.227 Y89.33 E299.47332
G0 F6000 X164.308 Y89.542
G1 F1800 X142.3 Y111.55 E299.9856
G0 F6000 X142.175 Y110.968
G1 F1800 X163.408 Y89.736 E300.47982
G0 F6000 X162.843 Y89.593
G1 F1800 X142.051 Y110.385 E300.9638
G0 F6000 X141.926 Y109.803
G1 F1800 X162.279 Y89.45 E301.43755
G0 F6000 X161.344 Y90.385
G0 X166.577 Y89.76
G0 X167.967 Y88.68
G0 X167.54 Y87.017
G1 F1800 X168.694 Y85.863 E301.46441
G0 F6000 X168.284 Y85.566
G1 F1800 X167.819 Y86.032 E301.47525
G1 F3000 E294.47525
G0 F6000 X168.193 Y86.593
G0 X168.179 Y88.374
G0 X165.806 Y90.957
G0 X158.614 Y107.799
G0 X157.204 Y108.129
G0 X158.038 Y109.955
G1 F3000 E301.47525
G1 F1800 X147.892 Y120.1 E301.7114
G0 F6000 X148.599 Y120.1
G1 F1800 X157.845 Y110.855 E301.92661
G0 F6000 X157.652 Y111.754
G1 F1800 X149.307 Y120.1 E302.12087
G0 F6000 X150.014 Y120.1
G1 F1800 X157.459 Y112.654 E302.29418
G0 F6000 X157.267 Y113.554
G1 F1800 X150.721 Y120.1 E302.44655
G0 F6000 X151.428 Y120.1
G1 F1800 X157.074 Y114.454 E302.57797
G0 F6000 X156.882 Y115.353
G1 F1800 X152.135 Y120.1 E302.68846
G0 F6000 X152.537 Y120.406
G1 F1800 X156.689 Y116.254 E302.78511
G0 F6000 X156.496 Y117.153
G1 F1800 X152.808 Y120.841 E302.87095
G0 F6000 X153.08 Y121.276
G1 F1800 X156.303 Y118.053 E302.94597
G0 F6000 X156.111 Y118.953
G1 F1800 X153.352 Y121.712 E303.0102
G0 F6000 X153.624 Y122.147
G1 F1800 X155.918 Y119.853 E303.06359
G0 F6000 X155.726 Y120.752
G1 F1800 X153.896 Y122.582 E303.10619
G0 F6000 X154.168 Y123.017
G1 F1800 X155.533 Y121.652 E303.13796
G0 F6000 X155.34 Y122.552
G1 F1800 X154.439 Y123.453 E303.15893
G0 F6000 X154.712 Y123.887
G1 F1800 X155.147 Y123.452 E303.16906
G0 F6000 X154.773 Y123.265
G0 X154.381 Y120.695
G0 X153.122 Y119.604
G0 X148 Y119.604
G0 X147.252 Y120.741
G1 F1800 X144.796 Y123.197 E303.22623
G0 F6000 X144.92 Y123.779
G1 F1800 X146.075 Y122.625 E303.2531
; Layer Change GCode
; LAYER:2
G0 F6000 X145.327 Y121.877 Z0.84
G0 X142.814 Y108.913
G0 X141.434 Y109.294
; TYPE:WALL-OUTER
G1 F1800 X140.701 Y109.131 E303.26546
G1 X137.165 Y108.957 E303.32373
G1 X133.876 Y109.428 E303.37842
G1 X130.981 Y110.527 E303.42939
G1 X128.603 Y112.211 E303.47735
G1 X126.859 Y114.407 E303.5235
G1 X125.829 Y117.016 E303.56967
G1 X125.559 Y119.917 E303.61762
G1 X126.056 Y122.973 E303.66858
G1 X126.635 Y124.417 E303.69419
G1 X118.893 Y120.8 E303.83484
G1 X112.41 Y116.174 E303.96592
G1 X107.571 Y110.786 E304.08512
G1 X104.589 Y104.885 E304.19394
G1 X103.582 Y98.726 E304.29666
G1 X104.589 Y92.567 E304.39938
G1 X107.571 Y86.666 E304.5082
G1 X112.41 Y81.278 E304.6274
G1 X118.893 Y76.652 E304.75849
G1 X123.14 Y74.668 E304.83564
G1 X122.121 Y76.21 E304.86606
G1 X120.171 Y80.224 E304.93951
G1 X119.164 Y83.806 E305.00076
G1 X119.191 Y86.694 E305.04829
G1 X120.313 Y88.654 E305.08546
G1 X122.439 Y89.418 E305.12265
G1 X125.287 Y88.944 E305.17017
G1 X128.64 Y87.33 E305.23142
G1 X132.206 Y84.748 E305.30388
G1 X132.915 Y87.255 E305.34676
G1 X134.414 Y88.864 E305.38296
G1 X136.558 Y89.358 E305.41917
G1 X139.104 Y88.714 E305.4624
G1 X141.852 Y87.027 E305.51547
G1 X144.602 Y84.443 E305.57758
G1 X147.148 Y81.167 E305.64587
G1 X149.287 Y77.463 E305.71627
G1 X150 Y75.711 E305.7474
G1 X150.713 Y77.463 E305.77853
G1 X152.852 Y81.167 E305.84893
G1 X155.398 Y84.443 E305.91722
G1 X158.148 Y87.027 E305.97933
G1 X160.896 Y88.714 E306.03241
G1 X163.442 Y89.358 E306.07563
G1 X165.586 Y88.864 E306.11184
G1 X167.085 Y87.255 E306.14804
G1 X167.794 Y84.748 E306.19092
G1 X171.36 Y87.33 E306.26339
G1 X174.713 Y88.944 E306.32463
G1 X177.561 Y89.418 E306.37215
G1 X179.687 Y88.654 E306.40934
G1 X180.809 Y86.694 E306.44651
G1 X180.836 Y83.806 E306.49405
G1 X179.829 Y80.224 E306.55529
G1 X177.879 Y76.21 E306.62874
G1 X176.859 Y74.666 E306.6592
G1 X181.102 Y76.649 E306.73628
G1 X187.589 Y81.278 E306.86745
G1 X192.429 Y86.666 E306.98666
G1 X195.411 Y92.567 E307.09548
G1 X196.418 Y98.726 E307.1982
G1 X195.411 Y104.885 E307.30092
G1 X192.429 Y110.786 E307.40974
G1 X187.589 Y116.174 E307.52895
G1 X181.106 Y120.8 E307.66004
G1 X173.365 Y124.417 E307.80067
G1 X173.944 Y122.973 E307.82628
G1 X174.441 Y119.917 E307.87724
G1 X174.171 Y117.016 E307.92519
G1 X173.141 Y114.407 E307.97136
G1 X171.396 Y112.211 E308.01753
G1 X169.02 Y110.527 E308.06546
G1 X166.124 Y109.428 E308.11644
G1 X162.835 Y108.957 E308.17113
G1 X159.299 Y109.131 E308.2294
G1 X158.565 Y109.294 E308.24177
G1 X155.14 Y125.28 E308.51086
G1 X152.139 Y120.476 E308.60409
G1 X147.861 Y120.476 E308.67451
G1 X144.86 Y125.28 E308.76774
G1 X141.434 Y109.294 E309.03683
G0 F6000 X141.815 Y109.289
; TYPE:FILL
G1 F1800 X155.294 Y122.767 E309.35057
G0 F6000 X155.169 Y123.349
G1 F1800 X153.054 Y121.234 E309.3998
G0 F6000 X151.92 Y120.1
G1 F1800 X142.008 Y110.189 E309.63051
G0 F6000 X142.202 Y111.089
G1 F1800 X151.213 Y120.1 E309.84025
G0 F6000 X150.506 Y120.1
G1 F1800 X142.394 Y111.988 E310.02908
G0 F6000 X142.587 Y112.888
G1 F1800 X149.799 Y120.1 E310.19695
G0 F6000 X149.092 Y120.1
G1 F1800 X142.78 Y113.789 E310.34386
G0 F6000 X142.972 Y114.688
G1 F1800 X148.384 Y120.1 E310.46983
G0 F6000 X147.677 Y120.1
G1 F1800 X143.165 Y115.588 E310.57486
G0 F6000 X143.358 Y116.488
G1 F1800 X147.39 Y120.519 E310.6687
G0 F6000 X147.118 Y120.955
G1 F1800 X143.551 Y117.388 E310.75173
G0 F6000 X143.744 Y118.288
G1 F1800 X146.846 Y121.39 E310.82393
G0 F6000 X146.574 Y121.826
G1 F1800 X143.937 Y119.188 E310.88533
G0 F6000 X144.129 Y120.087
G1 F1800 X146.302 Y122.26 E310.93591
G0 F6000 X146.03 Y122.696
G1 F1800 X144.322 Y120.988 E310.97566
G0 F6000 X144.515 Y121.888
G1 F1800 X145.758 Y123.131 E311.0046
G0 F6000 X145.487 Y123.566
G1 F1800 X144.708 Y122.788 E311.02272
G0 F6000 X144.901 Y123.687
G1 F1800 X145.215 Y124.002 E311.03004
G0 F6000 X145.028 Y123.815
G0 X145.764 Y120.915
G0 X148 Y119.604
G0 X153.122 Y119.604
G0 X154.421 Y121.772
G0 X154.231 Y123.118
G1 F1800 X155.045 Y123.932 E311.04899
G0 F6000 X155.419 Y122.185
G1 F1800 X122.947 Y89.713 E311.80483
G0 F6000 X123.553 Y89.612
G1 F1800 X155.543 Y121.602 E312.54946
G0 F6000 X155.668 Y121.02
G1 F1800 X124.159 Y89.511 E313.28289
G0 F6000 X124.765 Y89.41
G1 F1800 X155.793 Y120.437 E314.00511
G0 F6000 X155.917 Y119.855
G1 F1800 X125.372 Y89.309 E314.71612
G0 F6000 X125.855 Y89.085
G1 F1800 X156.042 Y119.273 E315.41879
G0 F6000 X156.167 Y118.69
G1 F1800 X126.332 Y88.855 E316.11325
G0 F6000 X126.809 Y88.625
G1 F1800 X156.291 Y118.108 E316.79952
G0 F6000 X156.416 Y117.526
G1 F1800 X127.286 Y88.396 E317.47757
G0 F6000 X127.764 Y88.166
G1 F1800 X156.541 Y116.943 E318.14741
G0 F6000 X156.666 Y116.361
G1 F1800 X128.241 Y87.936 E318.80905
G0 F6000 X128.718 Y87.706
G1 F1800 X156.791 Y115.778 E319.46249
G0 F6000 X156.915 Y115.196
G1 F1800 X129.145 Y87.426 E320.10889
G0 F6000 X129.556 Y87.129
G1 F1800 X157.04 Y114.614 E320.74865
G0 F6000 X157.165 Y114.031
G1 F1800 X129.966 Y86.832 E321.38175
G0 F6000 X130.376 Y86.535
G1 F1800 X157.289 Y113.448 E322.00821
G0 F6000 X157.414 Y112.866
G1 F1800 X130.786 Y86.238 E322.62802
G0 F6000 X131.196 Y85.941
G1 F1800 X132.53 Y87.276 E322.65908
G0 F6000 X132.252 Y86.29
G1 F1800 X131.606 Y85.644 E322.67412
G0 F6000 X131.793 Y85.831
G0 X131.458 Y87.976
G0 X132.919 Y89.791
G0 X134.529 Y89.275
G1 F1800 X157.539 Y112.284 E323.20971
G0 F6000 X157.664 Y111.702
G1 F1800 X135.448 Y89.486 E323.72683
G0 F6000 X136.366 Y89.697
G1 F1800 X157.788 Y111.119 E324.22547
G0 F6000 X157.913 Y110.537
G1 F1800 X137.006 Y89.63 E324.71212
G0 F6000 X137.571 Y89.487
G1 F1800 X158.038 Y109.955 E325.18854
G0 F6000 X158.162 Y109.372
G1 F1800 X138.136 Y89.345 E325.65469
G0 F6000 X138.7 Y89.202
G1 F1800 X158.435 Y108.938 E326.11407
G0 F6000 X159.014 Y108.81
G1 F1800 X139.261 Y89.057 E326.57386
G0 F6000 X139.7 Y88.788
G1 F1800 X159.65 Y108.738 E327.03823
G0 F6000 X160.324 Y108.705
G1 F1800 X140.137 Y88.519 E327.50811
G0 F6000 X140.576 Y88.25
G1 F1800 X160.998 Y108.672 E327.98347
G0 F6000 X161.672 Y108.639
G1 F1800 X141.014 Y87.981 E328.46433
G0 F6000 X141.452 Y87.712
G1 F1800 X162.346 Y108.605 E328.95066
G0 F6000 X163.058 Y108.61
G1 F1800 X141.89 Y87.442 E329.44339
G0 F6000 X142.286 Y87.132
G1 F1800 X163.883 Y108.728 E329.94609
G0 F6000 X164.708 Y108.847
G1 F1800 X142.651 Y86.789 E330.45952
G0 F6000 X143.015 Y86.447
G1 F1800 X165.532 Y108.964 E330.98364
G0 F6000 X166.411 Y109.135
G1 F1800 X143.38 Y86.104 E331.51973
G0 F6000 X143.744 Y85.762
G1 F1800 X167.551 Y109.568 E332.07387
G0 F6000 X168.69 Y110.001
G1 F1800 X144.109 Y85.419 E332.64605
G0 F6000 X144.473 Y85.076
G1 F1800 X170.547 Y111.15 E333.25297
G0 F6000 X171.669 Y110.028
G0 X173.433 Y111.792
G0 X172.9 Y113.503
G1 F1800 X180.203 Y120.806 E333.42296
G0 F6000 X179.721 Y121.031
G1 F1800 X173.834 Y115.144 E333.56
G0 F6000 X174.296 Y116.313
G1 F1800 X179.239 Y121.256 E333.67505
G0 F6000 X178.758 Y121.482
G1 F1800 X174.574 Y117.298 E333.77244
G0 F6000 X174.646 Y118.077
G1 F1800 X178.275 Y121.707 E333.85693
G0 F6000 X177.794 Y121.932
G1 F1800 X174.719 Y118.857 E333.9285
G0 F6000 X174.791 Y119.636
G1 F1800 X177.311 Y122.157 E333.98717
G0 F6000 X176.83 Y122.383
G1 F1800 X174.757 Y120.309 E334.03544
G0 F6000 X174.658 Y120.918
G1 F1800 X176.348 Y122.608 E334.07477
G0 F6000 X175.866 Y122.833
G1 F1800 X174.559 Y121.526 E334.1052
G0 F6000 X174.459 Y122.133
G1 F1800 X175.384 Y123.058 E334.12673
G0 F6000 X174.902 Y123.284
G1 F1800 X174.36 Y122.741 E334.13936
G0 F6000 X174.214 Y123.303
G1 F1800 X174.42 Y123.508 E334.14414
G0 F6000 X174.233 Y123.321
G0 X176.082 Y121.086
G0 X178.866 Y119.785
G0 X180.685 Y120.581
G1 F1800 X144.838 Y84.734 E334.97855
G0 F6000 X145.153 Y84.342
G1 F1800 X181.131 Y120.319 E335.81599
G0 F6000 X181.544 Y120.025
G1 F1800 X145.463 Y83.944 E336.65584
G0 F6000 X145.772 Y83.546
G1 F1800 X181.956 Y119.731 E337.49811
G0 F6000 X182.369 Y119.436
G1 F1800 X146.081 Y83.148 E338.34278
G0 F6000 X146.39 Y82.751
G1 F1800 X182.782 Y119.142 E339.18986
G0 F6000 X183.195 Y118.848
G1 F1800 X146.699 Y82.353 E340.03936
G0 F6000 X147.008 Y81.955
G1 F1800 X183.607 Y118.553 E340.89126
G0 F6000 X184.02 Y118.259
G1 F1800 X147.318 Y81.557 E341.74556
G0 F6000 X147.6 Y81.132
G1 F1800 X184.433 Y117.965 E342.60292
G0 F6000 X184.845 Y117.67
G1 F1800 X147.859 Y80.684 E343.46384
G0 F6000 X148.118 Y80.236
G1 F1800 X185.258 Y117.376 E344.32834
G0 F6000 X185.671 Y117.082
G1 F1800 X148.377 Y79.787 E345.19644
G0 F6000 X148.635 Y79.339
G1 F1800 X186.083 Y116.787 E346.06812
G0 F6000 X186.496 Y116.493
G1 F1800 X148.894 Y78.891 E346.94337
G0 F6000 X149.153 Y78.442
G1 F1800 X154.118 Y83.407 E347.05894
G0 F6000 X152.996 Y84.529
G0 X151.549 Y82.552
G0 X152.188 Y80.77
G1 F1800 X149.413 Y77.995 E347.12354
G0 F6000 X149.661 Y77.536
G1 F1800 X151.222 Y79.097 E347.15987
G0 F6000 X150.316 Y77.484
G1 F1800 X149.865 Y77.033 E347.17037
G0 F6000 X150.172 Y79.965
G0 X156.574 Y87.988
G0 X158.225 Y87.515
G1 F1800 X186.909 Y116.198 E347.83803
G0 F6000 X187.321 Y115.903
G1 F1800 X160.058 Y88.64 E348.47263
G0 F6000 X161.338 Y89.213
G1 F1800 X187.659 Y115.534 E349.0853
G0 F6000 X187.993 Y115.161
G1 F1800 X162.283 Y89.451 E349.68375
G0 F6000 X163.229 Y89.69
G1 F1800 X188.327 Y114.788 E350.26795
G0 F6000 X188.663 Y114.416
G1 F1800 X163.886 Y89.639 E350.84468
G0 F6000 X164.461 Y89.507
G1 F1800 X188.997 Y114.044 E351.41581
G0 F6000 X189.332 Y113.671
G1 F1800 X165.035 Y89.374 E351.98137
G0 F6000 X165.61 Y89.242
G1 F1800 X189.666 Y113.299 E352.54133
G0 F6000 X190.001 Y112.926
G1 F1800 X166.02 Y88.946 E353.09952
G0 F6000 X166.362 Y88.58
G1 F1800 X190.336 Y112.554 E353.65756
G0 F6000 X190.67 Y112.181
G1 F1800 X166.703 Y88.214 E354.21544
G0 F6000 X167.044 Y87.848
G1 F1800 X191.005 Y111.809 E354.77318
G0 F6000 X191.339 Y111.436
G1 F1800 X167.384 Y87.481 E355.33078
G0 F6000 X167.559 Y86.949
G1 F1800 X191.674 Y111.063 E355.89209
G0 F6000 X192.009 Y110.691
G1 F1800 X167.715 Y86.398 E356.45756
G0 F6000 X167.871 Y85.847
G1 F1800 X192.277 Y110.253 E357.02566
G0 F6000 X192.514 Y109.783
G1 F1800 X168.335 Y85.603 E357.58848
G0 F6000 X168.148 Y86.164
G0 X169.133 Y88.115
G0 X170.896 Y87.457
G1 F1800 X192.752 Y109.313 E358.09722
G0 F6000 X192.989 Y108.844
G1 F1800 X172.384 Y88.239 E358.57684
G0 F6000 X173.748 Y88.896
G1 F1800 X193.226 Y108.374 E359.03023
G0 F6000 X193.464 Y107.904
G1 F1800 X174.918 Y89.358 E359.46192
G0 F6000 X175.766 Y89.499
G1 F1800 X193.702 Y107.434 E359.8794
G0 F6000 X193.938 Y106.964
G1 F1800 X176.615 Y89.641 E360.28263
G0 F6000 X177.464 Y89.782
G1 F1800 X194.176 Y106.495 E360.67164
G0 F6000 X194.414 Y106.025
G1 F1800 X178.033 Y89.645 E361.05293
G0 F6000 X178.553 Y89.458
G1 F1800 X194.65 Y105.555 E361.42762
G0 F6000 X194.888 Y105.085
G1 F1800 X179.074 Y89.271 E361.79572
G0 F6000 X179.594 Y89.084
G1 F1800 X195.082 Y104.572 E362.15623
G0 F6000 X195.181 Y103.964
G1 F1800 X180.027 Y88.811 E362.50896
G0 F6000 X180.285 Y88.361
G1 F1800 X195.28 Y103.357 E362.85801
G0 F6000 X195.379 Y102.748
G1 F1800 X180.542 Y87.911 E363.20336
G0 F6000 X180.8 Y87.462
G1 F1800 X195.479 Y102.141 E363.54505
G0 F6000 X195.579 Y101.534
G1 F1800 X181.058 Y87.013 E363.88305
G0 F6000 X181.185 Y86.433
G1 F1800 X195.678 Y100.926 E364.2204
G0 F6000 X195.778 Y100.318
G1 F1800 X181.191 Y85.732 E364.55993
G0 F6000 X181.198 Y85.032
G1 F1800 X195.877 Y99.71 E364.9016
G0 F6000 X195.976 Y99.103
G1 F1800 X181.205 Y84.331 E365.24543
G0 F6000 X181.162 Y83.581
G1 F1800 X195.985 Y98.405 E365.59048
G0 F6000 X195.847 Y97.559
G1 F1800 X180.885 Y82.597 E365.93875
G0 F6000 X180.609 Y81.614
G1 F1800 X195.708 Y96.713 E366.2902
G0 F6000 X195.57 Y95.868
G1 F1800 X180.332 Y80.629 E366.64491
G0 F6000 X179.878 Y79.469
G1 F1800 X195.432 Y95.023 E367.00696
G0 F6000 X195.293 Y94.177
G1 F1800 X179.211 Y78.094 E367.38131
G0 F6000 X178.543 Y76.719
G1 F1800 X195.155 Y93.332 E367.76799
G0 F6000 X194.879 Y92.348
G1 F1800 X178.272 Y75.741 E368.15455
G0 F6000 X179.599 Y76.361
G1 F1800 X194.157 Y90.919 E368.49342
G0 F6000 X193.434 Y89.49
G1 F1800 X180.938 Y76.993 E368.7843
G0 F6000 X180.19 Y77.741
G0 X181.852 Y79.247
G0 X183.404 Y78.752
G1 F1800 X192.712 Y88.06 E369.00096
G0 F6000 X191.59 Y89.182
G0 X190.658 Y87.405
G0 X191.033 Y85.674
G1 F1800 X185.871 Y80.512 E369.12111
G1 F3000 E362.12111
G0 F6000 X184.749 Y81.634
G0 X181.846 Y86.007
G0 X181.127 Y88.961
G0 X179.302 Y90.289
G0 X174.84 Y90.962
G0 X141.439 Y108.912
G1 F3000 E369.12111
G1 F1800 X122.289 Y89.762 E369.56687
G0 F6000 X121.184 Y89.364
G1 F1800 X140.569 Y108.749 E370.01809
G0 F6000 X139.826 Y108.713
G1 F1800 X120.08 Y88.968 E370.4777
G0 F6000 X120.032 Y88.919
G1 F1800 X112.666 Y81.554 E370.64915
G0 F6000 X112.331 Y81.926
G1 F1800 X139.082 Y108.676 E371.27182
G0 F6000 X138.338 Y108.639
G1 F1800 X111.996 Y82.298 E371.88496
G0 F6000 X111.662 Y82.67
G1 F1800 X137.594 Y108.603 E372.48859
G0 F6000 X136.9 Y108.616
G1 F1800 X111.327 Y83.043 E373.08385
G0 F6000 X110.993 Y83.415
G1 F1800 X136.282 Y108.704 E373.6725
G0 F6000 X135.663 Y108.793
G1 F1800 X110.658 Y83.788 E374.25454
G0 F6000 X110.324 Y84.161
G1 F1800 X135.044 Y108.881 E374.82994
G0 F6000 X134.425 Y108.97
G1 F1800 X109.989 Y84.533 E375.39875
G0 F6000 X109.655 Y84.906
G1 F1800 X133.807 Y109.058 E375.96093
G0 F6000 X133.289 Y109.247
G1 F1800 X109.32 Y85.278 E376.51886
G0 F6000 X108.985 Y85.651
G1 F1800 X132.777 Y109.443 E377.07266
G0 F6000 X132.265 Y109.637
G1 F1800 X108.651 Y86.023 E377.62232
G0 F6000 X108.316 Y86.396
G1 F1800 X131.752 Y109.832 E378.16784
G0 F6000 X131.239 Y110.026
G1 F1800 X107.982 Y86.769 E378.70919
G0 F6000 X107.715 Y87.209
G1 F1800 X130.741 Y110.235 E379.24516
G0 F6000 X130.327 Y110.528
G1 F1800 X107.478 Y87.679 E379.77701
G0 F6000 X107.241 Y88.149
G1 F1800 X129.913 Y110.822 E380.30476
G0 F6000 X129.5 Y111.115
G1 F1800 X107.003 Y88.618 E380.82842
G0 F6000 X106.766 Y89.089
G1 F1800 X129.085 Y111.408 E381.34793
G0 F6000 X128.672 Y111.701
G1 F1800 X106.529 Y89.558 E381.86335
G0 F6000 X106.291 Y90.028
G1 F1800 X128.279 Y112.015 E382.37515
G0 F6000 X127.965 Y112.409
G1 F1800 X106.054 Y90.498 E382.88517
G0 F6000 X105.817 Y90.967
G1 F1800 X127.653 Y112.804 E383.39346
G0 F6000 X127.34 Y113.197
G1 F1800 X105.579 Y91.437 E383.89998
G0 F6000 X105.342 Y91.907
G1 F1800 X127.027 Y113.592 E384.40473
G0 F6000 X126.714 Y113.986
G1 F1800 X105.105 Y92.377 E384.90772
G0 F6000 X104.914 Y92.894
G1 F1800 X126.447 Y114.426 E385.40893
G0 F6000 X126.247 Y114.933
G1 F1800 X104.815 Y93.501 E385.9078
G0 F6000 X104.716 Y94.109
G1 F1800 X126.046 Y115.44 E386.40431
G0 F6000 X125.846 Y115.947
G1 F1800 X104.616 Y94.716 E386.89849
G0 F6000 X104.516 Y95.324
G1 F1800 X125.646 Y116.454 E387.39033
G0 F6000 X125.455 Y116.97
G1 F1800 X104.417 Y95.932 E387.88003
G0 F6000 X104.318 Y96.539
G1 F1800 X125.395 Y117.617 E388.37065
G0 F6000 X125.335 Y118.264
G1 F1800 X104.218 Y97.147 E388.86219
G0 F6000 X104.119 Y97.755
G1 F1800 X125.275 Y118.911 E389.35463
G0 F6000 X125.215 Y119.558
G1 F1800 X104.019 Y98.362 E389.84801
G0 F6000 X104.016 Y99.066
G1 F1800 X125.239 Y120.289 E390.34201
G0 F6000 X125.376 Y121.133
G1 F1800 X104.154 Y99.911 E390.836
G0 F6000 X104.292 Y100.757
G1 F1800 X125.513 Y121.978 E391.32995
G0 F6000 X125.65 Y122.822
G1 F1800 X104.43 Y101.602 E391.82389
G0 F6000 X104.569 Y102.447
G1 F1800 X125.676 Y123.555 E392.31521
G0 F6000 X124.349 Y122.935
G1 F1800 X104.706 Y103.292 E392.77243
G0 F6000 X104.845 Y104.138
G1 F1800 X123.021 Y122.314 E393.19551
G0 F6000 X121.693 Y121.693
G1 F1800 X105.134 Y105.134 E393.58096
G0 F6000 X105.857 Y106.564
G1 F1800 X120.366 Y121.073 E393.91868
G0 F6000 X119.001 Y120.416
G1 F1800 X106.58 Y107.995 E394.2078
G0 F6000 X107.303 Y109.424
G1 F1800 X116.535 Y118.656 E394.42269
G0 F6000 X117.657 Y117.534
G0 X115.807 Y116.214
G0 X114.068 Y116.896
G1 F1800 X109.115 Y111.943 E394.53799
G1 F3000 E387.53799
G0 F6000 X110.237 Y110.821
G0 X110.254 Y109.123
G0 X118.328 Y88.863
G0 X119.085 Y87.265
G1 F3000 E394.53799
G1 F1800 X113.079 Y81.26 E394.67777
G0 F6000 X113.492 Y80.965
G1 F1800 X118.811 Y86.284 E394.80158
G0 F6000 X118.804 Y85.57
G1 F1800 X113.905 Y80.67 E394.91563
G0 F6000 X114.317 Y80.376
G1 F1800 X118.798 Y84.857 E395.01993
G0 F6000 X118.791 Y84.142
G1 F1800 X114.73 Y80.081 E395.11446
G0 F6000 X115.143 Y79.787
G1 F1800 X118.858 Y83.502 E395.20093
G0 F6000 X119.013 Y82.951
G1 F1800 X115.556 Y79.493 E395.28141
G0 F6000 X115.968 Y79.198
G1 F1800 X119.168 Y82.399 E395.35591
G0 F6000 X119.324 Y81.847
G1 F1800 X116.381 Y78.904 E395.42442
G0 F6000 X116.794 Y78.61
G1 F1800 X119.479 Y81.295 E395.48691
G0 F6000 X119.634 Y80.743
G1 F1800 X117.206 Y78.315 E395.54343
G0 F6000 X117.619 Y78.021
G1 F1800 X119.789 Y80.191 E395.59394
G0 F6000 X120.007 Y79.702
G1 F1800 X118.032 Y77.727 E395.63991
G0 F6000 X118.444 Y77.432
G1 F1800 X120.238 Y79.226 E395.68167
G0 F6000 X120.469 Y78.75
G1 F1800 X118.857 Y77.138 E395.71919
G0 F6000 X119.301 Y76.875
G1 F1800 X120.701 Y78.274 E395.75177
G0 F6000 X120.932 Y77.798
G1 F1800 X119.783 Y76.65 E395.7785
G0 F6000 X120.265 Y76.424
G1 F1800 X121.163 Y77.322 E395.79941
G0 F6000 X121.394 Y76.846
G1 F1800 X120.747 Y76.199 E395.81447
G0 F6000 X121.229 Y75.974
G1 F1800 X121.625 Y76.371 E395.8237
G0 F6000 X121.87 Y75.908
G1 F1800 X121.711 Y75.749 E395.8274
; Layer Change GCode
; LAYER:3
G1 F3000 E388.8274
G0 F6000 X121.711 Y75.749 Z1.05
G0 X119.502 Y78.43
G0 X118.292 Y82.717
G0 X118.84 Y88.66
G0 X120.623 Y90.453
G0 X122.632 Y90.587
G0 X140.359 Y107.851
G0 X140.896 Y107.824
G0 X141.434 Y109.294
; TYPE:WALL-OUTER
G1 F3000 E395.8274
G1 F1800 X140.701 Y109.131 E395.83976
G1 X137.165 Y108.957 E395.89803
G1 X133.876 Y109.428 E395.95271
G1 X130.981 Y110.527 E396.00368
G1 X128.603 Y112.211 E396.05164
G1 X126.859 Y114.407 E396.0978
G1 X125.829 Y117.016 E396.14396
G1 X125.559 Y119.917 E396.19192
G1 X126.056 Y122.973 E396.24288
G1 X126.635 Y124.417 E396.26849
G1 X118.893 Y120.8 E396.40913
G1 X112.41 Y116.174 E396.54022
G1 X107.571 Y110.786 E396.65942
G1 X104.589 Y104.885 E396.76824
G1 X103.582 Y98.726 E396.87096
G1 X104.589 Y92.567 E396.97368
G1 X107.571 Y86.666 E397.0825
G1 X112.41 Y81.278 E397.2017
G1 X118.893 Y76.652 E397.33278
G1 X123.14 Y74.668 E397.40994
G1 X122.121 Y76.21 E397.44036
G1 X120.171 Y80.224 E397.51381
G1 X119.164 Y83.806 E397.57505
G1 X119.191 Y86.694 E397.62259
G1 X120.313 Y88.654 E397.65976
G1 X122.439 Y89.418 E397.69694
G1 X125.287 Y88.944 E397.74446
G1 X128.64 Y87.33 E397.80571
G1 X132.206 Y84.748 E397.87818
G1 X132.915 Y87.255 E397.92106
G1 X134.414 Y88.864 E397.95725
G1 X136.558 Y89.358 E397.99347
G1 X139.104 Y88.714 E398.03669
G1 X141.852 Y87.027 E398.08976
G1 X144.602 Y84.443 E398.15187
G1 X147.148 Y81.167 E398.22016
G1 X149.287 Y77.463 E398.29056
G1 X150 Y75.711 E398.3217
G1 X150.713 Y77.463 E398.35283
G1 X152.852 Y81.167 E398.42323
G1 X155.398 Y84.443 E398.49152
G1 X158.148 Y87.027 E398.55363
G1 X160.896 Y88.714 E398.6067
G1 X163.442 Y89.358 E398.64993
G1 X165.586 Y88.864 E398.68614
G1 X167.085 Y87.255 E398.72233
G1 X167.794 Y84.748 E398.76522
G1 X171.36 Y87.33 E398.83768
G1 X174.713 Y88.944 E398.89893
G1 X177.561 Y89.418 E398.94645
G1 X179.687 Y88.654 E398.98363
G1 X180.809 Y86.694 E399.0208
G1 X180.836 Y83.806 E399.06834
G1 X179.829 Y80.224 E399.12958
G1 X177.879 Y76.21 E399.20303
G1 X176.859 Y74.666 E399.23349
G1 X181.102 Y76.649 E399.31058
G1 X187.589 Y81.278 E399.44175
G1 X192.429 Y86.666 E399.56096
G1 X195.411 Y92.567 E399.66978
G1 X196.418 Y98.726 E399.7725
G1 X195.411 Y104.885 E399.87522
G1 X192.429 Y110.786 E399.98404
G1 X187.589 Y116.174 E400.10325
G1 X181.106 Y120.8 E400.23433
G1 X173.365 Y124.417 E400.37497
G1 X173.944 Y122.973 E400.40057
G1 X174.441 Y119.917 E400.45153
G1 X174.171 Y117.016 E400.49949
G1 X173.141 Y114.407 E400.54565
G1 X171.396 Y112.211 E400.59182
G1 X169.02 Y110.527 E400.63975
G1 X166.124 Y109.428 E400.69074
G1 X162.835 Y108.957 E400.74542
G1 X159.299 Y109.131 E400.80369
G1 X158.565 Y109.294 E400.81607
G1 X155.14 Y125.28 E401.08516
G1 X152.139 Y120.476 E401.17839
G1 X147.861 Y120.476 E401.2488
G1 X144.86 Y125.28 E401.34203
G1 X141.434 Y109.294 E401.61112
G0 F6000 X141.801 Y109.221
; TYPE:FILL
G1 F1800 X161.714 Y89.308 E402.07464
G0 F6000 X161.15 Y89.165
G1 F1800 X141.41 Y108.905 E402.53412
G0 F6000 X140.831 Y108.777
G1 F1800 X160.622 Y88.986 E402.99479
G0 F6000 X160.183 Y88.717
G1 F1800 X140.171 Y108.73 E403.46062
G0 F6000 X139.497 Y108.697
G1 F1800 X159.746 Y88.448 E403.93196
G0 F6000 X159.307 Y88.179
G1 F1800 X138.823 Y108.663 E404.40876
G0 F6000 X138.149 Y108.63
G1 F1800 X158.869 Y87.91 E404.89106
G0 F6000 X158.431 Y87.641
G1 F1800 X137.475 Y108.597 E405.37885
G0 F6000 X136.724 Y108.642
G1 F1800 X157.993 Y87.372 E405.87393
G0 F6000 X157.616 Y87.042
G1 F1800 X135.899 Y108.759 E406.37944
G0 F6000 X135.074 Y108.877
G1 F1800 X157.252 Y86.699 E406.89567
G0 F6000 X156.887 Y86.357
G1 F1800 X134.249 Y108.995 E407.42261
G0 F6000 X133.288 Y109.248
G1 F1800 X156.523 Y86.014 E407.96344
G0 F6000 X156.158 Y85.672
G1 F1800 X132.149 Y109.681 E408.5223
G0 F6000 X131.009 Y110.114
G1 F1800 X155.794 Y85.329 E409.09921
G0 F6000 X155.429 Y84.987
G1 F1800 X128.817 Y111.598 E409.71865
G0 F6000 X127.808 Y112.607
G1 F1800 X119.668 Y120.747 E409.90812
G0 F6000 X119.187 Y120.522
G1 F1800 X155.073 Y84.635 E410.74344
G0 F6000 X154.763 Y84.238
G1 F1800 X118.759 Y120.242 E411.58151
G0 F6000 X118.346 Y119.948
G1 F1800 X154.454 Y83.84 E412.42199
G0 F6000 X154.145 Y83.442
G1 F1800 X117.933 Y119.654 E413.26489
G0 F6000 X117.521 Y119.359
G1 F1800 X153.836 Y83.044 E414.11019
G0 F6000 X153.527 Y82.646
G1 F1800 X117.108 Y119.065 E414.95791
G0 F6000 X116.695 Y118.77
G1 F1800 X153.218 Y82.248 E415.80804
G0 F6000 X152.908 Y81.851
G1 F1800 X116.283 Y118.476 E416.66055
G0 F6000 X115.87 Y118.182
G1 F1800 X152.599 Y81.453 E417.51549
G0 F6000 X152.329 Y81.015
G1 F1800 X115.457 Y117.887 E418.37376
G0 F6000 X115.044 Y117.593
G1 F1800 X152.071 Y80.567 E419.23562
G0 F6000 X151.812 Y80.118
G1 F1800 X114.631 Y117.299 E420.10107
G0 F6000 X114.219 Y117.004
G1 F1800 X151.553 Y79.67 E420.97009
G0 F6000 X151.294 Y79.222
G1 F1800 X113.806 Y116.71 E421.8427
G0 F6000 X113.393 Y116.415
G1 F1800 X151.035 Y78.773 E422.71889
G0 F6000 X150.777 Y78.325
G1 F1800 X146.526 Y82.575 E422.81782
G0 F6000 X147.461 Y83.51
G0 X148.672 Y82.202
G0 X148.063 Y80.332
G1 F1800 X150.518 Y77.877 E422.87497
G0 F6000 X150.283 Y77.404
G1 F1800 X149.029 Y78.659 E422.90417
G0 F6000 X149.809 Y77.171
G1 F1800 X150.069 Y76.912 E422.91021
G0 F6000 X149.882 Y76.912
G0 X149.627 Y80.091
G0 X142.934 Y88.342
G0 X141.291 Y87.81
G1 F1800 X112.981 Y116.121 E423.56919
G0 F6000 X112.586 Y115.809
G1 F1800 X139.459 Y88.936 E424.19471
G0 F6000 X138.412 Y89.275
G1 F1800 X112.251 Y115.436 E424.80366
G0 F6000 X111.917 Y115.063
G1 F1800 X137.467 Y89.514 E425.39837
G0 F6000 X136.537 Y89.736
G1 F1800 X111.582 Y114.691 E425.97924
G0 F6000 X111.248 Y114.318
G1 F1800 X135.962 Y89.604 E426.55451
G0 F6000 X135.387 Y89.472
G1 F1800 X110.913 Y113.946 E427.12419
G0 F6000 X110.578 Y113.574
G1 F1800 X134.812 Y89.34 E427.68828
G0 F6000 X134.237 Y89.207
G1 F1800 X110.244 Y113.201 E428.24677
G0 F6000 X109.909 Y112.828
G1 F1800 X133.887 Y88.85 E428.8049
G0 F6000 X133.547 Y88.484
G1 F1800 X109.575 Y112.456 E429.3629
G0 F6000 X109.24 Y112.083
G1 F1800 X133.206 Y88.118 E429.92074
G0 F6000 X132.865 Y87.751
G1 F1800 X108.906 Y111.71 E430.47843
G0 F6000 X108.572 Y111.338
G1 F1800 X132.553 Y87.356 E431.03664
G0 F6000 X132.397 Y86.805
G1 F1800 X108.237 Y110.965 E431.59901
G0 F6000 X107.902 Y110.593
G1 F1800 X132.242 Y86.253 E432.16557
G0 F6000 X132.086 Y85.702
G1 F1800 X107.659 Y110.129 E432.73416
G0 F6000 X107.422 Y109.659
G1 F1800 X130.992 Y86.089 E433.28279
G0 F6000 X131.553 Y86.65
G0 X130.532 Y88.321
G0 X128.619 Y87.754
G1 F1800 X107.184 Y109.19 E433.78174
G0 F6000 X106.947 Y108.72
G1 F1800 X127.256 Y88.41 E434.25449
G0 F6000 X125.893 Y89.067
G1 F1800 X106.71 Y108.25 E434.70101
G0 F6000 X106.472 Y107.78
G1 F1800 X124.858 Y89.395 E435.12896
G0 F6000 X124.009 Y89.536
G1 F1800 X106.235 Y107.311 E435.5427
G0 F6000 X105.997 Y106.841
G1 F1800 X123.161 Y89.678 E435.94221
G0 F6000 X122.348 Y89.783
G1 F1800 X105.759 Y106.372 E436.32835
G0 F6000 X105.522 Y105.901
G1 F1800 X121.828 Y89.596 E436.70789
G0 F6000 X121.308 Y89.409
G1 F1800 X105.285 Y105.432 E437.08086
G0 F6000 X105.047 Y104.962
G1 F1800 X120.787 Y89.222 E437.44724
G0 F6000 X120.268 Y89.035
G1 F1800 X104.89 Y104.413 E437.80519
G0 F6000 X104.791 Y103.805
G1 F1800 X119.902 Y88.693 E438.15694
G0 F6000 X119.645 Y88.244
G1 F1800 X104.691 Y103.197 E438.50501
G0 F6000 X104.592 Y102.589
G1 F1800 X119.387 Y87.794 E438.84939
G0 F6000 X119.13 Y87.344
G1 F1800 X104.492 Y101.982 E439.19012
G0 F6000 X104.393 Y101.374
G1 F1800 X118.873 Y86.894 E439.52716
G0 F6000 X118.811 Y86.249
G1 F1800 X104.294 Y100.766 E439.86507
G0 F6000 X104.194 Y100.159
G1 F1800 X118.804 Y85.549 E440.20515
G0 F6000 X118.798 Y84.848
G1 F1800 X104.095 Y99.551 E440.54739
G0 F6000 X103.995 Y98.944
G1 F1800 X118.791 Y84.148 E440.89179
G0 F6000 X118.908 Y83.324
G1 F1800 X104.049 Y98.183 E441.23767
G0 F6000 X104.187 Y97.338
G1 F1800 X119.185 Y82.339 E441.58678
G0 F6000 X119.462 Y81.356
G1 F1800 X104.325 Y96.492 E441.93911
G0 F6000 X104.464 Y95.646
G1 F1800 X119.738 Y80.372 E442.29465
G0 F6000 X120.294 Y79.109
G1 F1800 X104.602 Y94.801 E442.65991
G0 F6000 X104.74 Y93.956
G1 F1800 X120.964 Y77.732 E443.03755
G0 F6000 X120.049 Y76.525
G1 F1800 X106.03 Y90.545 E443.36388
G0 F6000 X105.308 Y91.974
G1 F1800 X121.377 Y75.905 E443.73792
G0 F6000 X121.632 Y76.357
G1 F1800 X104.879 Y93.11 E444.12787
G0 F6000 X105.814 Y93.858
G0 X107.313 Y90.849
G0 X106.753 Y89.115
G1 F1800 X118.414 Y77.454 E444.39931
G0 F6000 X119.162 Y78.202
G0 X118.92 Y79.016
G0 X117.499 Y79.709
G0 X115.947 Y79.214
G1 F1800 X107.475 Y87.686 E444.59651
G0 F6000 X108.41 Y88.621
G0 X111.01 Y85.431
G0 X110.595 Y83.858
G1 F1800 X113.48 Y80.974 E444.66365
G1 F3000 E437.66365
G0 F6000 X114.415 Y81.909
G0 X114.013 Y82.385
G0 X125.377 Y113.24
G0 X126.285 Y114.838
G1 F3000 E444.66365
G1 F1800 X120.15 Y120.972 E444.80644
G0 F6000 X120.632 Y121.198
G1 F1800 X125.823 Y116.007 E444.92727
G0 F6000 X125.443 Y117.094
G1 F1800 X121.114 Y121.422 E445.02803
G0 F6000 X121.596 Y121.648
G1 F1800 X125.371 Y117.873 E445.1159
G0 F6000 X125.299 Y118.652
G1 F1800 X122.078 Y121.873 E445.19087
G0 F6000 X122.559 Y122.098
G1 F1800 X125.226 Y119.432 E445.25294
G0 F6000 X125.216 Y120.149
G1 F1800 X123.042 Y122.323 E445.30354
G0 F6000 X123.523 Y122.549
G1 F1800 X125.314 Y120.758 E445.34523
G0 F6000 X125.413 Y121.366
G1 F1800 X124.006 Y122.774 E445.37799
G0 F6000 X124.487 Y122.999
G1 F1800 X125.512 Y121.974 E445.40185
G0 F6000 X125.611 Y122.582
G1 F1800 X124.969 Y123.224 E445.4168
G0 F6000 X125.451 Y123.45
G1 F1800 X125.73 Y123.17 E445.4233
G1 F3000 E438.4233
G0 F6000 X125.356 Y122.983
G0 X124.689 Y119.908
G0 X125.621 Y114.259
G0 X128.429 Y110.724
G0 X132.817 Y108.55
G0 X141.79 Y108.258
G0 X142.552 Y109.12
G0 X144.649 Y117.633
G0 X143.922 Y119.121
G1 F3000 E445.4233
G1 F1800 X174.018 Y89.025 E446.12384
G0 F6000 X174.495 Y89.255
G1 F1800 X144.047 Y119.703 E446.83258
G0 F6000 X144.172 Y120.285
G1 F1800 X175.073 Y89.384 E447.55186
G0 F6000 X175.679 Y89.485
G1 F1800 X144.297 Y120.867 E448.28233
G0 F6000 X144.421 Y121.45
G1 F1800 X176.285 Y89.586 E449.02403
G0 F6000 X176.891 Y89.687
G1 F1800 X144.546 Y122.032 E449.77692
G0 F6000 X144.671 Y122.615
G1 F1800 X158.23 Y109.055 E450.09254
G0 F6000 X158.323 Y108.963
G1 F1800 X177.497 Y89.788 E450.53886
G0 F6000 X178.524 Y89.468
G1 F1800 X159.231 Y108.762 E450.98795
G0 F6000 X159.977 Y108.722
G1 F1800 X179.628 Y89.072 E451.44536
G0 F6000 X180.214 Y88.485
G1 F1800 X187.223 Y81.477 E451.60849
G0 F6000 X187.579 Y81.828
G1 F1800 X160.721 Y108.685 E452.23365
G0 F6000 X161.465 Y108.649
G1 F1800 X187.914 Y82.2 E452.8493
G0 F6000 X188.248 Y82.573
G1 F1800 X162.208 Y108.613 E453.45543
G0 F6000 X162.935 Y108.593
G1 F1800 X188.583 Y82.945 E454.05244
G0 F6000 X188.917 Y83.318
G1 F1800 X163.554 Y108.681 E454.64281
G0 F6000 X164.173 Y108.769
G1 F1800 X189.252 Y83.691 E455.22656
G0 F6000 X189.586 Y84.063
G1 F1800 X164.791 Y108.858 E455.80371
G0 F6000 X165.41 Y108.946
G1 F1800 X189.921 Y84.436 E456.37423
G0 F6000 X190.255 Y84.808
G1 F1800 X166.029 Y109.035 E456.93815
G0 F6000 X166.574 Y109.197
G1 F1800 X190.59 Y85.18 E457.49718
G0 F6000 X190.925 Y85.553
G1 F1800 X167.086 Y109.392 E458.05208
G0 F6000 X167.599 Y109.586
G1 F1800 X191.259 Y85.926 E458.60281
G0 F6000 X191.594 Y86.298
G1 F1800 X168.111 Y109.781 E459.14942
G0 F6000 X168.624 Y109.975
G1 F1800 X191.928 Y86.671 E459.69186
G0 F6000 X192.22 Y87.086
G1 F1800 X169.136 Y110.17 E460.22919
G0 F6000 X169.562 Y110.452
G1 F1800 X192.457 Y87.556 E460.76212
G0 F6000 X192.695 Y88.026
G1 F1800 X169.975 Y110.745 E461.29096
G0 F6000 X170.39 Y111.038
G1 F1800 X192.932 Y88.495 E461.81568
G0 F6000 X193.169 Y88.966
G1 F1800 X170.803 Y111.331 E462.33628
G0 F6000 X171.217 Y111.625
G1 F1800 X193.407 Y89.435 E462.85279
G0 F6000 X193.644 Y89.905
G1 F1800 X171.631 Y111.918 E463.36519
G0 F6000 X171.949 Y112.306
G1 F1800 X193.881 Y90.375 E463.87568
G0 F6000 X194.119 Y90.844
G1 F1800 X172.263 Y112.7 E464.38442
G0 F6000 X172.575 Y113.095
G1 F1800 X194.356 Y91.314 E464.89142
G0 F6000 X194.593 Y91.784
G1 F1800 X172.889 Y113.489 E465.39663
G0 F6000 X173.202 Y113.883
G1 F1800 X194.831 Y92.254 E465.90009
G0 F6000 X195.057 Y92.734
G1 F1800 X173.498 Y114.293 E466.40191
G0 F6000 X173.698 Y114.8
G1 F1800 X195.157 Y93.342 E466.9014
G0 F6000 X195.256 Y93.949
G1 F1800 X173.898 Y115.307 E467.39855
G0 F6000 X174.099 Y115.814
G1 F1800 X195.355 Y94.557 E467.89333
G0 F6000 X195.455 Y95.165
G1 F1800 X174.299 Y116.321 E468.38578
G0 F6000 X174.499 Y116.828
G1 F1800 X195.554 Y95.773 E468.87587
G0 F6000 X195.654 Y96.38
G1 F1800 X174.587 Y117.447 E469.36625
G0 F6000 X174.647 Y118.094
G1 F1800 X195.754 Y96.988 E469.85754
G0 F6000 X195.853 Y97.596
G1 F1800 X174.708 Y118.74 E470.34972
G0 F6000 X174.768 Y119.387
G1 F1800 X195.952 Y98.203 E470.84281
G0 F6000 X196.019 Y98.844
G1 F1800 X174.796 Y120.067 E471.33682
G0 F6000 X174.658 Y120.911
G1 F1800 X195.88 Y99.69 E471.83079
G0 F6000 X195.742 Y100.535
G1 F1800 X174.521 Y121.756 E472.32475
G0 F6000 X174.383 Y122.601
G1 F1800 X195.604 Y101.38 E472.81871
G0 F6000 X195.465 Y102.226
G1 F1800 X174.193 Y123.498 E473.31385
G0 F6000 X175.301 Y123.097
G1 F1800 X195.327 Y103.071 E473.78
G0 F6000 X195.189 Y103.917
G1 F1800 X176.628 Y122.477 E474.21203
G0 F6000 X177.956 Y121.856
G1 F1800 X195.051 Y104.762 E474.60993
G0 F6000 X194.331 Y106.189
G1 F1800 X179.284 Y121.236 E474.96018
G0 F6000 X180.612 Y120.615
G1 F1800 X193.608 Y107.618 E475.2627
G0 F6000 X192.886 Y109.047
G1 F1800 X182.816 Y119.117 E475.4971
G0 F6000 X181.694 Y117.995
G0 X183.544 Y116.675
G0 X185.283 Y117.357
G1 F1800 X192.164 Y110.477 E475.65725
G1 F3000 E468.65725
G0 F6000 X191.042 Y109.355
G0 X190.87 Y107.696
G0 X181.161 Y86.832
G1 F3000 E475.65725
G1 F1800 X186.81 Y81.182 E475.78875
G0 F6000 X186.398 Y80.888
G1 F1800 X181.188 Y86.098 E475.91003
G0 F6000 X181.195 Y85.383
G1 F1800 X185.985 Y80.593 E476.02152
G0 F6000 X185.572 Y80.299
G1 F1800 X181.202 Y84.669 E476.12324
G0 F6000 X181.208 Y83.956
G1 F1800 X185.16 Y80.004 E476.21523
G0 F6000 X184.747 Y79.71
G1 F1800 X181.099 Y83.358 E476.30015
G0 F6000 X180.944 Y82.806
G1 F1800 X184.334 Y79.416 E476.37906
G0 F6000 X183.922 Y79.121
G1 F1800 X180.788 Y82.254 E476.45199
G0 F6000 X180.633 Y81.702
G1 F1800 X183.509 Y78.827 E476.51893
G0 F6000 X183.096 Y78.532
G1 F1800 X180.478 Y81.151 E476.57988
G0 F6000 X180.323 Y80.598
G1 F1800 X182.683 Y78.238 E476.63481
G0 F6000 X182.27 Y77.944
G1 F1800 X180.162 Y80.052 E476.68388
G0 F6000 X179.931 Y79.577
G1 F1800 X181.858 Y77.649 E476.72875
G0 F6000 X181.445 Y77.355
G1 F1800 X179.699 Y79.101 E476.76939
G0 F6000 X179.468 Y78.625
G1 F1800 X181.032 Y77.061 E476.80579
G0 F6000 X180.571 Y76.815
G1 F1800 X179.237 Y78.149 E476.83684
G0 F6000 X179.006 Y77.673
G1 F1800 X180.089 Y76.59 E476.86205
G0 F6000 X179.607 Y76.365
G1 F1800 X178.774 Y77.197 E476.88143
G0 F6000 X178.543 Y76.721
G1 F1800 X179.124 Y76.14 E476.89495
G0 F6000 X178.643 Y75.914
G1 F1800 X178.312 Y76.245 E476.90266
G1 F3000 E469.90266
G0 F6000 X178.499 Y76.058
G0 X180.459 Y78.377
G0 X181.708 Y83.839
G0 X181.16 Y88.66
G0 X179.649 Y89.927
G0 X175.327 Y90.008
G0 X172.29 Y89.596
G0 X172.586 Y88.336
G1 F3000 E476.90266
G1 F1800 X143.548 Y117.374 E477.57857
G0 F6000 X143.672 Y117.956
G1 F1800 X173.063 Y88.565 E478.2627
G0 F6000 X173.54 Y88.795
G1 F1800 X143.797 Y118.538 E478.95503
G0 F6000 X143.423 Y116.791
G1 F1800 X172.109 Y88.106 E479.62274
G0 F6000 X171.631 Y87.876
G1 F1800 X143.298 Y116.209 E480.28224
G0 F6000 X143.174 Y115.626
G1 F1800 X171.155 Y87.645 E480.93355
G0 F6000 X170.745 Y87.348
G1 F1800 X143.049 Y115.044 E481.57823
G0 F6000 X142.924 Y114.462
G1 F1800 X170.334 Y87.051 E482.21626
G0 F6000 X169.924 Y86.754
G1 F1800 X142.799 Y113.88 E482.84765
G0 F6000 X142.675 Y113.297
G1 F1800 X169.514 Y86.457 E483.47239
G0 F6000 X169.104 Y86.16
G1 F1800 X142.549 Y112.715 E484.09051
G0 F6000 X142.425 Y112.132
G1 F1800 X165.227 Y89.33 E484.62127
G0 F6000 X164.308 Y89.542
G1 F1800 X142.3 Y111.55 E485.13355
G0 F6000 X142.175 Y110.968
G1 F1800 X163.408 Y89.736 E485.62777
G0 F6000 X162.843 Y89.593
G1 F1800 X142.051 Y110.385 E486.11175
G0 F6000 X141.926 Y109.803
G1 F1800 X162.279 Y89.45 E486.5855
G0 F6000 X161.344 Y90.385
G0 X166.577 Y89.76
G0 X167.967 Y88.68
G0 X167.54 Y87.017
G1 F1800 X168.694 Y85.863 E486.61236
G0 F6000 X168.284 Y85.566
G1 F1800 X167.819 Y86.032 E486.6232
G1 F3000 E479.6232
G0 F6000 X168.193 Y86.593
G0 X168.179 Y88.374
G0 X165.806 Y90.957
G0 X158.614 Y107.799
G0 X157.204 Y108.129
G0 X158.038 Y109.955
G1 F3000 E486.6232
G1 F1800 X147.892 Y120.1 E486.85935
G0 F6000 X148.599 Y120.1
G1 F1800 X157.845 Y110.855 E487.07456
G0 F6000 X157.652 Y111.754
G1 F1800 X149.307 Y120.1 E487.26882
G0 F6000 X150.014 Y120.1
G1 F1800 X157.459 Y112.654 E487.44213
G0 F6000 X157.267 Y113.554
G1 F1800 X150.721 Y120.1 E487.5945
G0 F6000 X151.428 Y120.1
G1 F1800 X157.074 Y114.454 E487.72592
G0 F6000 X156.882 Y115.353
G1 F1800 X152.135 Y120.1 E487.83641
G0 F6000 X152.537 Y120.406
G1 F1800 X156.689 Y116.254 E487.93306
G0 F6000 X156.496 Y117.153
G1 F1800 X152.808 Y120.841 E488.0189
G0 F6000 X153.08 Y121.276
G1 F1800 X156.303 Y118.053 E488.09392
G0 F6000 X156.111 Y118.953
G1 F1800 X153.352 Y121.712 E488.15815
G0 F6000 X153.624 Y122.147
G1 F1800 X155.918 Y119.853 E488.21154
G0 F6000 X155.726 Y120.752
G1 F1800 X153.896 Y122.582 E488.25414
G0 F6000 X154.168 Y123.017
G1 F1800 X155.533 Y121.652 E488.28591
G0 F6000 X155.34 Y122.552
G1 F1800 X154.439 Y123.453 E488.30688
G0 F6000 X154.712 Y123.887
G1 F1800 X155.147 Y123.452 E488.31701
G0 F6000 X154.773 Y123.265
G0 X154.381 Y120.695
G0 X153.122 Y119.604
G0 X148 Y119.604
G0 X147.252 Y120.741
G1 F1800 X144.796 Y123.197 E488.37418
G0 F6000 X144.92 Y123.779
G1 F1800 X146.075 Y122.625 E488.40105
; Layer Change GCode
; LAYER:4
G0 F6000 X145.327 Y121.877 Z1.26
G0 X142.814 Y108.913
G0 X141.434 Y109.294
; TYPE:WALL-OUTER
G1 F1800 X140.701 Y109.131 E488.41341
G1 X137.165 Y108.957 E488.47168
G1 X133.876 Y109.428 E488.52637
G1 X130.981 Y110.527 E488.57733
G1 X128.603 Y112.211 E488.6253
G1 X126.859 Y114.407 E488.67145
G1 X125.829 Y117.016 E488.71762
G1 X125.559 Y119.917 E488.76557
G1 X126.056 Y122.973 E488.81653
G1 X126.635 Y124.417 E488.84214
G1 X118.893 Y120.8 E488.98279
G1 X112.41 Y116.174 E489.11387
G1 X107.571 Y110.786 E489.23307
G1 X104.589 Y104.885 E489.34189
G1 X103.582 Y98.726 E489.44461
G1 X104.589 Y92.567 E489.54733
G1 X107.571 Y86.666 E489.65615
G1 X112.41 Y81.278 E489.77535
G1 X118.893 Y76.652 E489.90644
G1 X123.14 Y74.668 E489.98359
G1 X122.121 Y76.21 E490.01401
G1 X120.171 Y80.224 E490.08746
G1 X119.164 Y83.806 E490.14871
G1 X119.191 Y86.694 E490.19624
G1 X120.313 Y88.654 E490.23341
G1 X122.439 Y89.418 E490.2706
G1 X125.287 Y88.944 E490.31812
G1 X128.64 Y87.33 E490.37937
G1 X132.206 Y84.748 E490.45183
G1 X132.915 Y87.255 E490.49471
G1 X134.414 Y88.864 E490.53091
G1 X136.558 Y89.358 E490.56712
G1 X139.104 Y88.714 E490.61035
G1 X141.852 Y87.027 E490.66342
G1 X144.602 Y84.443 E490.72553
G1 X147.148 Y81.167 E490.79382
G1 X149.287 Y77.463 E490.86422
G1 X150 Y75.711 E490.89535
G1 X150.713 Y77.463 E490.92648
G1 X152.852 Y81.167 E490.99688
G1 X155.398 Y84.443 E491.06517
G1 X158.148 Y87.027 E491.12728
G1 X160.896 Y88.714 E491.18036
G1 X163.442 Y89.358 E491.22358
G1 X165.586 Y88.864 E491.25979
G1 X167.085 Y87.255 E491.29599
G1 X167.794 Y84.748 E491.33887
G1 X171.36 Y87.33 E491.41133
G1 X174.713 Y88.944 E491.47258
G1 X177.561 Y89.418 E491.5201
G1 X179.687 Y88.654 E491.55729
G1 X180.809 Y86.694 E491.59446
G1 X180.836 Y83.806 E491.642
G1 X179.829 Y80.224 E491.70324
G1 X177.879 Y76.21 E491.77669
G1 X176.859 Y74.666 E491.80715
G1 X181.102 Y76.649 E491.88423
G1 X187.589 Y81.278 E492.0154
G1 X192.429 Y86.666 E492.13461
G1 X195.411 Y92.567 E492.24343
G1 X196.418 Y98.726 E492.34615
G1 X195.411 Y104.885 E492.44887
G1 X192.429 Y110.786 E492.55769
G1 X187.589 Y116.174 E492.6769
G1 X181.106 Y120.8 E492.80799
G1 X173.365 Y124.417 E492.94862
G1 X173.944 Y122.973 E492.97423
G1 X174.441 Y119.917 E493.02519
G1 X174.171 Y117.016 E493.07314
G1 X173.141 Y114.407 E493.11931
G1 X171.396 Y112.211 E493.16548
G1 X169.02 Y110.527 E493.21341
G1 X166.124 Y109.428 E493.26439
G1 X162.835 Y108.957 E493.31908
G1 X159.299 Y109.131 E493.37735
G1 X158.565 Y109.294 E493.38972
G1 X155.14 Y125.28 E493.65881
G1 X152.139 Y120.476 E493.75204
G1 X147.861 Y120.476 E493.82246
G1 X144.86 Y125.28 E493.91569
G1 X141.434 Y109.294 E494.18478
G0 F6000 X141.815 Y109.289
; TYPE:FILL
G1 F1800 X155.294 Y122.767 E494.49852
G0 F6000 X155.169 Y123.349
G1 F1800 X153.054 Y121.234 E494.54775
G0 F6000 X151.92 Y120.1
G1 F1800 X142.008 Y110.189 E494.77845
G0 F6000 X142.202 Y111.089
G1 F1800 X151.213 Y120.1 E494.9882
G0 F6000 X150.506 Y120.1
G1 F1800 X142.394 Y111.988 E495.17702
G0 F6000 X142.587 Y112.888
G1 F1800 X149.799 Y120.1 E495.3449
G0 F6000 X149.092 Y120.1
G1 F1800 X142.78 Y113.789 E495.49181
G0 F6000 X142.972 Y114.688
G1 F1800 X148.384 Y120.1 E495.61778
G0 F6000 X147.677 Y120.1
G1 F1800 X143.165 Y115.588 E495.72281
G0 F6000 X143.358 Y116.488
G1 F1800 X147.39 Y120.519 E495.81665
G0 F6000 X147.118 Y120.955
G1 F1800 X143.551 Y117.388 E495.89968
G0 F6000 X143.744 Y118.288
G1 F1800 X146.846 Y121.39 E495.97188
G0 F6000 X146.574 Y121.826
G1 F1800 X143.937 Y119.188 E496.03328
G0 F6000 X144.129 Y120.087
G1 F1800 X146.302 Y122.26 E496.08386
G0 F6000 X146.03 Y122.696
G1 F1800 X144.322 Y120.988 E496.12361
G0 F6000 X144.515 Y121.888
G1 F1800 X145.758 Y123.131 E496.15255
G0 F6000 X145.487 Y123.566
G1 F1800 X144.708 Y122.788 E496.17067
G0 F6000 X144.901 Y123.687
G1 F1800 X145.215 Y124.002 E496.17799
G0 F6000 X145.028 Y123.815
G0 X145.764 Y120.915
G0 X148 Y119.604
G0 X153.122 Y119.604
G0 X154.421 Y121.772
G0 X154.231 Y123.118
G1 F1800 X155.045 Y123.932 E496.19694
G0 F6000 X155.419 Y122.185
G1 F1800 X122.947 Y89.713 E496.95278
G0 F6000 X123.553 Y89.612
G1 F1800 X155.543 Y121.602 E497.69741
G0 F6000 X155.668 Y121.02
G1 F1800 X124.159 Y89.511 E498.43084
G0 F6000 X124.765 Y89.41
G1 F1800 X155.793 Y120.437 E499.15306
G0 F6000 X155.917 Y119.855
G1 F1800 X125.372 Y89.309 E499.86407
G0 F6000 X125.855 Y89.085
G1 F1800 X156.042 Y119.273 E500.56674
G0 F6000 X156.167 Y118.69
G1 F1800 X126.332 Y88.855 E501.2612
G0 F6000 X126.809 Y88.625
G1 F1800 X156.291 Y118.108 E501.94746
G0 F6000 X156.416 Y117.526
G1 F1800 X127.286 Y88.396 E502.62552
G0 F6000 X127.764 Y88.166
G1 F1800 X156.541 Y116.943 E503.29536
G0 F6000 X156.666 Y116.361
G1 F1800 X128.241 Y87.936 E503.957
G0 F6000 X128.718 Y87.706
G1 F1800 X156.791 Y115.778 E504.61044
G0 F6000 X156.915 Y115.196
G1 F1800 X129.145 Y87.426 E505.25684
G0 F6000 X129.556 Y87.129
G1 F1800 X157.04 Y114.614 E505.8966
G0 F6000 X157.165 Y114.031
G1 F1800 X129.966 Y86.832 E506.5297
G0 F6000 X130.376 Y86.535
G1 F1800 X157.289 Y113.448 E507.15615
G0 F6000 X157.414 Y112.866
G1 F1800 X130.786 Y86.238 E507.77597
G0 F6000 X131.196 Y85.941
G1 F1800 X132.53 Y87.276 E507.80703
G0 F6000 X132.252 Y86.29
G1 F1800 X131.606 Y85.644 E507.82207
G0 F6000 X131.793 Y85.831
G0 X131.458 Y87.976
G0 X132.919 Y89.791
G0 X134.529 Y89.275
G1 F1800 X157.539 Y112.284 E508.35766
G0 F6000 X157.664 Y111.702
G1 F1800 X135.448 Y89.486 E508.87478
G0 F6000 X136.366 Y89.697
G1 F1800 X157.788 Y111.119 E509.37342
G0 F6000 X157.913 Y110.537
G1 F1800 X137.006 Y89.63 E509.86007
G0 F6000 X137.571 Y89.487
G1 F1800 X158.038 Y109.955 E510.33649
G0 F6000 X158.162 Y109.372
G1 F1800 X138.136 Y89.345 E510.80264
G0 F6000 X138.7 Y89.202
G1 F1800 X158.435 Y108.938 E511.26202
G0 F6000 X159.014 Y108.81
G1 F1800 X139.261 Y89.057 E511.72181
G0 F6000 X139.7 Y88.788
G1 F1800 X159.65 Y108.738 E512.18618
G0 F6000 X160.324 Y108.705
G1 F1800 X140.137 Y88.519 E512.65606
G0 F6000 X140.576 Y88.25
G1 F1800 X160.998 Y108.672 E513.13142
G0 F6000 X161.672 Y108.639
G1 F1800 X141.014 Y87.981 E513.61228
G0 F6000 X141.452 Y87.712
G1 F1800 X162.346 Y108.605 E514.09861
G0 F6000 X163.058 Y108.61
G1 F1800 X141.89 Y87.442 E514.59134
G0 F6000 X142.286 Y87.132
G1 F1800 X163.883 Y108.728 E515.09404
G0 F6000 X164.708 Y108.847
G1 F1800 X142.651 Y86.789 E515.60746
G0 F6000 X143.015 Y86.447
G1 F1800 X165.532 Y108.964 E516.13159
G0 F6000 X166.411 Y109.135
G1 F1800 X143.38 Y86.104 E516.66768
G0 F6000 X143.744 Y85.762
G1 F1800 X167.551 Y109.568 E517.22182
G0 F6000 X168.69 Y110.001
G1 F1800 X144.109 Y85.419 E517.794
G0 F6000 X144.473 Y85.076
G1 F1800 X170.547 Y111.15 E518.40092
G0 F6000 X171.669 Y110.028
G0 X173.433 Y111.792
G0 X172.9 Y113.503
G1 F1800 X180.203 Y120.806 E518.57091
G0 F6000 X179.721 Y121.031
G1 F1800 X173.834 Y115.144 E518.70794
G0 F6000 X174.296 Y116.313
G1 F1800 X179.239 Y121.256 E518.823
G0 F6000 X178.758 Y121.482
G1 F1800 X174.574 Y117.298 E518.92039
G0 F6000 X174.646 Y118.077
G1 F1800 X178.275 Y121.707 E519.00488
G0 F6000 X177.794 Y121.932
G1 F1800 X174.719 Y118.857 E519.07645
G0 F6000 X174.791 Y119.636
G1 F1800 X177.311 Y122.157 E519.13512
G0 F6000 X176.83 Y122.383
G1 F1800 X174.757 Y120.309 E519.18339
G0 F6000 X174.658 Y120.918
G1 F1800 X176.348 Y122.608 E519.22272
G0 F6000 X175.866 Y122.833
G1 F1800 X174.559 Y121.526 E519.25315
G0 F6000 X174.459 Y122.133
G1 F1800 X175.384 Y123.058 E519.27468
G0 F6000 X174.902 Y123.284
G1 F1800 X174.36 Y122.741 E519.28731
G0 F6000 X174.214 Y123.303
G1 F1800 X174.42 Y123.508 E519.29209
G0 F6000 X174.233 Y123.321
G0 X176.082 Y121.086
G0 X178.866 Y119.785
G0 X180.685 Y120.581
G1 F1800 X144.838 Y84.734 E520.1265
G0 F6000 X145.153 Y84.342
G1 F1800 X181.131 Y120.319 E520.96394
G0 F6000 X181.544 Y120.025
G1 F1800 X145.463 Y83.944 E521.80379
G0 F6000 X145.772 Y83.546
G1 F1800 X181.956 Y119.731 E522.64605
G0 F6000 X182.369 Y119.436
G1 F1800 X146.081 Y83.148 E523.49073
G0 F6000 X146.39 Y82.751
G1 F1800 X182.782 Y119.142 E524.33781
G0 F6000 X183.195 Y118.848
G1 F1800 X146.699 Y82.353 E525.18731
G0 F6000 X147.008 Y81.955
G1 F1800 X183.607 Y118.553 E526.03921
G0 F6000 X184.02 Y118.259
G1 F1800 X147.318 Y81.557 E526.89351
G0 F6000 X147.6 Y81.132
G1 F1800 X184.433 Y117.965 E527.75087
G0 F6000 X184.845 Y117.67
G1 F1800 X147.859 Y80.684 E528.61179
G0 F6000 X148.118 Y80.236
G1 F1800 X185.258 Y117.376 E529.47629
G0 F6000 X185.671 Y117.082
G1 F1800 X148.377 Y79.787 E530.34439
G0 F6000 X148.635 Y79.339
G1 F1800 X186.083 Y116.787 E531.21607
G0 F6000 X186.496 Y116.493
G1 F1800 X148.894 Y78.891 E532.09132
G0 F6000 X149.153 Y78.442
G1 F1800 X154.118 Y83.407 E532.20689
G0 F6000 X152.996 Y84.529
G0 X151.549 Y82.552
G0 X152.188 Y80.77
G1 F1800 X149.413 Y77.995 E532.27149
G0 F6000 X149.661 Y77.536
G1 F1800 X151.222 Y79.097 E532.30782
G0 F6000 X150.316 Y77.484
G1 F1800 X149.865 Y77.033 E532.31832
G0 F6000 X150.172 Y79.965
G0 X156.574 Y87.988
G0 X158.225 Y87.515
G1 F1800 X186.909 Y116.198 E532.98598
G0 F6000 X187.321 Y115.903
G1 F1800 X160.058 Y88.64 E533.62058
G0 F6000 X161.338 Y89.213
G1 F1800 X187.659 Y115.534 E534.23325
G0 F6000 X187.993 Y115.161
G1 F1800 X162.283 Y89.451 E534.8317
G0 F6000 X163.229 Y89.69
G1 F1800 X188.327 Y114.788 E535.4159
G0 F6000 X188.663 Y114.416
G1 F1800 X163.886 Y89.639 E535.99263
G0 F6000 X164.461 Y89.507
G1 F1800 X188.997 Y114.044 E536.56376
G0 F6000 X189.332 Y113.671
G1 F1800 X165.035 Y89.374 E537.12932
G0 F6000 X165.61 Y89.242
G1 F1800 X189.666 Y113.299 E537.68928
G0 F6000 X190.001 Y112.926
G1 F1800 X166.02 Y88.946 E538.24747
G0 F6000 X166.362 Y88.58
G1 F1800 X190.336 Y112.554 E538.80551
G0 F6000 X190.67 Y112.181
G1 F1800 X166.703 Y88.214 E539.36339
G0 F6000 X167.044 Y87.848
G1 F1800 X191.005 Y111.809 E539.92113
G0 F6000 X191.339 Y111.436
G1 F1800 X167.384 Y87.481 E540.47873
G0 F6000 X167.559 Y86.949
G1 F1800 X191.674 Y111.063 E541.04004
G0 F6000 X192.009 Y110.691
G1 F1800 X167.715 Y86.398 E541.60551
G0 F6000 X167.871 Y85.847
G1 F1800 X192.277 Y110.253 E542.17361
G0 F6000 X192.514 Y109.783
G1 F1800 X168.335 Y85.603 E542.73643
G0 F6000 X168.148 Y86.164
G0 X169.133 Y88.115
G0 X170.896 Y87.457
G1 F1800 X192.752 Y109.313 E543.24517
G0 F6000 X192.989 Y108.844
G1 F1800 X172.384 Y88.239 E543.72479
G0 F6000 X173.748 Y88.896
G1 F1800 X193.226 Y108.374 E544.17818
G0 F6000 X193.464 Y107.904
G1 F1800 X174.918 Y89.358 E544.60987
G0 F6000 X175.766 Y89.499
G1 F1800 X193.702 Y107.434 E545.02735
G0 F6000 X193.938 Y106.964
G1 F1800 X176.615 Y89.641 E545.43058
G0 F6000 X177.464 Y89.782
G1 F1800 X194.176 Y106.495 E545.81959
G0 F6000 X194.414 Y106.025
G1 F1800 X178.033 Y89.645 E546.20088
G0 F6000 X178.553 Y89.458
G1 F1800 X194.65 Y105.555 E546.57557
G0 F6000 X194.888 Y105.085
G1 F1800 X179.074 Y89.271 E546.94367
G0 F6000 X179.594 Y89.084
G1 F1800 X195.082 Y104.572 E547.30418
G0 F6000 X195.181 Y103.964
G1 F1800 X180.027 Y88.811 E547.65691
G0 F6000 X180.285 Y88.361
G1 F1800 X195.28 Y103.357 E548.00596
G0 F6000 X195.379 Y102.748
G1 F1800 X180.542 Y87.911 E548.35131
G0 F6000 X180.8 Y87.462
G1 F1800 X195.479 Y102.141 E548.693
G0 F6000 X195.579 Y101.534
G1 F1800 X181.058 Y87.013 E549.031
G0 F6000 X181.185 Y86.433
G1 F1800 X195.678 Y100.926 E549.36835
G0 F6000 X195.778 Y100.318
G1 F1800 X181.191 Y85.732 E549.70788
G0 F6000 X181.198 Y85.032
G1 F1800 X195.877 Y99.71 E550.04955
G0 F6000 X195.976 Y99.103
G1 F1800 X181.205 Y84.331 E550.39338
G0 F6000 X181.162 Y83.581
G1 F1800 X195.985 Y98.405 E550.73843
G0 F6000 X195.847 Y97.559
G1 F1800 X180.885 Y82.597 E551.0867
G0 F6000 X180.609 Y81.614
G1 F1800 X195.708 Y96.713 E551.43815
G0 F6000 X195.57 Y95.868
G1 F1800 X180.332 Y80.629 E551.79286
G0 F6000 X179.878 Y79.469
G1 F1800 X195.432 Y95.023 E552.15491
G0 F6000 X195.293 Y94.177
G1 F1800 X179.211 Y78.094 E552.52926
G0 F6000 X178.543 Y76.719
G1 F1800 X195.155 Y93.332 E552.91594
G0 F6000 X194.879 Y92.348
G1 F1800 X178.272 Y75.741 E553.3025
G0 F6000 X179.599 Y76.361
G1 F1800 X194.157 Y90.919 E553.64137
G0 F6000 X193.434 Y89.49
G1 F1800 X180.938 Y76.993 E553.93225
G0 F6000 X180.19 Y77.741
G0 X181.852 Y79.247
G0 X183.404 Y78.752
G1 F1800 X192.712 Y88.06 E554.14891
G0 F6000 X191.59 Y89.182
G0 X190.658 Y87.405
G0 X191.033 Y85.674
G1 F1800 X185.871 Y80.512 E554.26906
G1 F3000 E547.26906
G0 F6000 X184.749 Y81.634
G0 X181.846 Y86.007
G0 X181.127 Y88.961
G0 X179.302 Y90.289
G0 X174.84 Y90.962
G0 X141.439 Y108.912
G1 F3000 E554.26906
G1 F1800 X122.289 Y89.762 E554.71482
G0 F6000 X121.184 Y89.364
G1 F1800 X140.569 Y108.749 E555.16604
G0 F6000 X139.826 Y108.713
G1 F1800 X120.08 Y88.968 E555.62565
G0 F6000 X120.032 Y88.919
G1 F1800 X112.666 Y81.554 E555.7971
G0 F6000 X112.331 Y81.926
G1 F1800 X139.082 Y108.676 E556.41977
G0 F6000 X138.338 Y108.639
G1 F1800 X111.996 Y82.298 E557.03291
G0 F6000 X111.662 Y82.67
G1 F1800 X137.594 Y108.603 E557.63654
G0 F6000 X136.9 Y108.616
G1 F1800 X111.327 Y83.043 E558.2318
G0 F6000 X110.993 Y83.415
G1 F1800 X136.282 Y108.704 E558.82045
G0 F6000 X135.663 Y108.793
G1 F1800 X110.658 Y83.788 E559.40249
G0 F6000 X110.324 Y84.161
G1 F1800 X135.044 Y108.881 E559.97789
G0 F6000 X134.425 Y108.97
G1 F1800 X109.989 Y84.533 E560.5467
G0 F6000 X109.655 Y84.906
G1 F1800 X133.807 Y109.058 E561.10888
G0 F6000 X133.289 Y109.247
G1 F1800 X109.32 Y85.278 E561.6668
G0 F6000 X108.985 Y85.651
G1 F1800 X132.777 Y109.443 E562.22061
G0 F6000 X132.265 Y109.637
G1 F1800 X108.651 Y86.023 E562.77027
G0 F6000 X108.316 Y86.396
G1 F1800 X131.752 Y109.832 E563.31579
G0 F6000 X131.239 Y110.026
G1 F1800 X107.982 Y86.769 E563.85714
G0 F6000 X107.715 Y87.209
G1 F1800 X130.741 Y110.235 E564.39311
G0 F6000 X130.327 Y110.528
G1 F1800 X107.478 Y87.679 E564.92496
G0 F6000 X107.241 Y88.149
G1 F1800 X129.913 Y110.822 E565.45271
G0 F6000 X129.5 Y111.115
G1 F1800 X107.003 Y88.618 E565.97637
G0 F6000 X106.766 Y89.089
G1 F1800 X129.085 Y111.408 E566.49588
G0 F6000 X128.672 Y111.701
G1 F1800 X106.529 Y89.558 E567.0113
G0 F6000 X106.291 Y90.028
G1 F1800 X128.279 Y112.015 E567.5231
G0 F6000 X127.965 Y112.409
G1 F1800 X106.054 Y90.498 E568.03312
G0 F6000 X105.817 Y90.967
G1 F1800 X127.653 Y112.804 E568.54141
G0 F6000 X127.34 Y113.197
G1 F1800 X105.579 Y91.437 E569.04793
G0 F6000 X105.342 Y91.907
G1 F1800 X127.027 Y113.592 E569.55268
G0 F6000 X126.714 Y113.986
G1 F1800 X105.105 Y92.377 E570.05567
G0 F6000 X104.914 Y92.894
G1 F1800 X126.447 Y114.426 E570.55688
G0 F6000 X126.247 Y114.933
G1 F1800 X104.815 Y93.501 E571.05575
G0 F6000 X104.716 Y94.109
G1 F1800 X126.046 Y115.44 E571.55226
G0 F6000 X125.846 Y115.947
G1 F1800 X104.616 Y94.716 E572.04644
G0 F6000 X104.516 Y95.324
G1 F1800 X125.646 Y116.454 E572.53828
G0 F6000 X125.455 Y116.97
G1 F1800 X104.417 Y95.932 E573.02798
G0 F6000 X104.318 Y96.539
G1 F1800 X125.395 Y117.617 E573.5186
G0 F6000 X125.335 Y118.264
G1 F1800 X104.218 Y97.147 E574.01014
G0 F6000 X104.119 Y97.755
G1 F1800 X125.275 Y118.911 E574.50258
G0 F6000 X125.215 Y119.558
G1 F1800 X104.019 Y98.362 E574.99596
G0 F6000 X104.016 Y99.066
G1 F1800 X125.239 Y120.289 E575.48996
G0 F6000 X125.376 Y121.133
G1 F1800 X104.154 Y99.911 E575.98395
G0 F6000 X104.292 Y100.757
G1 F1800 X125.513 Y121.978 E576.4779
G0 F6000 X125.65 Y122.822
G1 F1800 X104.43 Y101.602 E576.97184
G0 F6000 X104.569 Y102.447
G1 F1800 X125.676 Y123.555 E577.46316
G0 F6000 X124.349 Y122.935
G1 F1800 X104.706 Y103.292 E577.92038
G0 F6000 X104.845 Y104.138
G1 F1800 X123.021 Y122.314 E578.34346
G0 F6000 X121.693 Y121.693
G1 F1800 X105.134 Y105.134 E578.72891
G0 F6000 X105.857 Y106.564
G1 F1800 X120.366 Y121.073 E579.06663
G0 F6000 X119.001 Y120.416
G1 F1800 X106.58 Y107.995 E579.35575
G0 F6000 X107.303 Y109.424
G1 F1800 X116.535 Y118.656 E579.57064
G0 F6000 X117.657 Y117.534
G0 X115.807 Y116.214
G0 X114.068 Y116.896
G1 F1800 X109.115 Y111.943 E579.68593
G1 F3000 E572.68593
G0 F6000 X110.237 Y110.821
G0 X110.254 Y109.123
G0 X118.328 Y88.863
G0 X119.085 Y87.265
G1 F3000 E579.68593
G1 F1800 X113.079 Y81.26 E579.82572
G0 F6000 X113.492 Y80.965
G1 F1800 X118.811 Y86.284 E579.94953
G0 F6000 X118.804 Y85.57
G1 F1800 X113.905 Y80.67 E580.06358
G0 F6000 X114.317 Y80.376
G1 F1800 X118.798 Y84.857 E580.16788
G0 F6000 X118.791 Y84.142
G1 F1800 X114.73 Y80.081 E580.26241
G0 F6000 X115.143 Y79.787
G1 F1800 X118.858 Y83.502 E580.34888
G0 F6000 X119.013 Y82.951
G1 F1800 X115.556 Y79.493 E580.42936
G0 F6000 X115.968 Y79.198
G1 F1800 X119.168 Y82.399 E580.50386
G0 F6000 X119.324 Y81.847
G1 F1800 X116.381 Y78.904 E580.57236
G0 F6000 X116.794 Y78.61
G1 F1800 X119.479 Y81.295 E580.63486
G0 F6000 X119.634 Y80.743
G1 F1800 X117.206 Y78.315 E580.69138
G0 F6000 X117.619 Y78.021
G1 F1800 X119.789 Y80.191 E580.74189
G0 F6000 X120.007 Y79.702
G1 F1800 X118.032 Y77.727 E580.78786
G0 F6000 X118.444 Y77.432
G1 F1800 X120.238 Y79.226 E580.82962
G0 F6000 X120.469 Y78.75
G1 F1800 X118.857 Y77.138 E580.86714
G0 F6000 X119.301 Y76.875
G1 F1800 X120.701 Y78.274 E580.89972
G0 F6000 X120.932 Y77.798
G1 F1800 X119.783 Y76.65 E580.92645
G0 F6000 X120.265 Y76.424
G1 F1800 X121.163 Y77.322 E580.94736
G0 F6000 X121.394 Y76.846
G1 F1800 X120.747 Y76.199 E580.96242
G0 F6000 X121.229 Y75.974
G1 F1800 X121.625 Y76.371 E580.97164
G0 F6000 X121.87 Y75.908
G1 F1800 X121.711 Y75.749 E580.97535
; Layer Change GCode
; LAYER:5
G1 F3000 E573.97535
G0 F6000 X121.711 Y75.749 Z1.47
G0 X119.502 Y78.43
G0 X118.292 Y82.717
G0 X118.84 Y88.66
G0 X120.623 Y90.453
G0 X122.632 Y90.587
G0 X140.359 Y107.851
G0 X140.896 Y107.824
G0 X141.434 Y109.294
; TYPE:WALL-OUTER
G1 F3000 E580.97535
G1 F1800 X140.701 Y109.131 E580.98771
G1 X137.165 Y108.957 E581.04598
G1 X133.876 Y109.428 E581.10066
G1 X130.981 Y110.527 E581.15163
G1 X128.603 Y112.211 E581.19959
G1 X126.859 Y114.407 E581.24575
G1 X125.829 Y117.016 E581.29191
G1 X125.559 Y119.917 E581.33987
G1 X126.056 Y122.973 E581.39083
G1 X126.635 Y124.417 E581.41643
G1 X118.893 Y120.8 E581.55708
G1 X112.41 Y116.174 E581.68817
G1 X107.571 Y110.786 E581.80737
G1 X104.589 Y104.885 E581.91619
G1 X103.582 Y98.726 E582.01891
G1 X104.589 Y92.567 E582.12163
G1 X107.571 Y86.666 E582.23045
G1 X112.41 Y81.278 E582.34965
G1 X118.893 Y76.652 E582.48073
G1 X123.14 Y74.668 E582.55789
G1 X122.121 Y76.21 E582.58831
G1 X120.171 Y80.224 E582.66176
G1 X119.164 Y83.806 E582.723
G1 X119.191 Y86.694 E582.77054
G1 X120.313 Y88.654 E582.80771
G1 X122.439 Y89.418 E582.84489
G1 X125.287 Y88.944 E582.89241
G1 X128.64 Y87.33 E582.95366
G1 X132.206 Y84.748 E583.02613
G1 X132.915 Y87.255 E583.06901
G1 X134.414 Y88.864 E583.1052
G1 X136.558 Y89.358 E583.14141
G1 X139.104 Y88.714 E583.18464
G1 X141.852 Y87.027 E583.23771
G1 X144.602 Y84.443 E583.29982
G1 X147.148 Y81.167 E583.36811
G1 X149.287 Y77.463 E583.43851
G1 X150 Y75.711 E583.46965
G1 X150.713 Y77.463 E583.50078
G1 X152.852 Y81.167 E583.57118
G1 X155.398 Y84.443 E583.63947
G1 X158.148 Y87.027 E583.70158
G1 X160.896 Y88.714 E583.75465
G1 X163.442 Y89.358 E583.79788
G1 X165.586 Y88.864 E583.83409
G1 X167.085 Y87.255 E583.87028
G1 X167.794 Y84.748 E583.91317
G1 X171.36 Y87.33 E583.98563
G1 X174.713 Y88.944 E584.04688
G1 X177.561 Y89.418 E584.0944
G1 X179.687 Y88.654 E584.13158
G1 X180.809 Y86.694 E584.16875
G1 X180.836 Y83.806 E584.21629
G1 X179.829 Y80.224 E584.27753
G1 X177.879 Y76.21 E584.35098
G1 X176.859 Y74.666 E584.38144
G1 X181.102 Y76.649 E584.45853
G1 X187.589 Y81.278 E584.5897
G1 X192.429 Y86.666 E584.70891
G1 X195.411 Y92.567 E584.81773
G1 X196.418 Y98.726 E584.92045
G1 X195.411 Y104.885 E585.02316
G1 X192.429 Y110.786 E585.13199
G1 X187.589 Y116.174 E585.2512
G1 X181.106 Y120.8 E585.38228
G1 X173.365 Y124.417 E585.52292
G1 X173.944 Y122.973 E585.54852
G1 X174.441 Y119.917 E585.59948
G1 X174.171 Y117.016 E585.64744
G1 X173.141 Y114.407 E585.6936
G1 X171.396 Y112.211 E585.73977
G1 X169.02 Y110.527 E585.7877
G1 X166.124 Y109.428 E585.83869
G1 X162.835 Y108.957 E585.89337
G1 X159.299 Y109.131 E585.95164
G1 X158.565 Y109.294 E585.96402
G1 X155.14 Y125.28 E586.23311
G1 X152.139 Y120.476 E586.32634
G1 X147.861 Y120.476 E586.39675
G1 X144.86 Y125.28 E586.48998
G1 X141.434 Y109.294 E586.75907
G0 F6000 X141.801 Y109.221
; TYPE:FILL
G1 F1800 X161.714 Y89.308 E587.22259
G0 F6000 X161.15 Y89.165
G1 F1800 X141.41 Y108.905 E587.68207
G0 F6000 X140.831 Y108.777
G1 F1800 X160.622 Y88.986 E588.14274
G0 F6000 X160.183 Y88.717
G1 F1800 X140.171 Y108.73 E588.60857
G0 F6000 X139.497 Y108.697
G1 F1800 X159.746 Y88.448 E589.07991
G0 F6000 X159.307 Y88.179
G1 F1800 X138.823 Y108.663 E589.55671
G0 F6000 X138.149 Y108.63
G1 F1800 X158.869 Y87.91 E590.03901
G0 F6000 X158.431 Y87.641
G1 F1800 X137.475 Y108.597 E590.5268
G0 F6000 X136.724 Y108.642
G1 F1800 X157.993 Y87.372 E591.02188
G0 F6000 X157.616 Y87.042
G1 F1800 X135.899 Y108.759 E591.52739
G0 F6000 X135.074 Y108.877
G1 F1800 X157.252 Y86.699 E592.04362
G0 F6000 X156.887 Y86.357
G1 F1800 X134.249 Y108.995 E592.57056
G0 F6000 X133.288 Y109.248
G1 F1800 X156.523 Y86.014 E593.11139
G0 F6000 X156.158 Y85.672
G1 F1800 X132.149 Y109.681 E593.67025
G0 F6000 X131.009 Y110.114
G1 F1800 X155.794 Y85.329 E594.24716
G0 F6000 X155.429 Y84.987
G1 F1800 X128.817 Y111.598 E594.8666
G0 F6000 X127.808 Y112.607
G1 F1800 X119.668 Y120.747 E595.05607
G0 F6000 X119.187 Y120.522
G1 F1800 X155.073 Y84.635 E595.89139
G0 F6000 X154.763 Y84.238
G1 F1800 X118.759 Y120.242 E596.72946
G0 F6000 X118.346 Y119.948
G1 F1800 X154.454 Y83.84 E597.56994
G0 F6000 X154.145 Y83.442
G1 F1800 X117.933 Y119.654 E598.41284
G0 F6000 X117.521 Y119.359
G1 F1800 X153.836 Y83.044 E599.25814
G0 F6000 X153.527 Y82.646
G1 F1800 X117.108 Y119.065 E600.10586
G0 F6000 X116.695 Y118.77
G1 F1800 X153.218 Y82.248 E600.95599
G0 F6000 X152.908 Y81.851
G1 F1800 X116.283 Y118.476 E601.8085
G0 F6000 X115.87 Y118.182
G1 F1800 X152.599 Y81.453 E602.66344
G0 F6000 X152.329 Y81.015
G1 F1800 X115.457 Y117.887 E603.52171
G0 F6000 X115.044 Y117.593
G1 F1800 X152.071 Y80.567 E604.38357
G0 F6000 X151.812 Y80.118
G1 F1800 X114.631 Y117.299 E605.24902
G0 F6000 X114.219 Y117.004
G1 F1800 X151.553 Y79.67 E606.11804
G0 F6000 X151.294 Y79.222
G1 F1800 X113.806 Y116.71 E606.99065
G0 F6000 X113.393 Y116.415
G1 F1800 X151.035 Y78.773 E607.86684
G0 F6000 X150.777 Y78.325
G1 F1800 X146.526 Y82.575 E607.96577
G0 F6000 X147.461 Y83.51
G0 X148.672 Y82.202
G0 X148.063 Y80.332
G1 F1800 X150.518 Y77.877 E608.02292
G0 F6000 X150.283 Y77.404
G1 F1800 X149.029 Y78.659 E608.05212
G0 F6000 X149.809 Y77.171
G1 F1800 X150.069 Y76.912 E608.05816
G0 F6000 X149.882 Y76.912
G0 X149.627 Y80.091
G0 X142.934 Y88.342
G0 X141.291 Y87.81
G1 F1800 X112.981 Y116.121 E608.71714
G0 F6000 X112.586 Y115.809
G1 F1800 X139.459 Y88.936 E609.34266
G0 F6000 X138.412 Y89.275
G1 F1800 X112.251 Y115.436 E609.95161
G0 F6000 X111.917 Y115.063
G1 F1800 X137.467 Y89.514 E610.54632
G0 F6000 X136.537 Y89.736
G1 F1800 X111.582 Y114.691 E611.12719
G0 F6000 X111.248 Y114.318
G1 F1800 X135.962 Y89.604 E611.70246
G0 F6000 X135.387 Y89.472
G1 F1800 X110.913 Y113.946 E612.27214
G0 F6000 X110.578 Y113.574
G1 F1800 X134.812 Y89.34 E612.83623
G0 F6000 X134.237 Y89.207
G1 F1800 X110.244 Y113.201 E613.39472
G0 F6000 X109.909 Y112.828
G1 F1800 X133.887 Y88.85 E613.95285
G0 F6000 X133.547 Y88.484
G1 F1800 X109.575 Y112.456 E614.51085
G0 F6000 X109.24 Y112.083
G1 F1800 X133.206 Y88.118 E615.06869
G0 F6000 X132.865 Y87.751
G1 F1800 X108.906 Y111.71 E615.62638
G0 F6000 X108.572 Y111.338
G1 F1800 X132.553 Y87.356 E616.18459
G0 F6000 X132.397 Y86.805
G1 F1800 X108.237 Y110.965 E616.74696
G0 F6000 X107.902 Y110.593
G1 F1800 X132.242 Y86.253 E617.31352
G0 F6000 X132.086 Y85.702
G1 F1800 X107.659 Y110.129 E617.88211
G0 F6000 X107.422 Y109.659
G1 F1800 X130.992 Y86.089 E618.43074
G0 F6000 X131.553 Y86.65
G0 X130.532 Y88.321
G0 X128.619 Y87.754
G1 F1800 X107.184 Y109.19 E618.92969
G0 F6000 X106.947 Y108.72
G1 F1800 X127.256 Y88.41 E619.40244
G0 F6000 X125.893 Y89.067
G1 F1800 X106.71 Y108.25 E619.84896
G0 F6000 X106.472 Y107.78
G1 F1800 X124.858 Y89.395 E620.27691
G0 F6000 X124.009 Y89.536
G1 F1800 X106.235 Y107.311 E620.69065
G0 F6000 X105.997 Y106.841
G1 F1800 X123.161 Y89.678 E621.09016
G0 F6000 X122.348 Y89.783
G1 F1800 X105.759 Y106.372 E621.4763
G0 F6000 X105.522 Y105.901
G1 F1800 X121.828 Y89.596 E621.85584
G0 F6000 X121.308 Y89.409
G1 F1800 X105.285 Y105.432 E622.22881
G0 F6000 X105.047 Y104.962
G1 F1800 X120.787 Y89.222 E622.59519
G0 F6000 X120.268 Y89.035
G1 F1800 X104.89 Y104.413 E622.95314
G0 F6000 X104.791 Y103.805
G1 F1800 X119.902 Y88.693 E623.30489
G0 F6000 X119.645 Y88.244
G1 F1800 X104.691 Y103.197 E623.65296
G0 F6000 X104.592 Y102.589
G1 F1800 X119.387 Y87.794 E623.99734
G0 F6000 X119.13 Y87.344
G1 F1800 X104.492 Y101.982 E624.33806
G0 F6000 X104.393 Y101.374
G1 F1800 X118.873 Y86.894 E624.67511
G0 F6000 X118.811 Y86.249
G1 F1800 X104.294 Y100.766 E625.01302
G0 F6000 X104.194 Y100.159
G1 F1800 X118.804 Y85.549 E625.3531
G0 F6000 X118.798 Y84.848
G1 F1800 X104.095 Y99.551 E625.69534
G0 F6000 X103.995 Y98.944
G1 F1800 X118.791 Y84.148 E626.03974
G0 F6000 X118.908 Y83.324
G1 F1800 X104.049 Y98.183 E626.38562
G0 F6000 X104.187 Y97.338
G1 F1800 X119.185 Y82.339 E626.73473
G0 F6000 X119.462 Y81.356
G1 F1800 X104.325 Y96.492 E627.08706
G0 F6000 X104.464 Y95.646
G1 F1800 X119.738 Y80.372 E627.44259
G0 F6000 X120.294 Y79.109
G1 F1800 X104.602 Y94.801 E627.80786
G0 F6000 X104.74 Y93.956
G1 F1800 X120.964 Y77.732 E628.1855
G0 F6000 X120.049 Y76.525
G1 F1800 X106.03 Y90.545 E628.51183
G0 F6000 X105.308 Y91.974
G1 F1800 X121.377 Y75.905 E628.88587
G0 F6000 X121.632 Y76.357
G1 F1800 X104.879 Y93.11 E629.27582
G0 F6000 X105.814 Y93.858
G0 X107.313 Y90.849
G0 X106.753 Y89.115
G1 F1800 X118.414 Y77.454 E629.54726
G0 F6000 X119.162 Y78.202
G0 X118.92 Y79.016
G0 X117.499 Y79.709
G0 X115.947 Y79.214
G1 F1800 X107.475 Y87.686 E629.74446
G0 F6000 X108.41 Y88.621
G0 X111.01 Y85.431
G0 X110.595 Y83.858
G1 F1800 X113.48 Y80.974 E629.8116
G1 F3000 E622.8116
G0 F6000 X114.415 Y81.909
G0 X114.013 Y82.385
G0 X125.377 Y113.24
G0 X126.285 Y114.838
G1 F3000 E629.8116
G1 F1800 X120.15 Y120.972 E629.95439
G0 F6000 X120.632 Y121.198
G1 F1800 X125.823 Y116.007 E630.07522
G0 F6000 X125.443 Y117.094
G1 F1800 X121.114 Y121.422 E630.17598
G0 F6000 X121.596 Y121.648
G1 F1800 X125.371 Y117.873 E630.26385
G0 F6000 X125.299 Y118.652
G1 F1800 X122.078 Y121.873 E630.33882
G0 F6000 X122.559 Y122.098
G1 F1800 X125.226 Y119.432 E630.40089
G0 F6000 X125.216 Y120.149
G1 F1800 X123.042 Y122.323 E630.45149
G0 F6000 X123.523 Y122.549
G1 F1800 X125.314 Y120.758 E630.49318
G0 F6000 X125.413 Y121.366
G1 F1800 X124.006 Y122.774 E630.52594
G0 F6000 X124.487 Y122.999
G1 F1800 X125.512 Y121.974 E630.5498
G0 F6000 X125.611 Y122.582
G1 F1800 X124.969 Y123.224 E630.56475
G0 F6000 X125.451 Y123.45
G1 F1800 X125.73 Y123.17 E630.57125
G1 F3000 E623.57125
G0 F6000 X125.356 Y122.983
G0 X124.689 Y119.908
G0 X125.621 Y114.259
G0 X128.429 Y110.724
G0 X132.817 Y108.55
G0 X141.79 Y108.258
G0 X142.552 Y109.12
G0 X144.649 Y117.633
G0 X143.922 Y119.121
G1 F3000 E630.57125
G1 F1800 X174.018 Y89.025 E631.27179
G0 F6000 X174.495 Y89.255
G1 F1800 X144.047 Y119.703 E631.98053
G0 F6000 X144.172 Y120.285
G1 F1800 X175.073 Y89.384 E632.69981
G0 F6000 X175.679 Y89.485
G1 F1800 X144.297 Y120.867 E633.43028
G0 F6000 X144.421 Y121.45
G1 F1800 X176.285 Y89.586 E634.17197
G0 F6000 X176.891 Y89.687
G1 F1800 X144.546 Y122.032 E634.92487
G0 F6000 X144.671 Y122.615
G1 F1800 X158.23 Y109.055 E635.24049
G0 F6000 X158.323 Y108.963
G1 F1800 X177.497 Y89.788 E635.68681
G0 F6000 X178.524 Y89.468
G1 F1800 X159.231 Y108.762 E636.1359
G0 F6000 X159.977 Y108.722
G1 F1800 X179.628 Y89.072 E636.59331
G0 F6000 X180.214 Y88.485
G1 F1800 X187.223 Y81.477 E636.75644
G0 F6000 X187.579 Y81.828
G1 F1800 X160.721 Y108.685 E637.3816
G0 F6000 X161.465 Y108.649
G1 F1800 X187.914 Y82.2 E637.99725
G0 F6000 X188.248 Y82.573
G1 F1800 X162.208 Y108.613 E638.60338
G0 F6000 X162.935 Y108.593
G1 F1800 X188.583 Y82.945 E639.20039
G0 F6000 X188.917 Y83.318
G1 F1800 X163.554 Y108.681 E639.79076
G0 F6000 X164.173 Y108.769
G1 F1800 X189.252 Y83.691 E640.37451
G0 F6000 X189.586 Y84.063
G1 F1800 X164.791 Y108.858 E640.95166
G0 F6000 X165.41 Y108.946
G1 F1800 X189.921 Y84.436 E641.52218
G0 F6000 X190.255 Y84.808
G1 F1800 X166.029 Y109.035 E642.0861
G0 F6000 X166.574 Y109.197
G1 F1800 X190.59 Y85.18 E642.64513
G0 F6000 X190.925 Y85.553
G1 F1800 X167.086 Y109.392 E643.20003
G0 F6000 X167.599 Y109.586
G1 F1800 X191.259 Y85.926 E643.75076
