; Software Leveling Applied
; Generated with MatterSlice 2.22.04
; filamentDiameter = 1.73
; extrusionWidth = 0.4
; firstLayerExtrusionWidth = 0.4
; layerThickness = 0.2
; firstLayerThickness = 0.25
; automatic settings before start_gcode
G21 ; set units to millimeters
M107 ; fan off
M140 S65 ; start heating the bed
M104 T0 S205 ; start heating T0
M190 S65 ; wait for bed temperature to be reached
T0 ; set the active extruder to 0
; settings from start_gcode
G28                    ; home all axes
M280 P0 S160
G4 P400
M280 P0 S90
M109 S205
G1 X5 Y5 Z3.13 F1800
G92 E0                 ; Purge line
G1 X5.83 Y5 Z3.04 E0.833 F900
G1 X6.67 Y5 Z2.96 E1.667
G1 X7.5 Y5 Z2.87 E2.5
G1 X8.33 Y5 Z2.79 E3.333
G1 X9.17 Y5 Z2.7 E4.167
G1 X10 Y5 Z2.62 E5
G92 E0                 ; Purge line
G1 X10 Y5 Z2.62 E-2 F2400
M75                    ; start print timer
; automatic settings after start_gcode
T0 ; set the active extruder to 0
G90 ; use absolute coordinates
G92 E0 ; reset the expected extruder position
M82 ; use absolute distance for extrusion
; Layer count: 10
; Layer Change GCode
; LAYER:0
; LAYER_HEIGHT:0.25
; TYPE:FILL
M400
M107
G1 X16.55 Y12.6 Z2.6 F12000
G1 X23.11 Y20.2 Z2.59
G1 X29.66 Y27.8 Z2.58
G1 X36.22 Y35.4 Z2.57
G1 X42.77 Y43.01 Z2.55
G1 X49.32 Y50.61 Z2.54
G1 X55.88 Y58.21 Z2.53
G1 X62.43 Y65.81 Z2.51
G1 X68.99 Y73.41 Z2.48
G1 X75.54 Y81.01 Z2.44
G1 X86.81 Y81.1 Z2.4
G1 X98.08 Y81.18 Z2.34
G1 X109.35 Y81.27 Z2.29
G1 X121.58 Y81.69 Z2.25
G1 X133.8 Y82.12 Z2.22
G1 X146.03 Y82.54 Z2.19
G1 X158.25 Y82.96 Z2.17
; TYPE:SKIRT
G1 F2400
G1 X159.28 Y83.69 Z2.17 E0.052 F1500
G1 X160.3 Y84.43 Z2.17 E0.104
G1 X161.33 Y85.16 Z2.17 E0.156
G1 X162.36 Y85.89 Z2.16 E0.208
G1 X163.39 Y86.62 Z2.16 E0.26
G1 X164.41 Y87.36 Z2.16 E0.312
G1 X165.44 Y88.09 Z2.16 E0.364
G1 X166.36 Y89.12 Z2.16 E0.421
G1 X167.28 Y90.14 Z2.16 E0.478
G1 X168.21 Y91.17 Z2.16 E0.535
G1 X169.13 Y92.2 Z2.15 E0.592
G1 X170.05 Y93.22 Z2.15 E0.649
G1 X170.97 Y94.25 Z2.15 E0.706
G1 X171.56 Y95.42 Z2.15 E0.76
G1 X172.15 Y96.58 Z2.15 E0.814
G1 X172.74 Y97.75 Z2.15 E0.868
G1 X173.32 Y98.91 Z2.15 E0.921
G1 X173.91 Y100.08 Z2.15 E0.975
G1 X174.5 Y101.24 Z2.15 E1.029
G1 X174.71 Y102.49 Z2.15 E1.081
G1 X174.91 Y103.74 Z2.15 E1.133
G1 X175.12 Y104.99 Z2.15 E1.186
G1 X175.32 Y106.23 Z2.15 E1.238
G1 X175.53 Y107.48 Z2.15 E1.29
G1 X175.73 Y108.73 Z2.15 E1.342
G1 X175.53 Y109.98 Z2.15 E1.394
G1 X175.32 Y111.23 Z2.15 E1.446
G1 X175.12 Y112.48 Z2.15 E1.499
G1 X174.91 Y113.72 Z2.15 E1.551
G1 X174.71 Y114.97 Z2.15 E1.603
G1 X174.5 Y116.22 Z2.15 E1.655
G1 X173.91 Y117.39 Z2.15 E1.709
G1 X173.32 Y118.55 Z2.15 E1.763
G1 X172.74 Y119.72 Z2.15 E1.817
G1 X172.15 Y120.88 Z2.16 E1.87
G1 X171.56 Y122.05 Z2.16 E1.924
G1 X170.97 Y123.21 Z2.16 E1.978
G1 X170.05 Y124.24 Z2.16 E2.035
G1 X169.13 Y125.26 Z2.16 E2.092
G1 X168.21 Y126.29 Z2.16 E2.149
G1 X167.28 Y127.31 Z2.16 E2.206
G1 X166.36 Y128.34 Z2.17 E2.263
G1 X165.44 Y129.36 Z2.17 E2.32
G1 X164.41 Y130.09 Z2.17 E2.372
G1 X163.39 Y130.83 Z2.17 E2.424
G1 X162.36 Y131.56 Z2.17 E2.476
G1 X161.33 Y132.29 Z2.18 E2.528
G1 X160.3 Y133.02 Z2.18 E2.58
G1 X159.28 Y133.76 Z2.18 E2.632
G1 X158.25 Y134.49 Z2.18 E2.684
G1 X157.03 Y135.06 Z2.18 E2.74
G1 X155.81 Y135.63 Z2.19 E2.795
G1 X154.59 Y136.2 Z2.19 E2.851
G1 X153.38 Y136.76 Z2.19 E2.906
G1 X152.16 Y137.33 Z2.19 E2.962
G1 X150.94 Y137.9 Z2.19 E3.017
G1 X149.72 Y138.47 Z2.2 E3.073
G1 X148.62 Y138.79 Z2.2 E3.12
G1 X147.32 Y138.87 Z2.2 E3.174
G1 X146.01 Y138.95 Z2.2 E3.228
G1 X144.71 Y139.04 Z2.21 E3.282
G1 X143.41 Y139.12 Z2.21 E3.335
G1 X142.11 Y139.2 Z2.21 E3.389
G1 X140.8 Y139.28 Z2.21 E3.443
G1 X139.5 Y139.37 Z2.22 E3.497
G1 X138.2 Y139.45 Z2.22 E3.551
G1 X136.89 Y139.53 Z2.22 E3.605
G1 X135.59 Y139.61 Z2.22 E3.659
G1 X134.29 Y139.69 Z2.22 E3.712
G1 X132.99 Y139.78 Z2.23 E3.766
G1 X131.68 Y139.86 Z2.23 E3.82
G1 X130.38 Y139.94 Z2.23 E3.874
G1 X129.04 Y139.94 Z2.23 E3.93
G1 X127.69 Y139.94 Z2.23 E3.985
G1 X126.35 Y139.94 Z2.24 E4.041
G1 X125 Y139.94 Z2.24 E4.096
G1 X123.66 Y139.94 Z2.24 E4.152
G1 X122.31 Y139.94 Z2.24 E4.207
G1 X120.97 Y139.94 Z2.24 E4.263
G1 X119.62 Y139.94 Z2.25 E4.318
G1 X118.32 Y139.86 Z2.25 E4.372
G1 X117.02 Y139.78 Z2.25 E4.426
G1 X115.71 Y139.69 Z2.25 E4.48
G1 X114.41 Y139.61 Z2.26 E4.533
G1 X113.11 Y139.53 Z2.26 E4.587
G1 X111.81 Y139.45 Z2.26 E4.641
G1 X110.51 Y139.37 Z2.27 E4.695
G1 X109.2 Y139.28 Z2.27 E4.749
G1 X107.9 Y139.2 Z2.27 E4.803
G1 X106.6 Y139.12 Z2.28 E4.857
G1 X105.3 Y139.04 Z2.28 E4.91
G1 X103.99 Y138.95 Z2.29 E4.964
G1 X102.69 Y138.87 Z2.29 E5.018
G1 X101.39 Y138.79 Z2.29 E5.072
G1 X100.26 Y138.47 Z2.3 E5.12
G1 X99.04 Y137.9 Z2.3 E5.175
G1 X97.83 Y137.33 Z2.31 E5.231
G1 X96.61 Y136.76 Z2.31 E5.286
G1 X95.4 Y136.2 Z2.31 E5.342
G1 X94.18 Y135.63 Z2.32 E5.397
G1 X92.97 Y135.06 Z2.32 E5.453
G1 X91.75 Y134.49 Z2.32 E5.508
G1 X90.72 Y133.76 Z2.33 E5.56
G1 X89.7 Y133.02 Z2.33 E5.612
G1 X88.67 Y132.29 Z2.34 E5.664
G1 X87.64 Y131.56 Z2.34 E5.717
G1 X86.61 Y130.83 Z2.34 E5.769
G1 X85.59 Y130.09 Z2.35 E5.821
G1 X84.56 Y129.36 Z2.35 E5.873
G1 X83.64 Y128.34 Z2.36 E5.93
G1 X82.72 Y127.31 Z2.36 E5.987
G1 X81.8 Y126.29 Z2.36 E6.044
G1 X80.87 Y125.26 Z2.37 E6.1
G1 X79.95 Y124.24 Z2.37 E6.157
G1 X79.03 Y123.21 Z2.38 E6.214
G1 X78.44 Y122.05 Z2.38 E6.268
G1 X77.85 Y120.88 Z2.38 E6.322
G1 X77.27 Y119.72 Z2.38 E6.376
G1 X76.68 Y118.55 Z2.39 E6.429
G1 X76.09 Y117.39 Z2.39 E6.483
G1 X75.5 Y116.22 Z2.39 E6.537
G1 X75.3 Y114.97 Z2.39 E6.589
G1 X75.09 Y113.72 Z2.4 E6.641
G1 X74.89 Y112.48 Z2.4 E6.694
G1 X74.69 Y111.23 Z2.4 E6.746
G1 X74.48 Y109.98 Z2.4 E6.798
G1 X74.28 Y108.73 Z2.4 E6.85
G1 X74.48 Y107.48 Z2.4 E6.902
G1 X74.69 Y106.23 Z2.41 E6.954
G1 X74.89 Y104.99 Z2.41 E7.007
G1 X75.09 Y103.74 Z2.41 E7.059
G1 X75.3 Y102.49 Z2.41 E7.111
G1 X75.5 Y101.24 Z2.41 E7.163
G1 X76.09 Y100.08 Z2.41 E7.217
G1 X76.68 Y98.91 Z2.41 E7.271
G1 X77.27 Y97.75 Z2.41 E7.325
G1 X77.85 Y96.58 Z2.41 E7.379
G1 X78.44 Y95.42 Z2.41 E7.433
G1 X79.03 Y94.25 Z2.41 E7.487
G1 X79.95 Y93.22 Z2.41 E7.544
G1 X80.87 Y92.2 Z2.4 E7.601
G1 X81.8 Y91.17 Z2.4 E7.658
G1 X82.72 Y90.14 Z2.4 E7.714
G1 X83.64 Y89.12 Z2.4 E7.771
G1 X84.56 Y88.09 Z2.4 E7.828
G1 X85.59 Y87.36 Z2.39 E7.88
G1 X86.61 Y86.62 Z2.39 E7.932
G1 X87.64 Y85.89 Z2.39 E7.984
G1 X88.67 Y85.16 Z2.38 E8.036
G1 X89.7 Y84.43 Z2.38 E8.088
G1 X90.72 Y83.69 Z2.38 E8.14
G1 X91.75 Y82.96 Z2.37 E8.192
G1 X92.99 Y82.38 Z2.37 E8.249
G1 X94.23 Y81.8 Z2.36 E8.305
G1 X95.47 Y81.23 Z2.36 E8.362
G1 X96.71 Y80.65 Z2.35 E8.418
G1 X97.95 Y80.07 Z2.34 E8.475
G1 X99.21 Y80.07 Z2.34 E8.527
G1 X100.47 Y80.07 Z2.33 E8.579
G1 X101.72 Y80.07 Z2.33 E8.631
G1 X102.98 Y80.07 Z2.32 E8.683
G1 X104.24 Y80.07 Z2.31 E8.735
G1 X105.5 Y80.07 Z2.31 E8.786
G1 X106.76 Y80.07 Z2.3 E8.838
G1 X108.02 Y80.07 Z2.3 E8.89
G1 X109.27 Y80.07 Z2.29 E8.942
G1 X110.53 Y80.07 Z2.28 E8.994
G1 X111.79 Y80.07 Z2.28 E9.046
G1 X113.05 Y80.07 Z2.27 E9.098
G1 X114.31 Y80.07 Z2.27 E9.15
G1 X115.56 Y80.07 Z2.27 E9.202
G1 X116.82 Y80.07 Z2.26 E9.254
G1 X118.08 Y80.07 Z2.26 E9.306
G1 X119.34 Y80.07 Z2.26 E9.357
G1 X120.6 Y80.07 Z2.25 E9.409
G1 X121.85 Y80.07 Z2.25 E9.461
G1 X123.11 Y80.07 Z2.25 E9.513
G1 X124.37 Y80.07 Z2.24 E9.565
G1 X125.63 Y80.07 Z2.24 E9.617
G1 X126.89 Y80.07 Z2.24 E9.669
G1 X128.15 Y80.07 Z2.23 E9.721
G1 X129.4 Y80.07 Z2.23 E9.773
G1 X130.66 Y80.07 Z2.23 E9.825
G1 X131.92 Y80.07 Z2.22 E9.876
G1 X133.18 Y80.07 Z2.22 E9.928
G1 X134.44 Y80.07 Z2.22 E9.98
G1 X135.69 Y80.07 Z2.22 E10.032
G1 X136.95 Y80.07 Z2.21 E10.084
G1 X138.21 Y80.07 Z2.21 E10.136
G1 X139.47 Y80.07 Z2.21 E10.188
G1 X140.73 Y80.07 Z2.2 E10.24
G1 X141.98 Y80.07 Z2.2 E10.292
G1 X143.24 Y80.07 Z2.2 E10.344
G1 X144.5 Y80.07 Z2.19 E10.396
G1 X145.76 Y80.07 Z2.19 E10.447
G1 X147.02 Y80.07 Z2.19 E10.499
G1 X148.28 Y80.07 Z2.19 E10.551
G1 X149.53 Y80.07 Z2.18 E10.603
G1 X150.79 Y80.07 Z2.18 E10.655
G1 X152.05 Y80.07 Z2.18 E10.707
G1 X153.29 Y80.65 Z2.18 E10.764
G1 X154.53 Y81.23 Z2.18 E10.82
G1 X155.77 Y81.8 Z2.17 E10.877
G1 X157.01 Y82.38 Z2.17 E10.933
G1 X158.25 Y82.96 Z2.17 E10.99
G1 X158.05 Y83.31 Z2.17 F12000
G1 X159.24 Y84.16 Z2.17 E11.05 F1500
G1 X160.42 Y85 Z2.17 E11.11
G1 X161.61 Y85.85 Z2.16 E11.171
G1 X162.8 Y86.7 Z2.16 E11.231
G1 X163.98 Y87.54 Z2.16 E11.291
G1 X165.17 Y88.39 Z2.16 E11.351
G1 X166.08 Y89.4 Z2.16 E11.407
G1 X166.99 Y90.42 Z2.16 E11.463
G1 X167.9 Y91.43 Z2.16 E11.52
G1 X168.81 Y92.44 Z2.16 E11.576
G1 X169.72 Y93.46 Z2.15 E11.632
G1 X170.63 Y94.47 Z2.15 E11.688
G1 X171.21 Y95.62 Z2.15 E11.741
G1 X171.79 Y96.77 Z2.15 E11.794
G1 X172.38 Y97.92 Z2.15 E11.848
G1 X172.96 Y99.06 Z2.15 E11.901
G1 X173.54 Y100.21 Z2.15 E11.954
G1 X174.12 Y101.36 Z2.15 E12.007
G1 X174.36 Y102.83 Z2.15 E12.069
G1 X174.6 Y104.31 Z2.15 E12.13
G1 X174.84 Y105.78 Z2.15 E12.192
G1 X175.08 Y107.26 Z2.15 E12.253
G1 X175.32 Y108.73 Z2.15 E12.315
G1 X175.08 Y110.2 Z2.15 E12.377
G1 X174.84 Y111.67 Z2.15 E12.438
G1 X174.6 Y113.15 Z2.15 E12.5
G1 X174.36 Y114.62 Z2.15 E12.561
G1 X174.12 Y116.09 Z2.15 E12.623
G1 X173.54 Y117.24 Z2.15 E12.676
G1 X172.96 Y118.39 Z2.15 E12.729
G1 X172.38 Y119.54 Z2.15 E12.782
G1 X171.79 Y120.68 Z2.16 E12.835
G1 X171.21 Y121.83 Z2.16 E12.888
G1 X170.63 Y122.98 Z2.16 E12.941
G1 X169.72 Y123.99 Z2.16 E12.997
G1 X168.81 Y125.01 Z2.16 E13.053
G1 X167.9 Y126.02 Z2.16 E13.11
G1 X166.99 Y127.03 Z2.17 E13.166
G1 X166.08 Y128.05 Z2.17 E13.222
G1 X165.17 Y129.06 Z2.17 E13.278
G1 X163.98 Y129.91 Z2.17 E13.338
G1 X162.8 Y130.75 Z2.17 E13.398
G1 X161.61 Y131.6 Z2.17 E13.459
G1 X160.42 Y132.45 Z2.18 E13.519
G1 X159.24 Y133.29 Z2.18 E13.579
G1 X158.05 Y134.14 Z2.18 E13.639
G1 X156.84 Y134.71 Z2.18 E13.694
G1 X155.63 Y135.27 Z2.19 E13.749
G1 X154.42 Y135.84 Z2.19 E13.804
G1 X153.2 Y136.4 Z2.19 E13.86
G1 X151.99 Y136.97 Z2.19 E13.915
G1 X150.78 Y137.53 Z2.2 E13.97
G1 X149.57 Y138.1 Z2.2 E14.025
G1 X148.55 Y138.39 Z2.2 E14.069
G1 X147.25 Y138.47 Z2.2 E14.123
G1 X145.95 Y138.55 Z2.2 E14.176
G1 X144.65 Y138.64 Z2.21 E14.23
G1 X143.36 Y138.72 Z2.21 E14.284
G1 X142.06 Y138.8 Z2.21 E14.338
G1 X140.76 Y138.88 Z2.21 E14.391
G1 X139.46 Y138.97 Z2.22 E14.445
G1 X138.16 Y139.05 Z2.22 E14.499
G1 X136.86 Y139.13 Z2.22 E14.552
G1 X135.56 Y139.21 Z2.22 E14.606
G1 X134.27 Y139.29 Z2.22 E14.66
G1 X132.97 Y139.38 Z2.23 E14.714
G1 X131.67 Y139.46 Z2.23 E14.767
G1 X130.37 Y139.54 Z2.23 E14.821
G1 X129.03 Y139.54 Z2.23 E14.876
G1 X127.69 Y139.54 Z2.23 E14.932
G1 X126.34 Y139.54 Z2.24 E14.987
G1 X125 Y139.54 Z2.24 E15.043
G1 X123.66 Y139.54 Z2.24 E15.098
G1 X122.32 Y139.54 Z2.24 E15.153
G1 X120.97 Y139.54 Z2.24 E15.209
G1 X119.63 Y139.54 Z2.25 E15.264
G1 X118.33 Y139.46 Z2.25 E15.318
G1 X117.03 Y139.38 Z2.25 E15.371
G1 X115.73 Y139.29 Z2.25 E15.425
G1 X114.44 Y139.21 Z2.26 E15.479
G1 X113.14 Y139.13 Z2.26 E15.533
G1 X111.84 Y139.05 Z2.26 E15.586
G1 X110.54 Y138.97 Z2.27 E15.64
G1 X109.24 Y138.88 Z2.27 E15.694
G1 X107.94 Y138.8 Z2.27 E15.747
G1 X106.64 Y138.72 Z2.28 E15.801
G1 X105.35 Y138.64 Z2.28 E15.855
G1 X104.05 Y138.55 Z2.29 E15.909
G1 X102.75 Y138.47 Z2.29 E15.962
G1 X101.45 Y138.39 Z2.29 E16.016
G1 X100.4 Y138.09 Z2.3 E16.061
G1 X99.19 Y137.53 Z2.3 E16.116
G1 X97.99 Y136.96 Z2.31 E16.171
G1 X96.78 Y136.4 Z2.31 E16.226
G1 X95.57 Y135.83 Z2.31 E16.281
G1 X94.36 Y135.27 Z2.32 E16.336
G1 X93.16 Y134.7 Z2.32 E16.391
G1 X91.95 Y134.14 Z2.32 E16.446
G1 X90.76 Y133.29 Z2.33 E16.506
G1 X89.58 Y132.45 Z2.33 E16.566
G1 X88.39 Y131.6 Z2.34 E16.627
G1 X87.2 Y130.75 Z2.34 E16.687
G1 X86.02 Y129.91 Z2.35 E16.747
G1 X84.83 Y129.06 Z2.35 E16.807
G1 X83.92 Y128.05 Z2.36 E16.863
G1 X83.01 Y127.03 Z2.36 E16.919
G1 X82.1 Y126.02 Z2.36 E16.976
G1 X81.19 Y125.01 Z2.37 E17.032
G1 X80.28 Y123.99 Z2.37 E17.088
G1 X79.37 Y122.98 Z2.38 E17.144
G1 X78.79 Y121.83 Z2.38 E17.197
G1 X78.21 Y120.68 Z2.38 E17.25
G1 X77.63 Y119.54 Z2.38 E17.304
G1 X77.05 Y118.39 Z2.39 E17.357
G1 X76.47 Y117.24 Z2.39 E17.41
G1 X75.89 Y116.09 Z2.39 E17.463
G1 X75.65 Y114.62 Z2.39 E17.525
G1 X75.41 Y113.15 Z2.39 E17.586
G1 X75.16 Y111.67 Z2.4 E17.648
G1 X74.92 Y110.2 Z2.4 E17.709
G1 X74.68 Y108.73 Z2.4 E17.771
G1 X74.92 Y107.26 Z2.4 E17.833
G1 X75.16 Y105.78 Z2.4 E17.894
G1 X75.41 Y104.31 Z2.41 E17.956
G1 X75.65 Y102.83 Z2.41 E18.017
G1 X75.89 Y101.36 Z2.41 E18.079
G1 X76.47 Y100.21 Z2.41 E18.132
G1 X77.05 Y99.06 Z2.41 E18.185
G1 X77.63 Y97.92 Z2.41 E18.238
G1 X78.21 Y96.77 Z2.41 E18.291
G1 X78.79 Y95.62 Z2.41 E18.344
G1 X79.37 Y94.47 Z2.41 E18.397
G1 X80.28 Y93.46 Z2.4 E18.453
G1 X81.19 Y92.44 Z2.4 E18.509
G1 X82.1 Y91.43 Z2.4 E18.566
G1 X83.01 Y90.42 Z2.4 E18.622
G1 X83.92 Y89.4 Z2.4 E18.678
G1 X84.83 Y88.39 Z2.39 E18.734
G1 X86.02 Y87.54 Z2.39 E18.794
G1 X87.2 Y86.7 Z2.39 E18.854
G1 X88.39 Y85.85 Z2.38 E18.915
G1 X89.58 Y85 Z2.38 E18.975
G1 X90.76 Y84.16 Z2.38 E19.035
G1 X91.95 Y83.31 Z2.37 E19.095
G1 X93.17 Y82.74 Z2.37 E19.151
G1 X94.39 Y82.17 Z2.36 E19.206
G1 X95.6 Y81.61 Z2.35 E19.262
G1 X96.82 Y81.04 Z2.35 E19.317
G1 X98.04 Y80.47 Z2.34 E19.373
G1 X99.29 Y80.47 Z2.34 E19.425
G1 X100.55 Y80.47 Z2.33 E19.476
G1 X101.8 Y80.47 Z2.33 E19.528
G1 X103.06 Y80.47 Z2.32 E19.58
G1 X104.31 Y80.47 Z2.31 E19.632
G1 X105.56 Y80.47 Z2.31 E19.683
G1 X106.82 Y80.47 Z2.3 E19.735
G1 X108.07 Y80.47 Z2.3 E19.787
G1 X109.33 Y80.47 Z2.29 E19.839
G1 X110.58 Y80.47 Z2.28 E19.89
G1 X111.83 Y80.47 Z2.28 E19.942
G1 X113.09 Y80.47 Z2.27 E19.994
G1 X114.34 Y80.47 Z2.27 E20.046
G1 X115.6 Y80.47 Z2.26 E20.097
G1 X116.85 Y80.47 Z2.26 E20.149
G1 X118.1 Y80.47 Z2.26 E20.201
G1 X119.36 Y80.47 Z2.26 E20.253
G1 X120.61 Y80.47 Z2.25 E20.304
G1 X121.87 Y80.47 Z2.25 E20.356
G1 X123.12 Y80.47 Z2.25 E20.408
G1 X124.37 Y80.47 Z2.24 E20.46
G1 X125.63 Y80.47 Z2.24 E20.511
G1 X126.88 Y80.47 Z2.24 E20.563
G1 X128.13 Y80.47 Z2.23 E20.615
G1 X129.39 Y80.47 Z2.23 E20.667
G1 X130.64 Y80.47 Z2.23 E20.718
G1 X131.9 Y80.47 Z2.22 E20.77
G1 X133.15 Y80.47 Z2.22 E20.822
G1 X134.4 Y80.47 Z2.22 E20.874
G1 X135.66 Y80.47 Z2.22 E20.925
G1 X136.91 Y80.47 Z2.21 E20.977
G1 X138.17 Y80.47 Z2.21 E21.029
G1 X139.42 Y80.47 Z2.21 E21.081
G1 X140.67 Y80.47 Z2.2 E21.132
G1 X141.93 Y80.47 Z2.2 E21.184
G1 X143.18 Y80.47 Z2.2 E21.236
G1 X144.44 Y80.47 Z2.19 E21.288
G1 X145.69 Y80.47 Z2.19 E21.339
G1 X146.94 Y80.47 Z2.19 E21.391
G1 X148.2 Y80.47 Z2.19 E21.443
G1 X149.45 Y80.47 Z2.19 E21.495
G1 X150.71 Y80.47 Z2.18 E21.546
G1 X151.96 Y80.47 Z2.18 E21.598
G1 X153.18 Y81.04 Z2.18 E21.653
G1 X154.4 Y81.61 Z2.18 E21.709
G1 X155.61 Y82.17 Z2.17 E21.764
G1 X156.83 Y82.74 Z2.17 E21.82
G1 X158.05 Y83.31 Z2.17 E21.875
G1 X157.85 Y83.66 Z2.17 F12000
G1 X159.03 Y84.5 Z2.17 E21.935 F1500
G1 X160.2 Y85.34 Z2.17 E21.994
G1 X161.38 Y86.18 Z2.17 E22.054
G1 X162.55 Y87.01 Z2.16 E22.114
G1 X163.73 Y87.85 Z2.16 E22.173
G1 X164.9 Y88.69 Z2.16 E22.233
G1 X165.8 Y89.69 Z2.16 E22.289
G1 X166.7 Y90.69 Z2.16 E22.344
G1 X167.6 Y91.7 Z2.16 E22.4
G1 X168.5 Y92.7 Z2.16 E22.455
G1 X169.4 Y93.7 Z2.15 E22.511
G1 X170.3 Y94.7 Z2.15 E22.566
G1 X170.87 Y95.83 Z2.15 E22.618
G1 X171.44 Y96.96 Z2.15 E22.671
G1 X172.02 Y98.1 Z2.15 E22.723
G1 X172.59 Y99.23 Z2.15 E22.775
G1 X173.16 Y100.36 Z2.15 E22.828
G1 X173.73 Y101.49 Z2.15 E22.88
G1 X173.97 Y102.94 Z2.15 E22.941
G1 X174.21 Y104.39 Z2.15 E23.001
G1 X174.44 Y105.83 Z2.15 E23.062
G1 X174.68 Y107.28 Z2.15 E23.122
G1 X174.92 Y108.73 Z2.15 E23.183
G1 X174.68 Y110.18 Z2.15 E23.243
G1 X174.44 Y111.63 Z2.15 E23.304
G1 X174.21 Y113.07 Z2.15 E23.364
G1 X173.97 Y114.52 Z2.15 E23.425
G1 X173.73 Y115.97 Z2.15 E23.485
G1 X173.16 Y117.1 Z2.15 E23.537
G1 X172.59 Y118.23 Z2.15 E23.59
G1 X172.02 Y119.36 Z2.15 E23.642
G1 X171.44 Y120.49 Z2.16 E23.694
G1 X170.87 Y121.62 Z2.16 E23.747
G1 X170.3 Y122.75 Z2.16 E23.799
G1 X169.4 Y123.75 Z2.16 E23.855
G1 X168.5 Y124.75 Z2.16 E23.91
G1 X167.6 Y125.76 Z2.16 E23.966
G1 X166.7 Y126.76 Z2.17 E24.022
G1 X165.8 Y127.76 Z2.17 E24.077
G1 X164.9 Y128.76 Z2.17 E24.133
G1 X163.73 Y129.6 Z2.17 E24.193
G1 X162.55 Y130.44 Z2.17 E24.252
G1 X161.38 Y131.28 Z2.17 E24.312
G1 X160.2 Y132.12 Z2.18 E24.371
G1 X159.03 Y132.96 Z2.18 E24.431
G1 X157.85 Y133.8 Z2.18 E24.49
G1 X156.65 Y134.36 Z2.18 E24.545
G1 X155.44 Y134.92 Z2.19 E24.599
G1 X154.24 Y135.48 Z2.19 E24.654
G1 X153.04 Y136.04 Z2.19 E24.709
G1 X151.84 Y136.6 Z2.19 E24.764
G1 X150.63 Y137.16 Z2.2 E24.818
G1 X149.43 Y137.72 Z2.2 E24.873
G1 X148.48 Y137.99 Z2.2 E24.914
G1 X147.19 Y138.07 Z2.2 E24.968
G1 X145.89 Y138.15 Z2.2 E25.021
G1 X144.6 Y138.24 Z2.21 E25.075
G1 X143.3 Y138.32 Z2.21 E25.128
G1 X142.01 Y138.4 Z2.21 E25.182
G1 X140.71 Y138.48 Z2.21 E25.235
G1 X139.42 Y138.57 Z2.22 E25.289
G1 X138.13 Y138.65 Z2.22 E25.343
G1 X136.83 Y138.73 Z2.22 E25.396
G1 X135.54 Y138.81 Z2.22 E25.45
G1 X134.24 Y138.89 Z2.22 E25.503
G1 X132.95 Y138.98 Z2.23 E25.557
G1 X131.65 Y139.06 Z2.23 E25.61
G1 X130.36 Y139.14 Z2.23 E25.664
G1 X129.02 Y139.14 Z2.23 E25.719
G1 X127.68 Y139.14 Z2.23 E25.775
G1 X126.34 Y139.14 Z2.24 E25.83
G1 X125 Y139.14 Z2.24 E25.885
G1 X123.66 Y139.14 Z2.24 E25.94
G1 X122.32 Y139.14 Z2.24 E25.996
G1 X120.98 Y139.14 Z2.24 E26.051
G1 X119.64 Y139.14 Z2.25 E26.106
G1 X118.35 Y139.06 Z2.25 E26.16
G1 X117.05 Y138.98 Z2.25 E26.213
G1 X115.76 Y138.89 Z2.25 E26.267
G1 X114.46 Y138.81 Z2.26 E26.32
G1 X113.17 Y138.73 Z2.26 E26.374
G1 X111.87 Y138.65 Z2.26 E26.427
G1 X110.58 Y138.57 Z2.27 E26.481
G1 X109.29 Y138.48 Z2.27 E26.534
G1 X107.99 Y138.4 Z2.27 E26.588
G1 X106.7 Y138.32 Z2.28 E26.641
G1 X105.4 Y138.24 Z2.28 E26.695
G1 X104.11 Y138.15 Z2.29 E26.748
G1 X102.81 Y138.07 Z2.29 E26.802
G1 X101.52 Y137.99 Z2.29 E26.855
G1 X100.54 Y137.71 Z2.3 E26.897
G1 X99.34 Y137.15 Z2.3 E26.952
G1 X98.14 Y136.59 Z2.3 E27.006
G1 X96.94 Y136.03 Z2.31 E27.061
G1 X95.75 Y135.48 Z2.31 E27.115
G1 X94.55 Y134.92 Z2.32 E27.17
G1 X93.35 Y134.36 Z2.32 E27.224
G1 X92.15 Y133.8 Z2.32 E27.279
G1 X90.98 Y132.96 Z2.33 E27.339
G1 X89.8 Y132.12 Z2.33 E27.398
G1 X88.63 Y131.28 Z2.34 E27.458
G1 X87.45 Y130.44 Z2.34 E27.518
G1 X86.28 Y129.6 Z2.35 E27.577
G1 X85.1 Y128.76 Z2.35 E27.637
G1 X84.2 Y127.76 Z2.35 E27.693
G1 X83.3 Y126.76 Z2.36 E27.748
G1 X82.4 Y125.76 Z2.36 E27.804
G1 X81.5 Y124.75 Z2.37 E27.859
G1 X80.6 Y123.75 Z2.37 E27.915
G1 X79.7 Y122.75 Z2.37 E27.97
G1 X79.13 Y121.62 Z2.38 E28.022
G1 X78.56 Y120.49 Z2.38 E28.075
G1 X77.99 Y119.36 Z2.38 E28.127
G1 X77.41 Y118.23 Z2.38 E28.179
G1 X76.84 Y117.1 Z2.39 E28.232
G1 X76.27 Y115.97 Z2.39 E28.284
G1 X76.03 Y114.52 Z2.39 E28.345
G1 X75.8 Y113.07 Z2.39 E28.405
G1 X75.56 Y111.63 Z2.4 E28.466
G1 X75.33 Y110.18 Z2.4 E28.526
G1 X75.09 Y108.73 Z2.4 E28.587
G1 X75.33 Y107.28 Z2.4 E28.647
G1 X75.56 Y105.83 Z2.4 E28.708
G1 X75.8 Y104.39 Z2.4 E28.768
G1 X76.03 Y102.94 Z2.41 E28.829
G1 X76.27 Y101.49 Z2.41 E28.889
G1 X76.84 Y100.36 Z2.41 E28.941
G1 X77.41 Y99.23 Z2.41 E28.994
G1 X77.99 Y98.1 Z2.41 E29.046
G1 X78.56 Y96.96 Z2.4 E29.098
G1 X79.13 Y95.83 Z2.4 E29.151
G1 X79.7 Y94.7 Z2.4 E29.203
G1 X80.6 Y93.7 Z2.4 E29.259
G1 X81.5 Y92.7 Z2.4 E29.314
G1 X82.4 Y91.7 Z2.4 E29.37
G1 X83.3 Y90.69 Z2.4 E29.425
G1 X84.2 Y89.69 Z2.39 E29.481
G1 X85.1 Y88.69 Z2.39 E29.536
G1 X86.28 Y87.85 Z2.39 E29.596
G1 X87.45 Y87.01 Z2.39 E29.655
G1 X88.63 Y86.18 Z2.38 E29.715
G1 X89.8 Y85.34 Z2.38 E29.775
G1 X90.98 Y84.5 Z2.37 E29.834
G1 X92.15 Y83.66 Z2.37 E29.894
G1 X93.35 Y83.1 Z2.36 E29.948
G1 X94.54 Y82.54 Z2.36 E30.003
G1 X95.74 Y81.99 Z2.35 E30.057
G1 X96.93 Y81.43 Z2.35 E30.112
G1 X98.13 Y80.87 Z2.34 E30.166
G1 X99.41 Y80.87 Z2.34 E30.219
G1 X100.69 Y80.87 Z2.33 E30.272
G1 X101.97 Y80.87 Z2.32 E30.324
G1 X103.25 Y80.87 Z2.32 E30.377
G1 X104.53 Y80.87 Z2.31 E30.43
G1 X105.81 Y80.87 Z2.31 E30.483
G1 X107.09 Y80.87 Z2.3 E30.536
G1 X108.37 Y80.87 Z2.29 E30.588
G1 X109.65 Y80.87 Z2.29 E30.641
G1 X110.93 Y80.87 Z2.28 E30.694
G1 X112.2 Y80.87 Z2.28 E30.747
G1 X113.48 Y80.87 Z2.27 E30.8
G1 X114.76 Y80.87 Z2.27 E30.853
G1 X116.04 Y80.87 Z2.26 E30.905
G1 X117.32 Y80.87 Z2.26 E30.958
G1 X118.6 Y80.87 Z2.26 E31.011
G1 X119.88 Y80.87 Z2.25 E31.064
G1 X121.16 Y80.87 Z2.25 E31.117
G1 X122.44 Y80.87 Z2.25 E31.169
G1 X123.72 Y80.87 Z2.24 E31.222
G1 X125 Y80.87 Z2.24 E31.275
G1 X126.28 Y80.87 Z2.24 E31.328
G1 X127.56 Y80.87 Z2.23 E31.381
G1 X128.84 Y80.87 Z2.23 E31.433
G1 X130.12 Y80.87 Z2.23 E31.486
G1 X131.4 Y80.87 Z2.23 E31.539
G1 X132.68 Y80.87 Z2.22 E31.592
G1 X133.96 Y80.87 Z2.22 E31.645
G1 X135.24 Y80.87 Z2.22 E31.697
G1 X136.52 Y80.87 Z2.21 E31.75
G1 X137.8 Y80.87 Z2.21 E31.803
G1 X139.07 Y80.87 Z2.21 E31.856
G1 X140.35 Y80.87 Z2.2 E31.909
G1 X141.63 Y80.87 Z2.2 E31.962
G1 X142.91 Y80.87 Z2.2 E32.014
G1 X144.19 Y80.87 Z2.19 E32.067
G1 X145.47 Y80.87 Z2.19 E32.12
G1 X146.75 Y80.87 Z2.19 E32.173
G1 X148.03 Y80.87 Z2.19 E32.226
G1 X149.31 Y80.87 Z2.19 E32.278
G1 X150.59 Y80.87 Z2.18 E32.331
G1 X151.87 Y80.87 Z2.18 E32.384
G1 X153.07 Y81.43 Z2.18 E32.438
G1 X154.26 Y81.99 Z2.18 E32.493
G1 X155.46 Y82.54 Z2.17 E32.547
G1 X156.65 Y83.1 Z2.17 E32.602
G1 X157.85 Y83.66 Z2.17 E32.656
G1 E30.656 F2400
G1 E28.656
G1 X155.63 Y87.03 Z2.17 F12000
G1 X156.15 Y87.63 Z2.17
G1 X156.14 Y92.43 Z2.17
G1 X156.35 Y96.03 Z2.17
G1 X155.31 Y98.29 Z2.17
G1 X153.94 Y99.58 Z2.18
G1 X152.31 Y100.51 Z2.18
G1 X142.62 Y109.59 Z2.2
G1 X132.93 Y118.67 Z2.22
; TYPE:WALL-INNER
G1 E30.656 F2400
G1 E32.656
G1 X132.64 Y120 Z2.22 E32.712 F1500
G1 X132.36 Y121.33 Z2.22 E32.768
G1 X132.07 Y122.66 Z2.22 E32.825
G1 X131.79 Y123.99 Z2.22 E32.881
G1 X131.5 Y125.32 Z2.22 E32.937
G1 X131.22 Y126.66 Z2.23 E32.993
G1 X130.93 Y127.99 Z2.23 E33.049
G1 X130.65 Y129.32 Z2.23 E33.105
G1 X130.36 Y130.65 Z2.23 E33.162
G1 X130.08 Y131.98 Z2.23 E33.218
G1 X129.79 Y133.31 Z2.23 E33.274
G1 X129.04 Y132.12 Z2.23 E33.332
G1 X128.3 Y130.92 Z2.23 E33.391
G1 X127.55 Y129.73 Z2.23 E33.449
G1 X126.28 Y129.73 Z2.23 E33.502
G1 X125 Y129.73 Z2.24 E33.555
G1 X123.73 Y129.73 Z2.24 E33.607
G1 X122.45 Y129.73 Z2.24 E33.66
G1 X121.7 Y130.92 Z2.24 E33.718
G1 X120.96 Y132.12 Z2.24 E33.776
G1 X120.21 Y133.31 Z2.24 E33.834
G1 X119.92 Y131.98 Z2.24 E33.89
G1 X119.64 Y130.65 Z2.24 E33.946
G1 X119.35 Y129.32 Z2.25 E34.003
G1 X119.07 Y127.99 Z2.25 E34.059
G1 X118.78 Y126.66 Z2.25 E34.115
G1 X118.5 Y125.32 Z2.25 E34.171
G1 X118.21 Y123.99 Z2.25 E34.227
G1 X117.93 Y122.66 Z2.25 E34.283
G1 X117.64 Y121.33 Z2.25 E34.34
G1 X117.36 Y120 Z2.25 E34.396
G1 X117.07 Y118.67 Z2.25 E34.452
G1 X115.8 Y118.39 Z2.25 E34.506
G1 X113.97 Y118.3 Z2.25 E34.582
G1 X112.13 Y118.2 Z2.26 E34.657
G1 X110.41 Y118.45 Z2.26 E34.729
G1 X108.69 Y118.7 Z2.27 E34.801
G1 X107.16 Y119.28 Z2.27 E34.869
G1 X105.63 Y119.86 Z2.28 E34.936
G1 X104.36 Y120.76 Z2.28 E35
G1 X103.08 Y121.66 Z2.29 E35.064
G1 X102.14 Y122.85 Z2.29 E35.127
G1 X101.2 Y124.03 Z2.29 E35.189
G1 X100.65 Y125.44 Z2.29 E35.252
G1 X100.09 Y126.84 Z2.3 E35.314
G1 X99.95 Y128.39 Z2.3 E35.379
G1 X99.8 Y129.94 Z2.3 E35.443
G1 X100.05 Y131.45 Z2.3 E35.506
G1 X100.29 Y132.96 Z2.3 E35.569
G1 X99.09 Y132.4 Z2.3 E35.624
G1 X97.89 Y131.84 Z2.3 E35.679
G1 X96.68 Y131.27 Z2.31 E35.733
G1 X95.48 Y130.71 Z2.31 E35.788
G1 X94.28 Y130.15 Z2.32 E35.843
G1 X93.22 Y129.39 Z2.32 E35.897
G1 X92.16 Y128.64 Z2.32 E35.951
G1 X91.1 Y127.88 Z2.33 E36.005
G1 X90.03 Y127.12 Z2.33 E36.058
G1 X88.97 Y126.37 Z2.34 E36.112
G1 X87.91 Y125.61 Z2.34 E36.166
G1 X86.97 Y124.56 Z2.35 E36.224
G1 X86.03 Y123.51 Z2.35 E36.282
G1 X85.08 Y122.46 Z2.35 E36.341
G1 X84.14 Y121.41 Z2.36 E36.399
G1 X83.2 Y120.36 Z2.36 E36.457
G1 X82.62 Y119.22 Z2.36 E36.51
G1 X82.04 Y118.08 Z2.37 E36.563
G1 X81.47 Y116.93 Z2.37 E36.615
G1 X80.89 Y115.79 Z2.37 E36.668
G1 X80.31 Y114.65 Z2.38 E36.721
G1 X80.07 Y113.17 Z2.38 E36.783
G1 X79.83 Y111.69 Z2.38 E36.845
G1 X79.58 Y110.21 Z2.38 E36.907
G1 X79.34 Y108.73 Z2.38 E36.969
G1 X79.58 Y107.25 Z2.38 E37.031
G1 X79.83 Y105.77 Z2.39 E37.093
G1 X80.07 Y104.28 Z2.39 E37.154
G1 X80.31 Y102.8 Z2.39 E37.216
G1 X80.89 Y101.66 Z2.39 E37.269
G1 X81.47 Y100.52 Z2.39 E37.322
G1 X82.04 Y99.37 Z2.39 E37.374
G1 X82.62 Y98.23 Z2.39 E37.427
G1 X83.2 Y97.09 Z2.39 E37.48
G1 X84.14 Y96.04 Z2.39 E37.538
G1 X85.08 Y94.99 Z2.38 E37.596
G1 X86.03 Y93.94 Z2.38 E37.655
G1 X86.97 Y92.89 Z2.38 E37.713
G1 X87.91 Y91.84 Z2.38 E37.771
G1 X88.97 Y91.08 Z2.37 E37.825
G1 X90.03 Y90.33 Z2.37 E37.879
G1 X91.1 Y89.57 Z2.37 E37.933
G1 X92.16 Y88.81 Z2.37 E37.986
G1 X93.22 Y88.06 Z2.36 E38.04
G1 X94.28 Y87.3 Z2.36 E38.094
G1 X96.19 Y86.4 Z2.35 E38.181
G1 X95.62 Y87.59 Z2.35 E38.235
G1 X95.04 Y88.77 Z2.35 E38.29
G1 X94.47 Y89.96 Z2.35 E38.344
G1 X94.12 Y91.21 Z2.35 E38.398
G1 X93.76 Y92.46 Z2.35 E38.451
G1 X93.41 Y93.71 Z2.35 E38.505
G1 X93.43 Y95.31 Z2.35 E38.571
G1 X93.44 Y96.9 Z2.35 E38.637
G1 X94.12 Y98.09 Z2.34 E38.694
G1 X94.8 Y99.27 Z2.34 E38.75
G1 X96.09 Y99.73 Z2.33 E38.806
G1 X97.37 Y100.19 Z2.33 E38.862
G1 X98.95 Y99.93 Z2.32 E38.928
G1 X100.52 Y99.67 Z2.32 E38.994
G1 X101.69 Y99.11 Z2.31 E39.048
G1 X102.86 Y98.54 Z2.31 E39.101
G1 X104.03 Y97.98 Z2.3 E39.155
G1 X105.41 Y96.99 Z2.3 E39.225
G1 X106.78 Y95.99 Z2.29 E39.295
G1 X107.24 Y97.63 Z2.29 E39.365
G1 X108.13 Y98.59 Z2.28 E39.419
G1 X109.02 Y99.54 Z2.28 E39.473
G1 X110.3 Y99.84 Z2.27 E39.527
G1 X111.57 Y100.13 Z2.27 E39.581
G1 X112.99 Y99.77 Z2.26 E39.641
G1 X114.4 Y99.41 Z2.25 E39.701
G1 X115.86 Y98.52 Z2.25 E39.772
G1 X117.31 Y97.63 Z2.25 E39.842
G1 X118.26 Y96.74 Z2.25 E39.896
G1 X119.21 Y95.84 Z2.25 E39.95
G1 X120.16 Y94.95 Z2.24 E40.004
G1 X121.03 Y93.83 Z2.24 E40.063
G1 X121.9 Y92.71 Z2.24 E40.121
G1 X122.77 Y91.59 Z2.24 E40.18
G1 X123.5 Y90.32 Z2.24 E40.24
G1 X124.23 Y89.06 Z2.24 E40.3
G1 X124.96 Y87.79 Z2.24 E40.36
G1 X125 Y87.7 Z2.24 E40.364
G1 X125.04 Y87.79 Z2.24 E40.369
G1 X125.77 Y89.06 Z2.23 E40.429
G1 X126.5 Y90.32 Z2.23 E40.489
G1 X127.23 Y91.59 Z2.23 E40.549
G1 X128.1 Y92.71 Z2.23 E40.608
G1 X128.97 Y93.83 Z2.22 E40.666
G1 X129.84 Y94.95 Z2.22 E40.725
G1 X130.79 Y95.84 Z2.22 E40.779
G1 X131.74 Y96.74 Z2.22 E40.832
G1 X132.69 Y97.63 Z2.22 E40.886
G1 X134.15 Y98.52 Z2.21 E40.957
G1 X135.6 Y99.41 Z2.21 E41.027
G1 X137.02 Y99.77 Z2.21 E41.088
G1 X138.43 Y100.13 Z2.2 E41.148
G1 X139.71 Y99.84 Z2.2 E41.202
G1 X140.98 Y99.54 Z2.2 E41.256
G1 X141.87 Y98.59 Z2.2 E41.31
G1 X142.76 Y97.63 Z2.2 E41.363
G1 X143.22 Y95.98 Z2.2 E41.434
G1 X144.6 Y96.98 Z2.19 E41.504
G1 X145.98 Y97.98 Z2.19 E41.574
G1 X147.15 Y98.54 Z2.19 E41.628
G1 X148.31 Y99.11 Z2.19 E41.681
G1 X149.48 Y99.67 Z2.18 E41.735
G1 X151.06 Y99.93 Z2.18 E41.801
G1 X152.63 Y100.19 Z2.18 E41.867
G1 X153.92 Y99.73 Z2.18 E41.924
G1 X155.2 Y99.27 Z2.17 E41.98
G1 X155.88 Y98.09 Z2.17 E42.036
G1 X156.56 Y96.9 Z2.17 E42.092
G1 X156.58 Y95.31 Z2.17 E42.158
G1 X156.59 Y93.71 Z2.17 E42.224
G1 X156.24 Y92.46 Z2.17 E42.278
G1 X155.88 Y91.21 Z2.17 E42.331
G1 X155.53 Y89.96 Z2.17 E42.385
G1 X154.96 Y88.78 Z2.18 E42.439
G1 X154.38 Y87.59 Z2.18 E42.494
G1 X153.81 Y86.41 Z2.18 E42.548
G1 X155.72 Y87.3 Z2.17 E42.635
G1 X156.78 Y88.06 Z2.17 E42.689
G1 X157.84 Y88.81 Z2.17 E42.743
G1 X158.91 Y89.57 Z2.17 E42.797
G1 X159.97 Y90.33 Z2.17 E42.85
G1 X161.03 Y91.08 Z2.17 E42.904
G1 X162.09 Y91.84 Z2.16 E42.958
G1 X163.03 Y92.89 Z2.16 E43.016
G1 X163.98 Y93.94 Z2.16 E43.074
G1 X164.92 Y94.99 Z2.16 E43.133
G1 X165.87 Y96.04 Z2.16 E43.191
G1 X166.81 Y97.09 Z2.16 E43.249
G1 X167.39 Y98.23 Z2.16 E43.302
G1 X167.96 Y99.37 Z2.16 E43.355
G1 X168.54 Y100.52 Z2.16 E43.407
G1 X169.11 Y101.66 Z2.15 E43.46
G1 X169.69 Y102.8 Z2.15 E43.513
G1 X169.93 Y104.28 Z2.15 E43.575
G1 X170.18 Y105.77 Z2.15 E43.637
G1 X170.42 Y107.25 Z2.15 E43.698
G1 X170.66 Y108.73 Z2.15 E43.76
G1 X170.42 Y110.21 Z2.15 E43.822
G1 X170.18 Y111.69 Z2.15 E43.884
G1 X169.93 Y113.17 Z2.15 E43.946
G1 X169.69 Y114.65 Z2.16 E44.008
G1 X169.11 Y115.79 Z2.16 E44.061
G1 X168.54 Y116.93 Z2.16 E44.114
G1 X167.96 Y118.08 Z2.16 E44.166
G1 X167.39 Y119.22 Z2.16 E44.219
G1 X166.81 Y120.36 Z2.16 E44.272
G1 X165.87 Y121.41 Z2.16 E44.33
G1 X164.92 Y122.46 Z2.17 E44.388
G1 X163.98 Y123.51 Z2.17 E44.447
G1 X163.03 Y124.56 Z2.17 E44.505
G1 X162.09 Y125.61 Z2.17 E44.563
G1 X161.03 Y126.37 Z2.17 E44.617
G1 X159.97 Y127.12 Z2.17 E44.671
G1 X158.91 Y127.88 Z2.18 E44.725
G1 X157.84 Y128.64 Z2.18 E44.778
G1 X156.78 Y129.39 Z2.18 E44.832
G1 X155.72 Y130.15 Z2.18 E44.886
G1 X154.52 Y130.71 Z2.19 E44.941
G1 X153.32 Y131.27 Z2.19 E44.996
G1 X152.11 Y131.84 Z2.19 E45.05
G1 X150.91 Y132.4 Z2.19 E45.105
G1 X149.71 Y132.96 Z2.19 E45.16
G1 X149.96 Y131.45 Z2.19 E45.223
G1 X150.2 Y129.94 Z2.19 E45.286
G1 X150.06 Y128.39 Z2.19 E45.351
G1 X149.91 Y126.84 Z2.19 E45.415
G1 X149.36 Y125.44 Z2.19 E45.478
G1 X148.8 Y124.03 Z2.19 E45.54
G1 X147.86 Y122.85 Z2.19 E45.602
G1 X146.92 Y121.66 Z2.19 E45.664
G1 X145.65 Y120.76 Z2.2 E45.729
G1 X144.38 Y119.86 Z2.2 E45.793
G1 X142.85 Y119.28 Z2.2 E45.861
G1 X141.31 Y118.7 Z2.2 E45.928
G1 X139.59 Y118.45 Z2.21 E46
G1 X137.87 Y118.2 Z2.21 E46.072
G1 X136.02 Y118.3 Z2.21 E46.149
G1 X134.16 Y118.39 Z2.22 E46.225
G1 X133.23 Y118.6 Z2.22 E46.264
G1 X132.93 Y118.67 Z2.22
G1 X133.61 Y119.34 Z2.22 F12000
; TYPE:WALL-OUTER
G1 X133.34 Y120.58 Z2.22 E46.316 F1500
G1 X133.08 Y121.81 Z2.22 E46.368
G1 X132.81 Y123.05 Z2.22 E46.421
G1 X132.55 Y124.28 Z2.22 E46.473
G1 X132.28 Y125.52 Z2.22 E46.525
G1 X132.02 Y126.76 Z2.22 E46.577
G1 X131.75 Y127.99 Z2.23 E46.63
G1 X131.49 Y129.23 Z2.23 E46.682
G1 X131.22 Y130.47 Z2.23 E46.734
G1 X130.96 Y131.7 Z2.23 E46.786
G1 X130.69 Y132.94 Z2.23 E46.839
G1 X130.43 Y134.17 Z2.23 E46.891
G1 X130.16 Y135.41 Z2.23 E46.943
G1 X129.4 Y134.19 Z2.23 E47.002
G1 X128.64 Y132.97 Z2.23 E47.062
G1 X127.87 Y131.75 Z2.23 E47.121
G1 X127.11 Y130.53 Z2.23 E47.18
G1 X125.7 Y130.53 Z2.24 E47.238
G1 X124.3 Y130.53 Z2.24 E47.296
G1 X122.89 Y130.53 Z2.24 E47.354
G1 X122.13 Y131.75 Z2.24 E47.414
G1 X121.37 Y132.97 Z2.24 E47.473
G1 X120.6 Y134.19 Z2.24 E47.533
G1 X119.84 Y135.41 Z2.25 E47.592
G1 X119.57 Y134.17 Z2.25 E47.644
G1 X119.31 Y132.94 Z2.25 E47.696
G1 X119.04 Y131.7 Z2.25 E47.748
G1 X118.78 Y130.47 Z2.25 E47.801
G1 X118.51 Y129.23 Z2.25 E47.853
G1 X118.25 Y127.99 Z2.25 E47.905
G1 X117.98 Y126.76 Z2.25 E47.957
G1 X117.72 Y125.52 Z2.25 E48.009
G1 X117.45 Y124.28 Z2.25 E48.061
G1 X117.19 Y123.05 Z2.25 E48.114
G1 X116.92 Y121.81 Z2.25 E48.166
G1 X116.66 Y120.58 Z2.25 E48.218
G1 X116.39 Y119.34 Z2.25 E48.27
G1 X115.7 Y119.18 Z2.25 E48.3
G1 X113.94 Y119.1 Z2.25 E48.373
G1 X112.17 Y119.01 Z2.26 E48.446
G1 X110.53 Y119.25 Z2.26 E48.514
G1 X108.89 Y119.48 Z2.27 E48.582
G1 X107.45 Y120.03 Z2.27 E48.646
G1 X106 Y120.57 Z2.28 E48.71
G1 X104.82 Y121.41 Z2.28 E48.77
G1 X103.64 Y122.25 Z2.28 E48.829
G1 X102.77 Y123.34 Z2.29 E48.887
G1 X101.9 Y124.43 Z2.29 E48.944
G1 X101.39 Y125.73 Z2.29 E49.002
G1 X100.88 Y127.03 Z2.29 E49.06
G1 X100.75 Y128.47 Z2.29 E49.12
G1 X100.61 Y129.91 Z2.3 E49.179
G1 X100.86 Y131.44 Z2.29 E49.243
G1 X101.1 Y132.96 Z2.29 E49.307
G1 X101.73 Y134.52 Z2.29 E49.376
G1 X100.42 Y133.91 Z2.3 E49.436
G1 X99.11 Y133.3 Z2.3 E49.495
G1 X97.8 Y132.69 Z2.3 E49.555
G1 X96.49 Y132.07 Z2.31 E49.615
G1 X95.18 Y131.46 Z2.31 E49.674
G1 X93.87 Y130.85 Z2.32 E49.734
G1 X92.79 Y130.08 Z2.32 E49.789
G1 X91.71 Y129.3 Z2.32 E49.844
G1 X90.63 Y128.53 Z2.33 E49.899
G1 X89.54 Y127.76 Z2.33 E49.953
G1 X88.46 Y126.98 Z2.34 E50.008
G1 X87.38 Y126.21 Z2.34 E50.063
G1 X86.41 Y125.13 Z2.35 E50.123
G1 X85.44 Y124.05 Z2.35 E50.183
G1 X84.47 Y122.97 Z2.36 E50.242
G1 X83.5 Y121.89 Z2.36 E50.302
G1 X82.53 Y120.81 Z2.36 E50.362
G1 X81.93 Y119.63 Z2.37 E50.417
G1 X81.33 Y118.45 Z2.37 E50.472
G1 X80.74 Y117.26 Z2.37 E50.526
G1 X80.14 Y116.08 Z2.38 E50.581
G1 X79.54 Y114.9 Z2.38 E50.636
G1 X79.34 Y113.67 Z2.38 E50.688
G1 X79.14 Y112.43 Z2.38 E50.739
G1 X78.93 Y111.2 Z2.38 E50.791
G1 X78.73 Y109.96 Z2.38 E50.842
G1 X78.53 Y108.73 Z2.39 E50.894
G1 X78.73 Y107.49 Z2.39 E50.946
G1 X78.93 Y106.26 Z2.39 E50.997
G1 X79.14 Y105.02 Z2.39 E51.049
G1 X79.34 Y103.79 Z2.39 E51.1
G1 X79.54 Y102.55 Z2.39 E51.152
G1 X80.14 Y101.37 Z2.39 E51.207
G1 X80.74 Y100.19 Z2.39 E51.261
G1 X81.33 Y99 Z2.39 E51.316
G1 X81.93 Y97.82 Z2.39 E51.37
G1 X82.53 Y96.64 Z2.39 E51.425
G1 X83.5 Y95.56 Z2.39 E51.485
G1 X84.47 Y94.48 Z2.39 E51.545
G1 X85.44 Y93.4 Z2.38 E51.605
G1 X86.41 Y92.32 Z2.38 E51.665
G1 X87.38 Y91.24 Z2.38 E51.725
G1 X88.46 Y90.47 Z2.38 E51.78
G1 X89.54 Y89.7 Z2.37 E51.835
G1 X90.63 Y88.93 Z2.37 E51.89
G1 X91.71 Y88.15 Z2.37 E51.944
G1 X92.79 Y87.38 Z2.36 E51.999
G1 X93.87 Y86.61 Z2.36 E52.054
G1 X95.34 Y85.92 Z2.35 E52.121
G1 X96.81 Y85.24 Z2.35 E52.188
G1 X98.28 Y84.55 Z2.34 E52.255
G1 X97.17 Y86.24 Z2.34 E52.338
G1 X96.52 Y87.57 Z2.35 E52.399
G1 X95.87 Y88.91 Z2.35 E52.461
G1 X95.22 Y90.24 Z2.35 E52.522
G1 X94.72 Y92.03 Z2.35 E52.599
G1 X94.21 Y93.81 Z2.35 E52.675
G1 X94.23 Y95.25 Z2.35 E52.735
G1 X94.24 Y96.68 Z2.35 E52.794
G1 X95.35 Y98.61 Z2.34 E52.886
G1 X97.44 Y99.37 Z2.33 E52.978
G1 X98.86 Y99.14 Z2.32 E53.037
G1 X100.27 Y98.9 Z2.32 E53.096
G1 X101.94 Y98.1 Z2.31 E53.173
G1 X103.61 Y97.29 Z2.31 E53.249
G1 X104.81 Y96.42 Z2.3 E53.31
G1 X106.02 Y95.54 Z2.3 E53.372
G1 X107.22 Y94.67 Z2.29 E53.433
G1 X107.25 Y94.65 Z2.29 E53.434
G1 X107.25 Y94.72 Z2.29 E53.438
G1 X107.61 Y95.98 Z2.29 E53.492
G1 X107.96 Y97.23 Z2.28 E53.545
G1 X109.44 Y98.82 Z2.28 E53.635
G1 X111.56 Y99.31 Z2.27 E53.724
G1 X112.83 Y98.99 Z2.26 E53.778
G1 X114.09 Y98.67 Z2.26 E53.832
G1 X115.46 Y97.83 Z2.25 E53.899
G1 X116.82 Y96.99 Z2.25 E53.965
G1 X117.74 Y96.13 Z2.25 E54.017
G1 X118.65 Y95.27 Z2.25 E54.068
G1 X119.57 Y94.41 Z2.25 E54.12
G1 X120.42 Y93.32 Z2.24 E54.177
G1 X121.26 Y92.23 Z2.24 E54.234
G1 X122.11 Y91.14 Z2.24 E54.291
G1 X122.82 Y89.91 Z2.24 E54.35
G1 X123.53 Y88.67 Z2.24 E54.408
G1 X124.24 Y87.44 Z2.24 E54.467
G1 X125 Y85.58 Z2.24 E54.55
G1 X125.76 Y87.44 Z2.23 E54.633
G1 X126.47 Y88.67 Z2.23 E54.692
G1 X127.18 Y89.91 Z2.23 E54.75
G1 X127.89 Y91.14 Z2.23 E54.809
G1 X128.74 Y92.23 Z2.22 E54.866
G1 X129.59 Y93.32 Z2.22 E54.923
G1 X130.44 Y94.41 Z2.22 E54.98
G1 X131.35 Y95.27 Z2.22 E55.032
G1 X132.27 Y96.13 Z2.22 E55.084
G1 X133.18 Y96.99 Z2.21 E55.136
G1 X134.55 Y97.83 Z2.21 E55.202
G1 X135.92 Y98.67 Z2.21 E55.268
G1 X137.18 Y98.99 Z2.21 E55.322
G1 X138.44 Y99.31 Z2.2 E55.376
G1 X140.56 Y98.82 Z2.2 E55.465
G1 X142.04 Y97.23 Z2.2 E55.555
G1 X142.4 Y95.96 Z2.2 E55.61
G1 X142.75 Y94.69 Z2.2 E55.664
G1 X142.75 Y94.65 Z2.2 E55.666
G1 X142.78 Y94.67 Z2.2 E55.667
G1 X143.98 Y95.54 Z2.19 E55.728
G1 X145.19 Y96.42 Z2.19 E55.79
G1 X146.39 Y97.29 Z2.19 E55.851
G1 X148.06 Y98.1 Z2.19 E55.928
G1 X149.73 Y98.9 Z2.18 E56.004
G1 X151.15 Y99.14 Z2.18 E56.064
G1 X152.56 Y99.37 Z2.18 E56.123
G1 X154.65 Y98.61 Z2.18 E56.215
G1 X155.76 Y96.68 Z2.17 E56.306
G1 X155.78 Y95.25 Z2.17 E56.366
G1 X155.79 Y93.81 Z2.17 E56.425
G1 X155.29 Y92.03 Z2.17 E56.502
G1 X154.78 Y90.24 Z2.18 E56.578
G1 X154.13 Y88.91 Z2.18 E56.639
G1 X153.49 Y87.57 Z2.18 E56.701
G1 X152.84 Y86.24 Z2.18 E56.762
G1 X151.72 Y84.55 Z2.18 E56.845
G1 X153.19 Y85.24 Z2.18 E56.912
G1 X154.66 Y85.92 Z2.18 E56.979
G1 X156.13 Y86.61 Z2.17 E57.046
G1 X157.21 Y87.38 Z2.17 E57.101
G1 X158.29 Y88.15 Z2.17 E57.156
G1 X159.38 Y88.93 Z2.17 E57.211
G1 X160.46 Y89.7 Z2.17 E57.265
G1 X161.54 Y90.47 Z2.16 E57.32
G1 X162.62 Y91.24 Z2.16 E57.375
G1 X163.59 Y92.32 Z2.16 E57.435
G1 X164.56 Y93.4 Z2.16 E57.495
G1 X165.53 Y94.48 Z2.16 E57.555
G1 X166.5 Y95.56 Z2.16 E57.615
G1 X167.47 Y96.64 Z2.16 E57.675
G1 X168.07 Y97.82 Z2.16 E57.73
G1 X168.67 Y99 Z2.16 E57.784
G1 X169.26 Y100.19 Z2.15 E57.839
G1 X169.86 Y101.37 Z2.15 E57.893
G1 X170.46 Y102.55 Z2.15 E57.948
G1 X170.66 Y103.79 Z2.15 E58
G1 X170.86 Y105.02 Z2.15 E58.051
G1 X171.07 Y106.26 Z2.15 E58.103
G1 X171.27 Y107.49 Z2.15 E58.154
G1 X171.47 Y108.73 Z2.15 E58.206
G1 X171.27 Y109.96 Z2.15 E58.258
G1 X171.07 Y111.2 Z2.15 E58.309
G1 X170.86 Y112.43 Z2.15 E58.361
G1 X170.66 Y113.67 Z2.15 E58.412
G1 X170.46 Y114.9 Z2.15 E58.464
G1 X169.86 Y116.08 Z2.16 E58.519
G1 X169.26 Y117.26 Z2.16 E58.574
G1 X168.67 Y118.45 Z2.16 E58.628
G1 X168.07 Y119.63 Z2.16 E58.683
G1 X167.47 Y120.81 Z2.16 E58.738
G1 X166.5 Y121.89 Z2.16 E58.798
G1 X165.53 Y122.97 Z2.17 E58.858
G1 X164.56 Y124.05 Z2.17 E58.917
G1 X163.59 Y125.13 Z2.17 E58.977
G1 X162.62 Y126.21 Z2.17 E59.037
G1 X161.54 Y126.98 Z2.17 E59.092
G1 X160.46 Y127.76 Z2.17 E59.147
G1 X159.38 Y128.53 Z2.18 E59.202
G1 X158.29 Y129.3 Z2.18 E59.257
G1 X157.21 Y130.08 Z2.18 E59.312
G1 X156.13 Y130.85 Z2.18 E59.367
G1 X154.82 Y131.46 Z2.19 E59.427
G1 X153.51 Y132.07 Z2.19 E59.486
G1 X152.2 Y132.68 Z2.19 E59.546
G1 X150.89 Y133.29 Z2.19 E59.605
G1 X149.58 Y133.9 Z2.2 E59.665
G1 X148.27 Y134.51 Z2.2 E59.724
G1 X148.9 Y132.96 Z2.2 E59.793
G1 X149.15 Y131.44 Z2.2 E59.857
G1 X149.39 Y129.91 Z2.19 E59.92
G1 X149.26 Y128.47 Z2.19 E59.98
G1 X149.12 Y127.03 Z2.19 E60.04
G1 X148.61 Y125.73 Z2.19 E60.098
G1 X148.1 Y124.43 Z2.19 E60.155
G1 X147.23 Y123.34 Z2.2 E60.213
G1 X146.36 Y122.25 Z2.2 E60.27
G1 X145.18 Y121.41 Z2.2 E60.33
G1 X144 Y120.57 Z2.2 E60.39
G1 X142.56 Y120.03 Z2.2 E60.454
G1 X141.11 Y119.48 Z2.2 E60.517
G1 X139.47 Y119.25 Z2.21 E60.586
G1 X137.83 Y119.01 Z2.21 E60.654
G1 X136.05 Y119.1 Z2.21 E60.728
G1 X134.27 Y119.19 Z2.22 E60.801
G1 X133.9 Y119.27 Z2.22 E60.817
G1 X133.61 Y119.34 Z2.22
G1 X133.52 Y119.73 Z2.22
G1 X133.27 Y119 Z2.22 F12000
; TYPE:WALL-INNER
G1 X133 Y120.28 Z2.22 E60.871 F1500
G1 X132.72 Y121.56 Z2.22 E60.925
G1 X132.45 Y122.84 Z2.22 E60.979
G1 X132.17 Y124.12 Z2.22 E61.033
G1 X131.9 Y125.4 Z2.22 E61.087
G1 X131.63 Y126.68 Z2.22 E61.141
G1 X131.35 Y127.96 Z2.23 E61.195
G1 X131.08 Y129.24 Z2.23 E61.249
G1 X130.8 Y130.52 Z2.23 E61.303
G1 X130.53 Y131.8 Z2.23 E61.357
G1 X130.25 Y133.08 Z2.23 E61.411
G1 X129.98 Y134.36 Z2.23 E61.465
G1 X129.1 Y132.95 Z2.23 E61.534
G1 X128.21 Y131.54 Z2.23 E61.602
G1 X127.33 Y130.13 Z2.23 E61.671
G1 X125.78 Y130.13 Z2.24 E61.735
G1 X124.22 Y130.13 Z2.24 E61.8
G1 X122.67 Y130.13 Z2.24 E61.864
G1 X121.79 Y131.54 Z2.24 E61.933
G1 X120.9 Y132.95 Z2.24 E62.001
G1 X120.02 Y134.36 Z2.25 E62.07
G1 X119.75 Y133.08 Z2.25 E62.124
G1 X119.47 Y131.8 Z2.25 E62.178
G1 X119.2 Y130.52 Z2.25 E62.232
G1 X118.92 Y129.24 Z2.25 E62.286
G1 X118.65 Y127.96 Z2.25 E62.34
G1 X118.38 Y126.68 Z2.25 E62.394
G1 X118.1 Y125.4 Z2.25 E62.448
G1 X117.83 Y124.12 Z2.25 E62.502
G1 X117.55 Y122.84 Z2.25 E62.556
G1 X117.28 Y121.56 Z2.25 E62.61
G1 X117 Y120.28 Z2.25 E62.664
G1 X116.73 Y119 Z2.25 E62.718
G1 X115.75 Y118.78 Z2.25 E62.759
G1 X113.95 Y118.7 Z2.25 E62.834
G1 X112.15 Y118.61 Z2.26 E62.908
G1 X110.47 Y118.85 Z2.26 E62.978
G1 X108.79 Y119.09 Z2.27 E63.048
G1 X107.31 Y119.66 Z2.27 E63.114
G1 X105.82 Y120.22 Z2.28 E63.179
G1 X104.59 Y121.09 Z2.28 E63.241
G1 X103.36 Y121.95 Z2.28 E63.303
G1 X102.46 Y123.09 Z2.29 E63.363
G1 X101.55 Y124.23 Z2.29 E63.423
G1 X101.02 Y125.58 Z2.29 E63.483
G1 X100.49 Y126.93 Z2.3 E63.543
G1 X100.35 Y128.43 Z2.3 E63.605
G1 X100.21 Y129.93 Z2.3 E63.667
G1 X100.47 Y131.5 Z2.3 E63.733
G1 X100.72 Y133.07 Z2.3 E63.799
G1 X100.98 Y133.73 Z2.3 E63.828
G1 X99.83 Y133.19 Z2.3 E63.88
G1 X98.68 Y132.65 Z2.3 E63.933
G1 X97.53 Y132.12 Z2.31 E63.985
G1 X96.37 Y131.58 Z2.31 E64.037
G1 X95.22 Y131.04 Z2.31 E64.09
G1 X94.07 Y130.5 Z2.32 E64.142
G1 X93 Y129.74 Z2.32 E64.196
G1 X91.93 Y128.97 Z2.32 E64.251
G1 X90.86 Y128.21 Z2.33 E64.305
G1 X89.78 Y127.44 Z2.33 E64.359
G1 X88.71 Y126.68 Z2.34 E64.414
G1 X87.64 Y125.91 Z2.34 E64.468
G1 X86.68 Y124.85 Z2.35 E64.527
G1 X85.73 Y123.78 Z2.35 E64.586
G1 X84.77 Y122.72 Z2.35 E64.646
G1 X83.82 Y121.65 Z2.36 E64.705
G1 X82.86 Y120.59 Z2.36 E64.764
G1 X82.27 Y119.43 Z2.37 E64.818
G1 X81.69 Y118.27 Z2.37 E64.871
G1 X81.1 Y117.1 Z2.37 E64.925
G1 X80.52 Y115.94 Z2.37 E64.978
G1 X79.93 Y114.78 Z2.38 E65.032
G1 X79.68 Y113.27 Z2.38 E65.095
G1 X79.44 Y111.76 Z2.38 E65.159
G1 X79.19 Y110.24 Z2.38 E65.222
G1 X78.94 Y108.73 Z2.38 E65.285
G1 X79.19 Y107.22 Z2.39 E65.348
G1 X79.44 Y105.71 Z2.39 E65.412
G1 X79.68 Y104.19 Z2.39 E65.475
G1 X79.93 Y102.68 Z2.39 E65.538
G1 X80.52 Y101.52 Z2.39 E65.592
G1 X81.1 Y100.36 Z2.39 E65.646
G1 X81.69 Y99.19 Z2.39 E65.699
G1 X82.27 Y98.03 Z2.39 E65.753
G1 X82.86 Y96.87 Z2.39 E65.807
G1 X83.82 Y95.8 Z2.39 E65.866
G1 X84.77 Y94.74 Z2.38 E65.925
G1 X85.73 Y93.67 Z2.38 E65.984
G1 X86.68 Y92.61 Z2.38 E66.043
G1 X87.64 Y91.54 Z2.38 E66.102
G1 X88.71 Y90.78 Z2.38 E66.156
G1 X89.78 Y90.01 Z2.37 E66.211
G1 X90.86 Y89.25 Z2.37 E66.265
G1 X91.93 Y88.48 Z2.37 E66.319
G1 X93 Y87.72 Z2.36 E66.374
G1 X94.07 Y86.95 Z2.36 E66.428
G1 X95.62 Y86.23 Z2.35 E66.499
G1 X97.17 Y85.51 Z2.34 E66.569
G1 X96.82 Y86.04 Z2.35 E66.595
G1 X96.16 Y87.39 Z2.35 E66.657
G1 X95.5 Y88.75 Z2.35 E66.719
G1 X94.84 Y90.1 Z2.35 E66.781
G1 X94.5 Y91.32 Z2.35 E66.833
G1 X94.15 Y92.54 Z2.35 E66.886
G1 X93.81 Y93.76 Z2.35 E66.938
G1 X93.83 Y95.28 Z2.35 E67.001
G1 X93.84 Y96.79 Z2.35 E67.063
G1 X95.07 Y98.94 Z2.34 E67.166
G1 X97.41 Y99.78 Z2.33 E67.268
G1 X98.9 Y99.53 Z2.32 E67.331
G1 X100.39 Y99.28 Z2.32 E67.393
G1 X101.53 Y98.73 Z2.31 E67.445
G1 X102.68 Y98.18 Z2.31 E67.498
G1 X103.82 Y97.63 Z2.3 E67.55
G1 X104.88 Y96.86 Z2.3 E67.604
G1 X105.95 Y96.1 Z2.3 E67.658
G1 X107.01 Y95.33 Z2.29 E67.712
G1 X107.6 Y97.43 Z2.29 E67.803
G1 X109.23 Y99.18 Z2.28 E67.901
G1 X111.56 Y99.72 Z2.27 E68
G1 X112.9 Y99.38 Z2.26 E68.057
G1 X114.24 Y99.04 Z2.26 E68.114
G1 X115.66 Y98.18 Z2.25 E68.183
G1 X117.07 Y97.31 Z2.25 E68.251
G1 X118 Y96.43 Z2.25 E68.304
G1 X118.93 Y95.56 Z2.25 E68.356
G1 X119.86 Y94.68 Z2.24 E68.409
G1 X120.72 Y93.57 Z2.24 E68.467
G1 X121.58 Y92.47 Z2.24 E68.524
G1 X122.44 Y91.36 Z2.24 E68.582
G1 X123.16 Y90.11 Z2.24 E68.642
G1 X123.88 Y88.87 Z2.24 E68.701
G1 X124.6 Y87.62 Z2.24 E68.761
G1 X125 Y86.64 Z2.24 E68.804
G1 X125.4 Y87.62 Z2.24 E68.848
G1 X126.12 Y88.87 Z2.23 E68.908
G1 X126.84 Y90.11 Z2.23 E68.967
G1 X127.56 Y91.36 Z2.23 E69.027
G1 X128.42 Y92.47 Z2.22 E69.085
G1 X129.28 Y93.57 Z2.22 E69.142
G1 X130.14 Y94.68 Z2.22 E69.2
G1 X131.07 Y95.56 Z2.22 E69.253
G1 X132.01 Y96.43 Z2.22 E69.305
G1 X132.94 Y97.31 Z2.21 E69.358
G1 X134.35 Y98.18 Z2.21 E69.427
G1 X135.76 Y99.04 Z2.21 E69.495
G1 X137.1 Y99.38 Z2.21 E69.552
G1 X138.44 Y99.72 Z2.2 E69.609
G1 X140.77 Y99.18 Z2.2 E69.708
G1 X142.4 Y97.43 Z2.2 E69.806
G1 X142.99 Y95.32 Z2.2 E69.897
G1 X144.05 Y96.09 Z2.19 E69.951
G1 X145.12 Y96.86 Z2.19 E70.005
G1 X146.18 Y97.63 Z2.19 E70.059
G1 X147.32 Y98.18 Z2.19 E70.111
G1 X148.47 Y98.73 Z2.19 E70.164
G1 X149.61 Y99.28 Z2.18 E70.216
G1 X151.1 Y99.53 Z2.18 E70.279
G1 X152.59 Y99.78 Z2.18 E70.341
G1 X154.93 Y98.94 Z2.18 E70.444
G1 X156.16 Y96.79 Z2.17 E70.546
G1 X156.18 Y95.28 Z2.17 E70.609
G1 X156.19 Y93.76 Z2.17 E70.671
G1 X155.85 Y92.54 Z2.17 E70.723
G1 X155.5 Y91.32 Z2.17 E70.776
G1 X155.16 Y90.1 Z2.17 E70.828
G1 X154.5 Y88.75 Z2.18 E70.89
G1 X153.84 Y87.39 Z2.18 E70.952
G1 X153.18 Y86.04 Z2.18 E71.014
G1 X152.84 Y85.51 Z2.18 E71.04
G1 X154.39 Y86.23 Z2.18 E71.111
G1 X155.93 Y86.95 Z2.17 E71.181
G1 X157 Y87.72 Z2.17 E71.235
G1 X158.07 Y88.48 Z2.17 E71.29
G1 X159.15 Y89.25 Z2.17 E71.344
G1 X160.22 Y90.01 Z2.17 E71.398
G1 X161.29 Y90.78 Z2.17 E71.453
G1 X162.36 Y91.54 Z2.16 E71.507
G1 X163.32 Y92.61 Z2.16 E71.566
G1 X164.27 Y93.67 Z2.16 E71.625
G1 X165.23 Y94.74 Z2.16 E71.684
G1 X166.18 Y95.8 Z2.16 E71.743
G1 X167.14 Y96.87 Z2.16 E71.802
G1 X167.73 Y98.03 Z2.16 E71.856
G1 X168.32 Y99.19 Z2.16 E71.91
G1 X168.9 Y100.36 Z2.15 E71.963
G1 X169.49 Y101.52 Z2.15 E72.017
G1 X170.08 Y102.68 Z2.15 E72.071
G1 X170.33 Y104.19 Z2.15 E72.134
G1 X170.57 Y105.71 Z2.15 E72.198
G1 X170.82 Y107.22 Z2.15 E72.261
G1 X171.06 Y108.73 Z2.15 E72.324
G1 X170.82 Y110.24 Z2.15 E72.387
G1 X170.57 Y111.76 Z2.15 E72.451
G1 X170.33 Y113.27 Z2.15 E72.514
G1 X170.08 Y114.78 Z2.16 E72.577
G1 X169.49 Y115.94 Z2.16 E72.631
G1 X168.9 Y117.1 Z2.16 E72.685
G1 X168.32 Y118.27 Z2.16 E72.738
G1 X167.73 Y119.43 Z2.16 E72.792
G1 X167.14 Y120.59 Z2.16 E72.846
G1 X166.18 Y121.65 Z2.16 E72.905
G1 X165.23 Y122.72 Z2.17 E72.964
G1 X164.27 Y123.78 Z2.17 E73.023
G1 X163.32 Y124.85 Z2.17 E73.082
G1 X162.36 Y125.91 Z2.17 E73.141
G1 X161.29 Y126.68 Z2.17 E73.195
G1 X160.22 Y127.44 Z2.17 E73.25
G1 X159.15 Y128.21 Z2.18 E73.304
G1 X158.07 Y128.97 Z2.18 E73.358
G1 X157 Y129.74 Z2.18 E73.413
G1 X155.93 Y130.5 Z2.18 E73.467
G1 X154.78 Y131.04 Z2.18 E73.519
G1 X153.63 Y131.57 Z2.19 E73.572
G1 X152.48 Y132.11 Z2.19 E73.624
G1 X151.32 Y132.65 Z2.19 E73.676
G1 X150.17 Y133.18 Z2.19 E73.729
G1 X149.02 Y133.72 Z2.2 E73.781
G1 X149.28 Y133.07 Z2.2 E73.81
G1 X149.54 Y131.5 Z2.19 E73.876
G1 X149.79 Y129.93 Z2.19 E73.942
G1 X149.65 Y128.43 Z2.19 E74.004
G1 X149.51 Y126.93 Z2.19 E74.066
G1 X148.98 Y125.58 Z2.19 E74.126
G1 X148.45 Y124.23 Z2.19 E74.186
G1 X147.55 Y123.09 Z2.19 E74.246
G1 X146.64 Y121.95 Z2.2 E74.305
G1 X145.42 Y121.09 Z2.2 E74.368
G1 X144.19 Y120.22 Z2.2 E74.43
G1 X142.7 Y119.66 Z2.2 E74.496
G1 X141.21 Y119.09 Z2.2 E74.561
G1 X139.53 Y118.85 Z2.21 E74.631
G1 X137.85 Y118.61 Z2.21 E74.701
G1 X136.04 Y118.7 Z2.21 E74.776
G1 X134.22 Y118.79 Z2.22 E74.851
G1 X133.56 Y118.94 Z2.22 E74.879
G1 X133.27 Y119 Z2.22
G1 X129.87 Y132.4 Z2.23 F12000
; TYPE:BOTTOM-FILL
G1 X129.37 Y132.4 Z2.23 E74.899 F1500
G1 X129.12 Y132 Z2.23 F12000
G1 X129.95 Y132 Z2.23 E74.934 F1500
G1 X130.04 Y131.6 Z2.23 F12000
G1 X128.87 Y131.6 Z2.23 E74.982 F1500
G1 X128.62 Y131.2 Z2.23 F12000
G1 X130.12 Y131.2 Z2.23 E75.044 F1500
G1 X130.21 Y130.8 Z2.23 F12000
G1 X128.37 Y130.8 Z2.23 E75.12 F1500
G1 X128.12 Y130.4 Z2.23 F12000
G1 X130.29 Y130.4 Z2.23 E75.21 F1500
G1 X130.38 Y130 Z2.23 F12000
G1 X129.13 Y130 Z2.23 E75.262 F1500
G1 X127.87 Y130 Z2.23 E75.314
G1 X123.61 Y129.74 Z2.24 F12000
G1 X121.52 Y131.26 Z2.24
G1 X120.63 Y132.4 Z2.24
G1 X120.13 Y132.4 Z2.24 E75.335 F1500
G1 X120.05 Y132 Z2.24 F12000
G1 X120.88 Y132 Z2.24 E75.369 F1500
G1 X121.13 Y131.6 Z2.24 F12000
G1 X119.96 Y131.6 Z2.24 E75.418 F1500
G1 X119.88 Y131.2 Z2.24 F12000
G1 X121.38 Y131.2 Z2.24 E75.48 F1500
G1 X121.63 Y130.8 Z2.24 F12000
G1 X119.79 Y130.8 Z2.24 E75.556 F1500
G1 X119.7 Y130.4 Z2.24 F12000
G1 X121.88 Y130.4 Z2.24 E75.646 F1500
G1 X122.13 Y130 Z2.24 F12000
G1 X120.88 Y130 Z2.24 E75.698 F1500
G1 X119.62 Y130 Z2.24 E75.75
G1 X119.53 Y129.6 Z2.24 F12000
G1 X120.9 Y129.6 Z2.24 E75.806 F1500
G1 X122.27 Y129.6 Z2.24 E75.863
G1 X123.63 Y129.6 Z2.24 E75.919
G1 X125 Y129.6 Z2.24 E75.976
G1 X126.37 Y129.6 Z2.23 E76.032
G1 X127.74 Y129.6 Z2.23 E76.088
G1 X129.1 Y129.6 Z2.23 E76.145
G1 X130.47 Y129.6 Z2.23 E76.201
G1 X130.55 Y129.2 Z2.23 F12000
G1 X129.16 Y129.2 Z2.23 E76.258 F1500
G1 X127.78 Y129.2 Z2.23 E76.316
G1 X126.39 Y129.2 Z2.23 E76.373
G1 X125 Y129.2 Z2.24 E76.43
G1 X123.61 Y129.2 Z2.24 E76.487
G1 X122.23 Y129.2 Z2.24 E76.545
G1 X120.84 Y129.2 Z2.24 E76.602
G1 X119.45 Y129.2 Z2.24 E76.659
G1 X119.36 Y128.8 Z2.25 F12000
G1 X120.61 Y128.8 Z2.24 E76.711 F1500
G1 X121.87 Y128.8 Z2.24 E76.762
G1 X123.12 Y128.8 Z2.24 E76.814
G1 X124.37 Y128.8 Z2.24 E76.866
G1 X125.63 Y128.8 Z2.24 E76.917
G1 X126.88 Y128.8 Z2.23 E76.969
G1 X128.13 Y128.8 Z2.23 E77.021
G1 X129.39 Y128.8 Z2.23 E77.072
G1 X130.64 Y128.8 Z2.23 E77.124
G1 X130.72 Y128.4 Z2.23 F12000
G1 X129.45 Y128.4 Z2.23 E77.177 F1500
G1 X128.18 Y128.4 Z2.23 E77.229
G1 X126.91 Y128.4 Z2.23 E77.282
G1 X125.64 Y128.4 Z2.23 E77.334
G1 X124.36 Y128.4 Z2.24 E77.387
G1 X123.09 Y128.4 Z2.24 E77.439
G1 X121.82 Y128.4 Z2.24 E77.492
G1 X120.55 Y128.4 Z2.24 E77.544
G1 X119.28 Y128.4 Z2.25 E77.597
G1 X119.19 Y128 Z2.25 F12000
G1 X120.48 Y128 Z2.24 E77.65 F1500
G1 X121.77 Y128 Z2.24 E77.703
G1 X123.06 Y128 Z2.24 E77.757
G1 X124.35 Y128 Z2.24 E77.81
G1 X125.65 Y128 Z2.23 E77.863
G1 X126.94 Y128 Z2.23 E77.916
G1 X128.23 Y128 Z2.23 E77.97
G1 X129.52 Y128 Z2.23 E78.023
G1 X130.81 Y128 Z2.23 E78.076
G1 X130.89 Y127.6 Z2.23 F12000
G1 X129.58 Y127.6 Z2.23 E78.13 F1500
G1 X128.27 Y127.6 Z2.23 E78.184
G1 X126.96 Y127.6 Z2.23 E78.238
G1 X125.65 Y127.6 Z2.23 E78.292
G1 X124.34 Y127.6 Z2.24 E78.347
G1 X123.03 Y127.6 Z2.24 E78.401
G1 X121.72 Y127.6 Z2.24 E78.455
G1 X120.41 Y127.6 Z2.24 E78.509
G1 X119.1 Y127.6 Z2.25 E78.563
G1 X119.02 Y127.2 Z2.25 F12000
G1 X120.35 Y127.2 Z2.24 E78.618 F1500
G1 X121.68 Y127.2 Z2.24 E78.673
G1 X123.01 Y127.2 Z2.24 E78.727
G1 X124.34 Y127.2 Z2.24 E78.782
G1 X125.66 Y127.2 Z2.23 E78.837
G1 X126.99 Y127.2 Z2.23 E78.892
G1 X128.32 Y127.2 Z2.23 E78.946
G1 X129.65 Y127.2 Z2.23 E79.001
G1 X130.98 Y127.2 Z2.23 E79.056
G1 X131.07 Y126.8 Z2.23 F12000
G1 X129.72 Y126.8 Z2.23 E79.112 F1500
G1 X128.37 Y126.8 Z2.23 E79.167
G1 X127.02 Y126.8 Z2.23 E79.223
G1 X125.67 Y126.8 Z2.23 E79.279
G1 X124.33 Y126.8 Z2.24 E79.334
G1 X122.98 Y126.8 Z2.24 E79.39
G1 X121.63 Y126.8 Z2.24 E79.446
G1 X120.28 Y126.8 Z2.24 E79.501
G1 X118.93 Y126.8 Z2.25 E79.557
G1 X118.85 Y126.4 Z2.25 F12000
G1 X120.22 Y126.4 Z2.24 E79.613 F1500
G1 X121.58 Y126.4 Z2.24 E79.67
G1 X122.95 Y126.4 Z2.24 E79.726
G1 X124.32 Y126.4 Z2.24 E79.783
G1 X125.68 Y126.4 Z2.23 E79.839
G1 X127.05 Y126.4 Z2.23 E79.896
G1 X128.42 Y126.4 Z2.23 E79.952
G1 X129.78 Y126.4 Z2.23 E80.009
G1 X131.15 Y126.4 Z2.23 E80.065
G1 X131.24 Y126 Z2.23 F12000
G1 X129.85 Y126 Z2.23 E80.122 F1500
G1 X128.47 Y126 Z2.23 E80.179
G1 X127.08 Y126 Z2.23 E80.237
G1 X125.69 Y126 Z2.23 E80.294
G1 X124.31 Y126 Z2.24 E80.351
G1 X122.92 Y126 Z2.24 E80.408
G1 X121.53 Y126 Z2.24 E80.466
G1 X120.15 Y126 Z2.24 E80.523
G1 X118.76 Y126 Z2.25 E80.58
G1 X118.67 Y125.6 Z2.25 F12000
G1 X119.94 Y125.6 Z2.24 E80.632 F1500
G1 X121.2 Y125.6 Z2.24 E80.684
G1 X122.47 Y125.6 Z2.24 E80.737
G1 X123.73 Y125.6 Z2.24 E80.789
G1 X125 Y125.6 Z2.24 E80.841
G1 X126.26 Y125.6 Z2.23 E80.893
G1 X127.53 Y125.6 Z2.23 E80.945
G1 X128.79 Y125.6 Z2.23 E80.998
G1 X130.06 Y125.6 Z2.23 E81.05
G1 X131.32 Y125.6 Z2.22 E81.102
G1 X131.41 Y125.2 Z2.22 F12000
G1 X130.13 Y125.2 Z2.23 E81.155 F1500
G1 X128.85 Y125.2 Z2.23 E81.208
G1 X127.56 Y125.2 Z2.23 E81.261
G1 X126.28 Y125.2 Z2.23 E81.314
G1 X125 Y125.2 Z2.24 E81.367
G1 X123.72 Y125.2 Z2.24 E81.419
G1 X122.44 Y125.2 Z2.24 E81.472
G1 X121.15 Y125.2 Z2.24 E81.525
G1 X119.87 Y125.2 Z2.24 E81.578
G1 X118.59 Y125.2 Z2.25 E81.631
G1 X118.5 Y124.8 Z2.25 F12000
G1 X119.8 Y124.8 Z2.24 E81.685 F1500
G1 X121.1 Y124.8 Z2.24 E81.738
G1 X122.4 Y124.8 Z2.24 E81.792
G1 X123.7 Y124.8 Z2.24 E81.845
G1 X125 Y124.8 Z2.24 E81.899
G1 X126.29 Y124.8 Z2.23 E81.953
G1 X127.59 Y124.8 Z2.23 E82.006
G1 X128.89 Y124.8 Z2.23 E82.06
G1 X130.19 Y124.8 Z2.23 E82.113
G1 X131.49 Y124.8 Z2.22 E82.167
G1 X131.58 Y124.4 Z2.22 F12000
G1 X130.26 Y124.4 Z2.23 E82.221 F1500
G1 X128.95 Y124.4 Z2.23 E82.276
G1 X127.63 Y124.4 Z2.23 E82.33
G1 X126.32 Y124.4 Z2.23 E82.384
G1 X125 Y124.4 Z2.24 E82.439
G1 X123.68 Y124.4 Z2.24 E82.493
G1 X122.37 Y124.4 Z2.24 E82.547
G1 X121.05 Y124.4 Z2.24 E82.601
G1 X119.74 Y124.4 Z2.24 E82.656
G1 X118.42 Y124.4 Z2.25 E82.71
G1 X118.33 Y124 Z2.25 F12000
G1 X119.66 Y124 Z2.24 E82.765 F1500
G1 X121 Y124 Z2.24 E82.82
G1 X122.33 Y124 Z2.24 E82.875
G1 X123.67 Y124 Z2.24 E82.93
G1 X125 Y124 Z2.23 E82.985
G1 X126.33 Y124 Z2.23 E83.04
G1 X127.67 Y124 Z2.23 E83.095
G1 X129 Y124 Z2.23 E83.15
G1 X130.34 Y124 Z2.23 E83.205
G1 X131.67 Y124 Z2.22 E83.26
G1 X131.75 Y123.6 Z2.22 F12000
G1 X130.4 Y123.6 Z2.23 E83.316 F1500
G1 X129.05 Y123.6 Z2.23 E83.372
G1 X127.7 Y123.6 Z2.23 E83.427
G1 X126.35 Y123.6 Z2.23 E83.483
G1 X125 Y123.6 Z2.23 E83.539
G1 X123.65 Y123.6 Z2.24 E83.595
G1 X122.3 Y123.6 Z2.24 E83.651
G1 X120.95 Y123.6 Z2.24 E83.706
G1 X119.6 Y123.6 Z2.24 E83.762
G1 X118.25 Y123.6 Z2.25 E83.818
G1 X118.16 Y123.2 Z2.25 F12000
G1 X119.53 Y123.2 Z2.24 E83.874 F1500
G1 X120.9 Y123.2 Z2.24 E83.931
G1 X122.26 Y123.2 Z2.24 E83.987
G1 X123.63 Y123.2 Z2.24 E84.044
G1 X125 Y123.2 Z2.23 E84.1
G1 X126.37 Y123.2 Z2.23 E84.156
G1 X127.74 Y123.2 Z2.23 E84.213
G1 X129.1 Y123.2 Z2.23 E84.269
G1 X130.47 Y123.2 Z2.23 E84.326
G1 X131.84 Y123.2 Z2.22 E84.382
G1 X131.92 Y122.8 Z2.22 F12000
G1 X130.66 Y122.8 Z2.22 E84.434 F1500
G1 X129.4 Y122.8 Z2.23 E84.486
G1 X128.14 Y122.8 Z2.23 E84.538
G1 X126.88 Y122.8 Z2.23 E84.59
G1 X125.62 Y122.8 Z2.23 E84.642
G1 X124.37 Y122.8 Z2.24 E84.694
G1 X123.11 Y122.8 Z2.24 E84.746
G1 X121.85 Y122.8 Z2.24 E84.798
G1 X120.59 Y122.8 Z2.24 E84.85
G1 X119.33 Y122.8 Z2.24 E84.902
G1 X118.07 Y122.8 Z2.25 E84.954
G1 X117.99 Y122.4 Z2.25 F12000
G1 X119.26 Y122.4 Z2.24 E85.007 F1500
G1 X120.54 Y122.4 Z2.24 E85.059
G1 X121.81 Y122.4 Z2.24 E85.112
G1 X123.09 Y122.4 Z2.24 E85.164
G1 X124.36 Y122.4 Z2.24 E85.217
G1 X125.64 Y122.4 Z2.23 E85.269
G1 X126.91 Y122.4 Z2.23 E85.322
G1 X128.19 Y122.4 Z2.23 E85.374
G1 X129.46 Y122.4 Z2.23 E85.427
G1 X130.74 Y122.4 Z2.22 E85.479
G1 X132.01 Y122.4 Z2.22 E85.532
G1 X132.1 Y122 Z2.22 F12000
G1 X130.81 Y122 Z2.22 E85.585 F1500
G1 X129.52 Y122 Z2.23 E85.639
G1 X128.23 Y122 Z2.23 E85.692
G1 X126.94 Y122 Z2.23 E85.745
G1 X125.65 Y122 Z2.23 E85.798
G1 X124.35 Y122 Z2.24 E85.852
G1 X123.06 Y122 Z2.24 E85.905
G1 X121.77 Y122 Z2.24 E85.958
G1 X120.48 Y122 Z2.24 E86.011
G1 X119.19 Y122 Z2.24 E86.065
G1 X117.9 Y122 Z2.25 E86.118
G1 X117.82 Y121.6 Z2.25 F12000
G1 X119.13 Y121.6 Z2.24 E86.172 F1500
G1 X120.43 Y121.6 Z2.24 E86.226
G1 X121.74 Y121.6 Z2.24 E86.279
G1 X123.04 Y121.6 Z2.24 E86.333
G1 X124.35 Y121.6 Z2.24 E86.387
G1 X125.65 Y121.6 Z2.23 E86.441
G1 X126.96 Y121.6 Z2.23 E86.495
G1 X128.26 Y121.6 Z2.23 E86.549
G1 X129.57 Y121.6 Z2.23 E86.602
G1 X130.87 Y121.6 Z2.22 E86.656
G1 X132.18 Y121.6 Z2.22 E86.71
G1 X132.27 Y121.2 Z2.22 F12000
G1 X130.95 Y121.2 Z2.22 E86.765 F1500
G1 X129.63 Y121.2 Z2.23 E86.819
G1 X128.3 Y121.2 Z2.23 E86.874
G1 X126.98 Y121.2 Z2.23 E86.928
G1 X125.66 Y121.2 Z2.23 E86.983
G1 X124.34 Y121.2 Z2.24 E87.037
G1 X123.02 Y121.2 Z2.24 E87.092
G1 X121.7 Y121.2 Z2.24 E87.146
G1 X120.37 Y121.2 Z2.24 E87.201
G1 X119.05 Y121.2 Z2.24 E87.255
G1 X117.73 Y121.2 Z2.25 E87.31
G1 X117.65 Y120.8 Z2.25 F12000
G1 X118.99 Y120.8 Z2.24 E87.365 F1500
G1 X120.32 Y120.8 Z2.24 E87.42
G1 X121.66 Y120.8 Z2.24 E87.476
G1 X123 Y120.8 Z2.24 E87.531
G1 X124.33 Y120.8 Z2.24 E87.586
G1 X125.67 Y120.8 Z2.23 E87.641
G1 X127 Y120.8 Z2.23 E87.696
G1 X128.34 Y120.8 Z2.23 E87.751
G1 X129.68 Y120.8 Z2.23 E87.807
G1 X131.01 Y120.8 Z2.22 E87.862
G1 X132.35 Y120.8 Z2.22 E87.917
G1 X132.44 Y120.4 Z2.22 F12000
G1 X131.09 Y120.4 Z2.22 E87.973 F1500
G1 X129.73 Y120.4 Z2.23 E88.029
G1 X128.38 Y120.4 Z2.23 E88.084
G1 X127.03 Y120.4 Z2.23 E88.14
G1 X125.68 Y120.4 Z2.23 E88.196
G1 X124.32 Y120.4 Z2.24 E88.252
G1 X122.97 Y120.4 Z2.24 E88.308
G1 X121.62 Y120.4 Z2.24 E88.364
G1 X120.27 Y120.4 Z2.24 E88.419
G1 X118.91 Y120.4 Z2.24 E88.475
G1 X117.56 Y120.4 Z2.25 E88.531
G1 X117.47 Y120 Z2.25 F12000
G1 X118.72 Y120 Z2.24 E88.583 F1500
G1 X119.98 Y120 Z2.24 E88.635
G1 X121.23 Y120 Z2.24 E88.686
G1 X122.49 Y120 Z2.24 E88.738
G1 X123.74 Y120 Z2.24 E88.79
G1 X125 Y120 Z2.23 E88.842
G1 X126.25 Y120 Z2.23 E88.893
G1 X127.5 Y120 Z2.23 E88.945
G1 X128.76 Y120 Z2.23 E88.997
G1 X130.01 Y120 Z2.22 E89.049
G1 X131.27 Y120 Z2.22 E89.1
G1 X132.52 Y120 Z2.22 E89.152
G1 X132.61 Y119.6 Z2.22 F12000
G1 X131.34 Y119.6 Z2.22 E89.204 F1500
G1 X130.07 Y119.6 Z2.22 E89.257
G1 X128.81 Y119.6 Z2.23 E89.309
G1 X127.54 Y119.6 Z2.23 E89.361
G1 X126.27 Y119.6 Z2.23 E89.414
G1 X125 Y119.6 Z2.23 E89.466
G1 X123.73 Y119.6 Z2.24 E89.518
G1 X122.46 Y119.6 Z2.24 E89.571
G1 X121.2 Y119.6 Z2.24 E89.623
G1 X119.93 Y119.6 Z2.24 E89.675
G1 X118.66 Y119.6 Z2.24 E89.728
G1 X117.39 Y119.6 Z2.25 E89.78
G1 X117.3 Y119.2 Z2.25 F12000
G1 X118.58 Y119.2 Z2.24 E89.833 F1500
G1 X119.87 Y119.2 Z2.24 E89.886
G1 X121.15 Y119.2 Z2.24 E89.939
G1 X122.43 Y119.2 Z2.24 E89.992
G1 X123.72 Y119.2 Z2.24 E90.045
G1 X125 Y119.2 Z2.23 E90.098
G1 X126.28 Y119.2 Z2.23 E90.15
G1 X127.57 Y119.2 Z2.23 E90.203
G1 X128.85 Y119.2 Z2.23 E90.256
G1 X130.13 Y119.2 Z2.22 E90.309
G1 X131.42 Y119.2 Z2.22 E90.362
G1 X132.7 Y119.2 Z2.22 E90.415
G1 X132.78 Y118.8 Z2.22 F12000
G1 X131.48 Y118.8 Z2.22 E90.469 F1500
G1 X130.19 Y118.8 Z2.22 E90.522
G1 X128.89 Y118.8 Z2.23 E90.576
G1 X127.59 Y118.8 Z2.23 E90.629
G1 X126.3 Y118.8 Z2.23 E90.683
G1 X125 Y118.8 Z2.23 E90.737
G1 X123.7 Y118.8 Z2.24 E90.79
G1 X122.41 Y118.8 Z2.24 E90.844
G1 X121.11 Y118.8 Z2.24 E90.897
G1 X119.81 Y118.8 Z2.24 E90.951
G1 X118.52 Y118.8 Z2.24 E91.004
G1 X117.22 Y118.8 Z2.25 E91.058
G1 X116.42 Y118.4 Z2.25 F12000
G1 X117.74 Y118.4 Z2.25 E91.112 F1500
G1 X119.06 Y118.4 Z2.24 E91.167
G1 X120.38 Y118.4 Z2.24 E91.221
G1 X121.7 Y118.4 Z2.24 E91.276
G1 X123.02 Y118.4 Z2.24 E91.33
G1 X124.34 Y118.4 Z2.23 E91.384
G1 X125.65 Y118.4 Z2.23 E91.439
G1 X126.97 Y118.4 Z2.23 E91.493
G1 X128.29 Y118.4 Z2.23 E91.547
G1 X129.61 Y118.4 Z2.22 E91.602
G1 X130.93 Y118.4 Z2.22 E91.656
G1 X132.25 Y118.4 Z2.22 E91.711
G1 X133.57 Y118.4 Z2.22 E91.765
G1 E87.765 F2400
G1 X138.57 Y118.35 Z2.21 F12000
G1 X143.37 Y119.57 Z2.2
G1 X147.52 Y123.01 Z2.19
G1 X149.83 Y127.08 Z2.19
G1 X149.92 Y132.4 Z2.19
G1 E89.765 F2400
G1 E91.765
G1 X150.62 Y132.4 Z2.19 E91.794 F1500
G1 X149.98 Y132 Z2.19 F12000
G1 X151.48 Y132 Z2.19 E91.856 F1500
G1 X152.34 Y131.6 Z2.19 F12000
G1 X150.05 Y131.6 Z2.19 E91.951 F1500
G1 X150.11 Y131.2 Z2.19 F12000
G1 X151.65 Y131.2 Z2.19 E92.015 F1500
G1 X153.19 Y131.2 Z2.19 E92.078
G1 X154.05 Y130.8 Z2.19 F12000
G1 X152.76 Y130.8 Z2.19 E92.131 F1500
G1 X151.47 Y130.8 Z2.19 E92.185
G1 X150.18 Y130.8 Z2.19 E92.238
G1 X150.24 Y130.4 Z2.19 F12000
G1 X151.8 Y130.4 Z2.19 E92.302 F1500
G1 X153.35 Y130.4 Z2.19 E92.366
G1 X154.91 Y130.4 Z2.18 E92.43
G1 X155.73 Y130 Z2.18 F12000
G1 X154.38 Y130 Z2.19 E92.486 F1500
G1 X153.02 Y130 Z2.19 E92.542
G1 X151.67 Y130 Z2.19 E92.598
G1 X150.31 Y130 Z2.19 E92.654
G1 X150.29 Y129.6 Z2.19 F12000
G1 X151.79 Y129.6 Z2.19 E92.716 F1500
G1 X153.29 Y129.6 Z2.19 E92.778
G1 X154.79 Y129.6 Z2.18 E92.84
G1 X156.29 Y129.6 Z2.18 E92.902
G1 X156.85 Y129.2 Z2.18 F12000
G1 X155.53 Y129.2 Z2.18 E92.956 F1500
G1 X154.21 Y129.2 Z2.19 E93.011
G1 X152.89 Y129.2 Z2.19 E93.065
G1 X151.57 Y129.2 Z2.19 E93.12
G1 X150.25 Y129.2 Z2.19 E93.174
G1 X150.21 Y128.8 Z2.19 F12000
G1 X151.65 Y128.8 Z2.19 E93.233 F1500
G1 X153.09 Y128.8 Z2.19 E93.293
G1 X154.53 Y128.8 Z2.18 E93.352
G1 X155.97 Y128.8 Z2.18 E93.412
G1 X157.41 Y128.8 Z2.18 E93.471
G1 X157.97 Y128.4 Z2.18 F12000
G1 X156.67 Y128.4 Z2.18 E93.525 F1500
G1 X155.37 Y128.4 Z2.18 E93.578
G1 X154.07 Y128.4 Z2.19 E93.632
G1 X152.77 Y128.4 Z2.19 E93.686
G1 X151.47 Y128.4 Z2.19 E93.739
G1 X150.17 Y128.4 Z2.19 E93.793
G1 X150.14 Y128 Z2.19 F12000
G1 X151.54 Y128 Z2.19 E93.851 F1500
G1 X152.94 Y128 Z2.19 E93.908
G1 X154.34 Y128 Z2.18 E93.966
G1 X155.73 Y128 Z2.18 E94.024
G1 X157.13 Y128 Z2.18 E94.081
G1 X158.53 Y128 Z2.18 E94.139
G1 X159.09 Y127.6 Z2.18 F12000
G1 X157.81 Y127.6 Z2.18 E94.192 F1500
G1 X156.52 Y127.6 Z2.18 E94.245
G1 X155.24 Y127.6 Z2.18 E94.298
G1 X153.95 Y127.6 Z2.18 E94.351
G1 X152.67 Y127.6 Z2.19 E94.404
G1 X151.38 Y127.6 Z2.19 E94.457
G1 X150.1 Y127.6 Z2.19 E94.51
G1 X150.06 Y127.2 Z2.19 F12000
G1 X151.43 Y127.2 Z2.19 E94.567 F1500
G1 X152.8 Y127.2 Z2.19 E94.623
G1 X154.17 Y127.2 Z2.18 E94.68
G1 X155.54 Y127.2 Z2.18 E94.736
G1 X156.91 Y127.2 Z2.18 E94.793
G1 X158.28 Y127.2 Z2.18 E94.849
G1 X159.65 Y127.2 Z2.18 E94.906
G1 X160.21 Y126.8 Z2.17 F12000
G1 X158.94 Y126.8 Z2.18 E94.959 F1500
G1 X157.66 Y126.8 Z2.18 E95.011
G1 X156.39 Y126.8 Z2.18 E95.064
G1 X155.12 Y126.8 Z2.18 E95.117
G1 X153.84 Y126.8 Z2.18 E95.169
G1 X152.57 Y126.8 Z2.19 E95.222
G1 X151.29 Y126.8 Z2.19 E95.274
G1 X150.02 Y126.8 Z2.19 E95.327
G1 X149.86 Y126.4 Z2.19 F12000
G1 X151.22 Y126.4 Z2.19 E95.383 F1500
G1 X152.59 Y126.4 Z2.19 E95.44
G1 X153.95 Y126.4 Z2.18 E95.496
G1 X155.32 Y126.4 Z2.18 E95.552
G1 X156.68 Y126.4 Z2.18 E95.608
G1 X158.04 Y126.4 Z2.18 E95.665
G1 X159.41 Y126.4 Z2.18 E95.721
G1 X160.77 Y126.4 Z2.17 E95.777
G1 X161.33 Y126 Z2.17 F12000
G1 X160.04 Y126 Z2.17 E95.83 F1500
G1 X158.75 Y126 Z2.18 E95.884
G1 X157.45 Y126 Z2.18 E95.937
G1 X156.16 Y126 Z2.18 E95.99
G1 X154.87 Y126 Z2.18 E96.044
G1 X153.58 Y126 Z2.18 E96.097
G1 X152.28 Y126 Z2.19 E96.15
G1 X150.99 Y126 Z2.19 E96.204
G1 X149.7 Y126 Z2.19 E96.257
G1 X149.55 Y125.6 Z2.19 F12000
G1 X150.92 Y125.6 Z2.19 E96.314 F1500
G1 X152.29 Y125.6 Z2.19 E96.37
G1 X153.66 Y125.6 Z2.18 E96.427
G1 X155.03 Y125.6 Z2.18 E96.484
G1 X156.41 Y125.6 Z2.18 E96.54
G1 X157.78 Y125.6 Z2.18 E96.597
G1 X159.15 Y125.6 Z2.18 E96.654
G1 X160.52 Y125.6 Z2.17 E96.71
G1 X161.89 Y125.6 Z2.17 E96.767
G1 X162.29 Y125.2 Z2.17 F12000
G1 X161 Y125.2 Z2.17 E96.82 F1500
G1 X159.71 Y125.2 Z2.17 E96.873
G1 X158.42 Y125.2 Z2.18 E96.927
G1 X157.13 Y125.2 Z2.18 E96.98
G1 X155.84 Y125.2 Z2.18 E97.033
G1 X154.55 Y125.2 Z2.18 E97.086
G1 X153.26 Y125.2 Z2.19 E97.139
G1 X151.97 Y125.2 Z2.19 E97.193
G1 X150.68 Y125.2 Z2.19 E97.246
G1 X149.39 Y125.2 Z2.19 E97.299
G1 X149.23 Y124.8 Z2.19 F12000
G1 X150.57 Y124.8 Z2.19 E97.354 F1500
G1 X151.91 Y124.8 Z2.19 E97.41
G1 X153.26 Y124.8 Z2.18 E97.465
G1 X154.6 Y124.8 Z2.18 E97.521
G1 X155.94 Y124.8 Z2.18 E97.576
G1 X157.28 Y124.8 Z2.18 E97.631
G1 X158.62 Y124.8 Z2.18 E97.687
G1 X159.97 Y124.8 Z2.17 E97.742
G1 X161.31 Y124.8 Z2.17 E97.798
G1 X162.65 Y124.8 Z2.17 E97.853
G1 X163.01 Y124.4 Z2.17 F12000
G1 X161.74 Y124.4 Z2.17 E97.905 F1500
G1 X160.48 Y124.4 Z2.17 E97.958
G1 X159.21 Y124.4 Z2.17 E98.01
G1 X157.94 Y124.4 Z2.18 E98.062
G1 X156.67 Y124.4 Z2.18 E98.114
G1 X155.41 Y124.4 Z2.18 E98.167
G1 X154.14 Y124.4 Z2.18 E98.219
G1 X152.87 Y124.4 Z2.19 E98.271
G1 X151.6 Y124.4 Z2.19 E98.323
G1 X150.34 Y124.4 Z2.19 E98.376
G1 X149.07 Y124.4 Z2.19 E98.428
G1 X148.92 Y124 Z2.19 F12000
G1 X150.23 Y124 Z2.19 E98.482 F1500
G1 X151.55 Y124 Z2.19 E98.537
G1 X152.86 Y124 Z2.19 E98.591
G1 X154.17 Y124 Z2.18 E98.645
G1 X155.49 Y124 Z2.18 E98.699
G1 X156.8 Y124 Z2.18 E98.754
G1 X158.12 Y124 Z2.18 E98.808
G1 X159.43 Y124 Z2.17 E98.862
G1 X160.74 Y124 Z2.17 E98.916
G1 X162.06 Y124 Z2.17 E98.971
G1 X163.37 Y124 Z2.17 E99.025
G1 X163.73 Y123.6 Z2.17 F12000
G1 X162.47 Y123.6 Z2.17 E99.077 F1500
G1 X161.21 Y123.6 Z2.17 E99.129
G1 X159.95 Y123.6 Z2.17 E99.181
G1 X158.69 Y123.6 Z2.17 E99.233
G1 X157.43 Y123.6 Z2.18 E99.285
G1 X156.17 Y123.6 Z2.18 E99.337
G1 X154.91 Y123.6 Z2.18 E99.389
G1 X153.65 Y123.6 Z2.18 E99.441
G1 X152.39 Y123.6 Z2.19 E99.493
G1 X151.13 Y123.6 Z2.19 E99.545
G1 X149.87 Y123.6 Z2.19 E99.597
G1 X148.61 Y123.6 Z2.19 E99.649
G1 X148.29 Y123.2 Z2.19 F12000
G1 X149.61 Y123.2 Z2.19 E99.703 F1500
G1 X150.92 Y123.2 Z2.19 E99.758
G1 X152.24 Y123.2 Z2.19 E99.812
G1 X153.56 Y123.2 Z2.18 E99.866
G1 X154.87 Y123.2 Z2.18 E99.92
G1 X156.19 Y123.2 Z2.18 E99.974
G1 X157.51 Y123.2 Z2.18 E100.029
G1 X158.82 Y123.2 Z2.17 E100.083
G1 X160.14 Y123.2 Z2.17 E100.137
G1 X161.46 Y123.2 Z2.17 E100.192
G1 X162.77 Y123.2 Z2.17 E100.246
G1 X164.09 Y123.2 Z2.17 E100.3
G1 X164.45 Y122.8 Z2.17 F12000
G1 X163.18 Y122.8 Z2.17 E100.352 F1500
G1 X161.92 Y122.8 Z2.17 E100.405
G1 X160.65 Y122.8 Z2.17 E100.457
G1 X159.38 Y122.8 Z2.17 E100.509
G1 X158.12 Y122.8 Z2.18 E100.562
G1 X156.85 Y122.8 Z2.18 E100.614
G1 X155.58 Y122.8 Z2.18 E100.666
G1 X154.31 Y122.8 Z2.18 E100.718
G1 X153.05 Y122.8 Z2.18 E100.771
G1 X151.78 Y122.8 Z2.19 E100.823
G1 X150.51 Y122.8 Z2.19 E100.875
G1 X149.25 Y122.8 Z2.19 E100.928
G1 X147.98 Y122.8 Z2.19 E100.98
G1 X147.66 Y122.4 Z2.19 F12000
G1 X148.98 Y122.4 Z2.19 E101.034 F1500
G1 X150.3 Y122.4 Z2.19 E101.089
G1 X151.62 Y122.4 Z2.19 E101.143
G1 X152.94 Y122.4 Z2.18 E101.198
G1 X154.26 Y122.4 Z2.18 E101.252
G1 X155.58 Y122.4 Z2.18 E101.307
G1 X156.89 Y122.4 Z2.18 E101.361
G1 X158.21 Y122.4 Z2.18 E101.416
G1 X159.53 Y122.4 Z2.17 E101.47
G1 X160.85 Y122.4 Z2.17 E101.525
G1 X162.17 Y122.4 Z2.17 E101.579
G1 X163.49 Y122.4 Z2.17 E101.634
G1 X164.81 Y122.4 Z2.17 E101.688
G1 X165.17 Y122 Z2.17 F12000
G1 X163.9 Y122 Z2.17 E101.741 F1500
G1 X162.62 Y122 Z2.17 E101.793
G1 X161.35 Y122 Z2.17 E101.846
G1 X160.08 Y122 Z2.17 E101.898
G1 X158.8 Y122 Z2.17 E101.951
G1 X157.53 Y122 Z2.18 E102.003
G1 X156.26 Y122 Z2.18 E102.056
G1 X154.98 Y122 Z2.18 E102.109
G1 X153.71 Y122 Z2.18 E102.161
G1 X152.43 Y122 Z2.19 E102.214
G1 X151.16 Y122 Z2.19 E102.266
G1 X149.89 Y122 Z2.19 E102.319
G1 X148.61 Y122 Z2.19 E102.371
G1 X147.34 Y122 Z2.19 E102.424
G1 X147.02 Y121.6 Z2.19 F12000
G1 X148.34 Y121.6 Z2.19 E102.479 F1500
G1 X149.66 Y121.6 Z2.19 E102.533
G1 X150.99 Y121.6 Z2.19 E102.588
G1 X152.31 Y121.6 Z2.19 E102.642
G1 X153.63 Y121.6 Z2.18 E102.697
G1 X154.95 Y121.6 Z2.18 E102.751
G1 X156.28 Y121.6 Z2.18 E102.806
G1 X157.6 Y121.6 Z2.18 E102.86
G1 X158.92 Y121.6 Z2.17 E102.915
G1 X160.24 Y121.6 Z2.17 E102.969
G1 X161.56 Y121.6 Z2.17 E103.024
G1 X162.89 Y121.6 Z2.17 E103.078
G1 X164.21 Y121.6 Z2.17 E103.133
G1 X165.53 Y121.6 Z2.16 E103.187
G1 X165.89 Y121.2 Z2.16 F12000
G1 X164.6 Y121.2 Z2.17 E103.24 F1500
G1 X163.3 Y121.2 Z2.17 E103.294
G1 X162.01 Y121.2 Z2.17 E103.347
G1 X160.71 Y121.2 Z2.17 E103.401
G1 X159.42 Y121.2 Z2.17 E103.454
G1 X158.12 Y121.2 Z2.17 E103.507
G1 X156.83 Y121.2 Z2.18 E103.561
G1 X155.53 Y121.2 Z2.18 E103.614
G1 X154.24 Y121.2 Z2.18 E103.668
G1 X152.94 Y121.2 Z2.18 E103.721
G1 X151.65 Y121.2 Z2.19 E103.774
G1 X150.35 Y121.2 Z2.19 E103.828
G1 X149.06 Y121.2 Z2.19 E103.881
G1 X147.76 Y121.2 Z2.19 E103.935
G1 X146.47 Y121.2 Z2.2 E103.988
G1 X145.91 Y120.8 Z2.2 F12000
G1 X147.18 Y120.8 Z2.19 E104.041 F1500
G1 X148.45 Y120.8 Z2.19 E104.093
G1 X149.72 Y120.8 Z2.19 E104.146
G1 X151 Y120.8 Z2.19 E104.198
G1 X152.27 Y120.8 Z2.18 E104.251
G1 X153.54 Y120.8 Z2.18 E104.303
G1 X154.81 Y120.8 Z2.18 E104.356
G1 X156.08 Y120.8 Z2.18 E104.408
G1 X157.35 Y120.8 Z2.18 E104.461
G1 X158.62 Y120.8 Z2.17 E104.513
G1 X159.89 Y120.8 Z2.17 E104.566
G1 X161.17 Y120.8 Z2.17 E104.618
G1 X162.44 Y120.8 Z2.17 E104.671
G1 X163.71 Y120.8 Z2.17 E104.723
G1 X164.98 Y120.8 Z2.17 E104.776
G1 X166.25 Y120.8 Z2.16 E104.828
G1 X166.6 Y120.4 Z2.16 F12000
G1 X165.35 Y120.4 Z2.16 E104.88 F1500
G1 X164.1 Y120.4 Z2.17 E104.931
G1 X162.85 Y120.4 Z2.17 E104.983
G1 X161.6 Y120.4 Z2.17 E105.034
G1 X160.35 Y120.4 Z2.17 E105.086
G1 X159.1 Y120.4 Z2.17 E105.138
G1 X157.85 Y120.4 Z2.17 E105.189
G1 X156.6 Y120.4 Z2.18 E105.241
G1 X155.35 Y120.4 Z2.18 E105.292
G1 X154.1 Y120.4 Z2.18 E105.344
G1 X152.85 Y120.4 Z2.18 E105.395
G1 X151.6 Y120.4 Z2.19 E105.447
G1 X150.35 Y120.4 Z2.19 E105.499
G1 X149.1 Y120.4 Z2.19 E105.55
G1 X147.85 Y120.4 Z2.19 E105.602
G1 X146.6 Y120.4 Z2.19 E105.653
G1 X145.35 Y120.4 Z2.2 E105.705
G1 X144.78 Y120 Z2.2 F12000
G1 X146.08 Y120 Z2.2 E105.759 F1500
G1 X147.38 Y120 Z2.19 E105.812
G1 X148.67 Y120 Z2.19 E105.866
G1 X149.97 Y120 Z2.19 E105.919
G1 X151.27 Y120 Z2.19 E105.973
G1 X152.57 Y120 Z2.18 E106.027
G1 X153.87 Y120 Z2.18 E106.08
G1 X155.17 Y120 Z2.18 E106.134
G1 X156.46 Y120 Z2.18 E106.187
G1 X157.76 Y120 Z2.17 E106.241
G1 X159.06 Y120 Z2.17 E106.294
G1 X160.36 Y120 Z2.17 E106.348
G1 X161.66 Y120 Z2.17 E106.402
G1 X162.96 Y120 Z2.17 E106.455
G1 X164.25 Y120 Z2.17 E106.509
G1 X165.55 Y120 Z2.16 E106.562
G1 X166.85 Y120 Z2.16 E106.616
G1 X167.05 Y119.6 Z2.16 F12000
G1 X165.77 Y119.6 Z2.16 E106.669 F1500
G1 X164.49 Y119.6 Z2.17 E106.722
G1 X163.21 Y119.6 Z2.17 E106.774
G1 X161.93 Y119.6 Z2.17 E106.827
G1 X160.66 Y119.6 Z2.17 E106.88
G1 X159.38 Y119.6 Z2.17 E106.933
G1 X158.1 Y119.6 Z2.17 E106.985
G1 X156.82 Y119.6 Z2.18 E107.038
G1 X155.54 Y119.6 Z2.18 E107.091
G1 X154.26 Y119.6 Z2.18 E107.144
G1 X152.98 Y119.6 Z2.18 E107.197
G1 X151.7 Y119.6 Z2.19 E107.249
G1 X150.42 Y119.6 Z2.19 E107.302
G1 X149.15 Y119.6 Z2.19 E107.355
G1 X147.87 Y119.6 Z2.19 E107.408
G1 X146.59 Y119.6 Z2.19 E107.46
G1 X145.31 Y119.6 Z2.2 E107.513
G1 X144.03 Y119.6 Z2.2 E107.566
G1 X142.97 Y119.2 Z2.2 F12000
G1 X144.25 Y119.2 Z2.2 E107.619 F1500
G1 X145.53 Y119.2 Z2.2 E107.671
G1 X146.81 Y119.2 Z2.19 E107.724
G1 X148.08 Y119.2 Z2.19 E107.777
G1 X149.36 Y119.2 Z2.19 E107.83
G1 X150.64 Y119.2 Z2.19 E107.882
G1 X151.92 Y119.2 Z2.18 E107.935
G1 X153.2 Y119.2 Z2.18 E107.988
G1 X154.48 Y119.2 Z2.18 E108.041
G1 X155.75 Y119.2 Z2.18 E108.093
G1 X157.03 Y119.2 Z2.18 E108.146
G1 X158.31 Y119.2 Z2.17 E108.199
G1 X159.59 Y119.2 Z2.17 E108.252
G1 X160.87 Y119.2 Z2.17 E108.304
G1 X162.15 Y119.2 Z2.17 E108.357
G1 X163.42 Y119.2 Z2.17 E108.41
G1 X164.7 Y119.2 Z2.16 E108.463
G1 X165.98 Y119.2 Z2.16 E108.515
G1 X167.26 Y119.2 Z2.16 E108.568
G1 X167.46 Y118.8 Z2.16 F12000
G1 X166.18 Y118.8 Z2.16 E108.621 F1500
G1 X164.91 Y118.8 Z2.16 E108.673
G1 X163.63 Y118.8 Z2.17 E108.726
G1 X162.35 Y118.8 Z2.17 E108.779
G1 X161.08 Y118.8 Z2.17 E108.831
G1 X159.8 Y118.8 Z2.17 E108.884
G1 X158.52 Y118.8 Z2.17 E108.937
G1 X157.24 Y118.8 Z2.17 E108.989
G1 X155.97 Y118.8 Z2.18 E109.042
G1 X154.69 Y118.8 Z2.18 E109.095
G1 X153.41 Y118.8 Z2.18 E109.147
G1 X152.14 Y118.8 Z2.18 E109.2
G1 X150.86 Y118.8 Z2.19 E109.252
G1 X149.58 Y118.8 Z2.19 E109.305
G1 X148.31 Y118.8 Z2.19 E109.358
G1 X147.03 Y118.8 Z2.19 E109.41
G1 X145.75 Y118.8 Z2.2 E109.463
G1 X144.47 Y118.8 Z2.2 E109.516
G1 X143.2 Y118.8 Z2.2 E109.568
G1 X141.92 Y118.8 Z2.2 E109.621
G1 X140.08 Y118.4 Z2.21 F12000
G1 X141.33 Y118.4 Z2.2 E109.673 F1500
G1 X142.59 Y118.4 Z2.2 E109.725
G1 X143.84 Y118.4 Z2.2 E109.776
G1 X145.09 Y118.4 Z2.2 E109.828
G1 X146.35 Y118.4 Z2.19 E109.88
G1 X147.6 Y118.4 Z2.19 E109.932
G1 X148.86 Y118.4 Z2.19 E109.983
G1 X150.11 Y118.4 Z2.19 E110.035
G1 X151.36 Y118.4 Z2.19 E110.087
G1 X152.62 Y118.4 Z2.18 E110.139
G1 X153.87 Y118.4 Z2.18 E110.191
G1 X155.12 Y118.4 Z2.18 E110.242
G1 X156.38 Y118.4 Z2.18 E110.294
G1 X157.63 Y118.4 Z2.17 E110.346
G1 X158.88 Y118.4 Z2.17 E110.398
G1 X160.14 Y118.4 Z2.17 E110.449
G1 X161.39 Y118.4 Z2.17 E110.501
G1 X162.65 Y118.4 Z2.17 E110.553
G1 X163.9 Y118.4 Z2.17 E110.605
G1 X165.15 Y118.4 Z2.16 E110.656
G1 X166.41 Y118.4 Z2.16 E110.708
G1 X167.66 Y118.4 Z2.16 E110.76
G1 E108.76 F2400
G1 E106.76
G1 X153.64 Y118.46 Z2.18 F12000
G1 X139.62 Y118.51 Z2.21
G1 X134.49 Y118.43 Z2.22
G1 X130.87 Y118.94 Z2.22
G1 X116.55 Y119 Z2.25
G1 X113.38 Y118.29 Z2.25
G1 X107.8 Y119.2 Z2.27
G1 X103.76 Y121.38 Z2.28
G1 X100.83 Y125.2 Z2.29
G1 X99.88 Y129.29 Z2.3
G1 X100.08 Y132.4 Z2.3
G1 E108.76 F2400
G1 E110.76
G1 X99.37 Y132.4 Z2.3 E110.789 F1500
G1 X100.01 Y132 Z2.3 F12000
G1 X98.51 Y132 Z2.3 E110.851 F1500
G1 X97.66 Y131.6 Z2.31 F12000
G1 X99.95 Y131.6 Z2.3 E110.945 F1500
G1 X99.88 Y131.2 Z2.3 F12000
G1 X98.34 Y131.2 Z2.3 E111.009 F1500
G1 X96.8 Y131.2 Z2.31 E111.073
G1 X95.94 Y130.8 Z2.31 F12000
G1 X97.23 Y130.8 Z2.31 E111.126 F1500
G1 X98.53 Y130.8 Z2.3 E111.18
G1 X99.82 Y130.8 Z2.3 E111.233
G1 X99.75 Y130.4 Z2.3 F12000
G1 X98.2 Y130.4 Z2.3 E111.297 F1500
G1 X96.64 Y130.4 Z2.31 E111.361
G1 X95.09 Y130.4 Z2.31 E111.425
G1 X94.27 Y130 Z2.32 F12000
G1 X95.63 Y130 Z2.31 E111.481 F1500
G1 X96.98 Y130 Z2.31 E111.537
G1 X98.34 Y130 Z2.3 E111.593
G1 X99.69 Y130 Z2.3 E111.649
G1 X99.71 Y129.6 Z2.3 F12000
G1 X98.21 Y129.6 Z2.3 E111.711 F1500
G1 X96.71 Y129.6 Z2.31 E111.773
G1 X95.21 Y129.6 Z2.31 E111.835
G1 X93.71 Y129.6 Z2.32 E111.897
G1 X93.15 Y129.2 Z2.32 F12000
G1 X94.47 Y129.2 Z2.31 E111.951 F1500
G1 X95.79 Y129.2 Z2.31 E112.006
G1 X97.11 Y129.2 Z2.31 E112.06
G1 X98.43 Y129.2 Z2.3 E112.115
G1 X99.75 Y129.2 Z2.3 E112.169
G1 X99.79 Y128.8 Z2.3 F12000
G1 X98.35 Y128.8 Z2.3 E112.228 F1500
G1 X96.91 Y128.8 Z2.31 E112.288
G1 X95.47 Y128.8 Z2.31 E112.347
G1 X94.03 Y128.8 Z2.32 E112.407
G1 X92.59 Y128.8 Z2.32 E112.466
G1 X92.03 Y128.4 Z2.32 F12000
G1 X93.33 Y128.4 Z2.32 E112.52 F1500
G1 X94.63 Y128.4 Z2.31 E112.573
G1 X95.93 Y128.4 Z2.31 E112.627
G1 X97.23 Y128.4 Z2.31 E112.681
G1 X98.53 Y128.4 Z2.3 E112.734
G1 X99.83 Y128.4 Z2.3 E112.788
G1 X99.86 Y128 Z2.3 F12000
G1 X98.46 Y128 Z2.3 E112.846 F1500
G1 X97.06 Y128 Z2.31 E112.904
G1 X95.67 Y128 Z2.31 E112.962
G1 X94.27 Y128 Z2.32 E113.019
G1 X92.87 Y128 Z2.32 E113.077
G1 X91.47 Y128 Z2.33 E113.135
G1 X90.91 Y127.6 Z2.33 F12000
G1 X92.19 Y127.6 Z2.32 E113.188 F1500
G1 X93.48 Y127.6 Z2.32 E113.241
G1 X94.76 Y127.6 Z2.31 E113.294
G1 X96.05 Y127.6 Z2.31 E113.347
G1 X97.33 Y127.6 Z2.31 E113.4
G1 X98.62 Y127.6 Z2.3 E113.453
G1 X99.9 Y127.6 Z2.3 E113.506
G1 X99.94 Y127.2 Z2.3 F12000
G1 X98.57 Y127.2 Z2.3 E113.563 F1500
G1 X97.2 Y127.2 Z2.31 E113.619
G1 X95.83 Y127.2 Z2.31 E113.676
G1 X94.46 Y127.2 Z2.32 E113.732
G1 X93.09 Y127.2 Z2.32 E113.789
G1 X91.72 Y127.2 Z2.33 E113.845
G1 X90.35 Y127.2 Z2.33 E113.902
G1 X89.79 Y126.8 Z2.33 F12000
G1 X91.06 Y126.8 Z2.33 E113.955 F1500
G1 X92.34 Y126.8 Z2.32 E114.007
G1 X93.61 Y126.8 Z2.32 E114.06
G1 X94.89 Y126.8 Z2.31 E114.112
G1 X96.16 Y126.8 Z2.31 E114.165
G1 X97.43 Y126.8 Z2.3 E114.217
G1 X98.71 Y126.8 Z2.3 E114.27
G1 X99.98 Y126.8 Z2.3 E114.322
G1 X100.14 Y126.4 Z2.3 F12000
G1 X98.78 Y126.4 Z2.3 E114.378 F1500
G1 X97.41 Y126.4 Z2.3 E114.435
G1 X96.05 Y126.4 Z2.31 E114.491
G1 X94.68 Y126.4 Z2.31 E114.548
G1 X93.32 Y126.4 Z2.32 E114.604
G1 X91.95 Y126.4 Z2.33 E114.66
G1 X90.59 Y126.4 Z2.33 E114.717
G1 X89.22 Y126.4 Z2.34 E114.773
G1 X88.66 Y126 Z2.34 F12000
G1 X89.95 Y126 Z2.33 E114.826 F1500
G1 X91.24 Y126 Z2.33 E114.88
G1 X92.54 Y126 Z2.32 E114.933
G1 X93.83 Y126 Z2.32 E114.986
G1 X95.12 Y126 Z2.31 E115.04
G1 X96.41 Y126 Z2.31 E115.093
G1 X97.71 Y126 Z2.3 E115.146
G1 X99 Y126 Z2.3 E115.2
G1 X100.29 Y126 Z2.3 E115.253
G1 X100.45 Y125.6 Z2.29 F12000
G1 X99.08 Y125.6 Z2.3 E115.31 F1500
G1 X97.71 Y125.6 Z2.3 E115.366
G1 X96.33 Y125.6 Z2.31 E115.423
G1 X94.96 Y125.6 Z2.31 E115.479
G1 X93.59 Y125.6 Z2.32 E115.536
G1 X92.22 Y125.6 Z2.32 E115.592
G1 X90.84 Y125.6 Z2.33 E115.649
G1 X89.47 Y125.6 Z2.34 E115.705
G1 X88.1 Y125.6 Z2.34 E115.762
G1 X87.7 Y125.2 Z2.34 F12000
G1 X88.99 Y125.2 Z2.34 E115.815 F1500
G1 X90.28 Y125.2 Z2.33 E115.869
G1 X91.57 Y125.2 Z2.33 E115.922
G1 X92.86 Y125.2 Z2.32 E115.975
G1 X94.16 Y125.2 Z2.32 E116.029
G1 X95.45 Y125.2 Z2.31 E116.082
G1 X96.74 Y125.2 Z2.31 E116.135
G1 X98.03 Y125.2 Z2.3 E116.188
G1 X99.32 Y125.2 Z2.3 E116.242
G1 X100.61 Y125.2 Z2.29 E116.295
G1 X100.77 Y124.8 Z2.29 F12000
G1 X99.43 Y124.8 Z2.3 E116.35 F1500
G1 X98.08 Y124.8 Z2.3 E116.406
G1 X96.74 Y124.8 Z2.31 E116.461
G1 X95.4 Y124.8 Z2.31 E116.517
G1 X94.06 Y124.8 Z2.32 E116.572
G1 X92.71 Y124.8 Z2.32 E116.627
G1 X91.37 Y124.8 Z2.33 E116.683
G1 X90.03 Y124.8 Z2.33 E116.738
G1 X88.68 Y124.8 Z2.34 E116.794
G1 X87.34 Y124.8 Z2.34 E116.849
G1 X86.99 Y124.4 Z2.35 F12000
G1 X88.26 Y124.4 Z2.34 E116.901 F1500
G1 X89.52 Y124.4 Z2.34 E116.954
G1 X90.79 Y124.4 Z2.33 E117.006
G1 X92.06 Y124.4 Z2.33 E117.058
G1 X93.33 Y124.4 Z2.32 E117.11
G1 X94.59 Y124.4 Z2.32 E117.163
G1 X95.86 Y124.4 Z2.31 E117.215
G1 X97.13 Y124.4 Z2.31 E117.267
G1 X98.4 Y124.4 Z2.3 E117.319
G1 X99.66 Y124.4 Z2.3 E117.372
G1 X100.93 Y124.4 Z2.29 E117.424
G1 X101.08 Y124 Z2.29 F12000
G1 X99.77 Y124 Z2.3 E117.478 F1500
G1 X98.45 Y124 Z2.3 E117.533
G1 X97.14 Y124 Z2.31 E117.587
G1 X95.83 Y124 Z2.31 E117.641
G1 X94.51 Y124 Z2.32 E117.695
G1 X93.2 Y124 Z2.32 E117.75
G1 X91.88 Y124 Z2.33 E117.804
G1 X90.57 Y124 Z2.33 E117.858
G1 X89.26 Y124 Z2.34 E117.912
G1 X87.94 Y124 Z2.34 E117.967
G1 X86.63 Y124 Z2.35 E118.021
G1 X86.27 Y123.6 Z2.35 F12000
G1 X87.53 Y123.6 Z2.34 E118.073 F1500
G1 X88.79 Y123.6 Z2.34 E118.125
G1 X90.05 Y123.6 Z2.33 E118.177
G1 X91.31 Y123.6 Z2.33 E118.229
G1 X92.57 Y123.6 Z2.32 E118.281
G1 X93.83 Y123.6 Z2.32 E118.333
G1 X95.09 Y123.6 Z2.31 E118.385
G1 X96.35 Y123.6 Z2.31 E118.437
G1 X97.61 Y123.6 Z2.3 E118.489
G1 X98.87 Y123.6 Z2.3 E118.541
G1 X100.13 Y123.6 Z2.3 E118.593
G1 X101.39 Y123.6 Z2.29 E118.645
G1 X101.71 Y123.2 Z2.29 F12000
G1 X100.39 Y123.2 Z2.29 E118.699 F1500
G1 X99.08 Y123.2 Z2.3 E118.754
G1 X97.76 Y123.2 Z2.3 E118.808
G1 X96.44 Y123.2 Z2.31 E118.862
G1 X95.13 Y123.2 Z2.31 E118.916
G1 X93.81 Y123.2 Z2.32 E118.971
G1 X92.49 Y123.2 Z2.32 E119.025
G1 X91.18 Y123.2 Z2.33 E119.079
G1 X89.86 Y123.2 Z2.33 E119.133
G1 X88.54 Y123.2 Z2.34 E119.188
G1 X87.23 Y123.2 Z2.34 E119.242
G1 X85.91 Y123.2 Z2.35 E119.296
G1 X85.55 Y122.8 Z2.35 F12000
G1 X86.82 Y122.8 Z2.35 E119.348 F1500
G1 X88.08 Y122.8 Z2.34 E119.401
G1 X89.35 Y122.8 Z2.34 E119.453
G1 X90.62 Y122.8 Z2.33 E119.505
G1 X91.88 Y122.8 Z2.33 E119.558
G1 X93.15 Y122.8 Z2.32 E119.61
G1 X94.42 Y122.8 Z2.32 E119.662
G1 X95.69 Y122.8 Z2.31 E119.714
G1 X96.95 Y122.8 Z2.31 E119.767
G1 X98.22 Y122.8 Z2.3 E119.819
G1 X99.49 Y122.8 Z2.3 E119.871
G1 X100.75 Y122.8 Z2.29 E119.924
G1 X102.02 Y122.8 Z2.29 E119.976
G1 X102.34 Y122.4 Z2.29 F12000
G1 X101.02 Y122.4 Z2.29 E120.03 F1500
G1 X99.7 Y122.4 Z2.3 E120.085
G1 X98.38 Y122.4 Z2.3 E120.139
G1 X97.06 Y122.4 Z2.31 E120.194
G1 X95.74 Y122.4 Z2.31 E120.248
G1 X94.42 Y122.4 Z2.32 E120.303
G1 X93.11 Y122.4 Z2.32 E120.357
G1 X91.79 Y122.4 Z2.33 E120.412
G1 X90.47 Y122.4 Z2.33 E120.466
G1 X89.15 Y122.4 Z2.34 E120.521
G1 X87.83 Y122.4 Z2.34 E120.575
G1 X86.51 Y122.4 Z2.35 E120.63
G1 X85.19 Y122.4 Z2.35 E120.684
G1 X84.83 Y122 Z2.35 F12000
G1 X86.1 Y122 Z2.35 E120.737 F1500
G1 X87.38 Y122 Z2.34 E120.789
G1 X88.65 Y122 Z2.34 E120.842
G1 X89.92 Y122 Z2.34 E120.894
G1 X91.2 Y122 Z2.33 E120.947
G1 X92.47 Y122 Z2.33 E120.999
G1 X93.75 Y122 Z2.32 E121.052
G1 X95.02 Y122 Z2.32 E121.105
G1 X96.29 Y122 Z2.31 E121.157
G1 X97.57 Y122 Z2.31 E121.21
G1 X98.84 Y122 Z2.3 E121.262
G1 X100.11 Y122 Z2.3 E121.315
G1 X101.39 Y122 Z2.29 E121.367
G1 X102.66 Y122 Z2.29 E121.42
G1 X102.98 Y121.6 Z2.29 F12000
G1 X101.66 Y121.6 Z2.29 E121.475 F1500
G1 X100.34 Y121.6 Z2.3 E121.529
G1 X99.01 Y121.6 Z2.3 E121.584
G1 X97.69 Y121.6 Z2.31 E121.638
G1 X96.37 Y121.6 Z2.31 E121.693
G1 X95.05 Y121.6 Z2.32 E121.747
G1 X93.73 Y121.6 Z2.32 E121.802
G1 X92.4 Y121.6 Z2.33 E121.856
G1 X91.08 Y121.6 Z2.33 E121.911
G1 X89.76 Y121.6 Z2.34 E121.965
G1 X88.44 Y121.6 Z2.34 E122.02
G1 X87.11 Y121.6 Z2.35 E122.074
G1 X85.79 Y121.6 Z2.35 E122.129
G1 X84.47 Y121.6 Z2.36 E122.183
G1 X84.11 Y121.2 Z2.36 F12000
G1 X85.4 Y121.2 Z2.35 E122.236 F1500
G1 X86.7 Y121.2 Z2.35 E122.29
G1 X87.99 Y121.2 Z2.34 E122.343
G1 X89.29 Y121.2 Z2.34 E122.397
G1 X90.58 Y121.2 Z2.33 E122.45
G1 X91.87 Y121.2 Z2.33 E122.503
G1 X93.17 Y121.2 Z2.32 E122.557
G1 X94.46 Y121.2 Z2.32 E122.61
G1 X95.76 Y121.2 Z2.31 E122.664
G1 X97.05 Y121.2 Z2.31 E122.717
G1 X98.34 Y121.2 Z2.3 E122.77
G1 X99.64 Y121.2 Z2.3 E122.824
G1 X100.93 Y121.2 Z2.29 E122.877
G1 X102.23 Y121.2 Z2.29 E122.931
G1 X103.52 Y121.2 Z2.28 E122.984
G1 X104.09 Y120.8 Z2.28 F12000
G1 X102.82 Y120.8 Z2.29 E123.036 F1500
G1 X101.55 Y120.8 Z2.29 E123.089
G1 X100.28 Y120.8 Z2.3 E123.141
G1 X99.01 Y120.8 Z2.3 E123.194
G1 X97.73 Y120.8 Z2.31 E123.246
G1 X96.46 Y120.8 Z2.31 E123.299
G1 X95.19 Y120.8 Z2.32 E123.351
G1 X93.92 Y120.8 Z2.32 E123.404
G1 X92.65 Y120.8 Z2.33 E123.456
G1 X91.38 Y120.8 Z2.33 E123.508
G1 X90.11 Y120.8 Z2.33 E123.561
G1 X88.84 Y120.8 Z2.34 E123.613
G1 X87.56 Y120.8 Z2.34 E123.666
G1 X86.29 Y120.8 Z2.35 E123.718
G1 X85.02 Y120.8 Z2.35 E123.771
G1 X83.75 Y120.8 Z2.36 E123.823
G1 X83.39 Y120.4 Z2.36 F12000
G1 X84.64 Y120.4 Z2.36 E123.875 F1500
G1 X85.89 Y120.4 Z2.35 E123.926
G1 X87.14 Y120.4 Z2.35 E123.978
G1 X88.39 Y120.4 Z2.34 E124.03
G1 X89.64 Y120.4 Z2.34 E124.081
G1 X90.89 Y120.4 Z2.33 E124.133
G1 X92.14 Y120.4 Z2.33 E124.185
G1 X93.39 Y120.4 Z2.32 E124.236
G1 X94.65 Y120.4 Z2.32 E124.288
G1 X95.9 Y120.4 Z2.31 E124.339
G1 X97.15 Y120.4 Z2.31 E124.391
G1 X98.4 Y120.4 Z2.3 E124.443
G1 X99.65 Y120.4 Z2.3 E124.494
G1 X100.9 Y120.4 Z2.29 E124.546
G1 X102.15 Y120.4 Z2.29 E124.598
G1 X103.4 Y120.4 Z2.28 E124.649
G1 X104.65 Y120.4 Z2.28 E124.701
G1 X105.22 Y120 Z2.28 F12000
G1 X103.92 Y120 Z2.28 E124.755 F1500
G1 X102.62 Y120 Z2.29 E124.808
G1 X101.33 Y120 Z2.29 E124.862
G1 X100.03 Y120 Z2.3 E124.915
G1 X98.73 Y120 Z2.3 E124.969
G1 X97.43 Y120 Z2.31 E125.022
G1 X96.13 Y120 Z2.31 E125.076
G1 X94.83 Y120 Z2.32 E125.129
G1 X93.54 Y120 Z2.32 E125.183
G1 X92.24 Y120 Z2.33 E125.236
G1 X90.94 Y120 Z2.33 E125.29
G1 X89.64 Y120 Z2.34 E125.343
G1 X88.34 Y120 Z2.34 E125.397
G1 X87.04 Y120 Z2.35 E125.45
G1 X85.75 Y120 Z2.35 E125.504
G1 X84.45 Y120 Z2.36 E125.557
G1 X83.15 Y120 Z2.36 E125.611
G1 X82.95 Y119.6 Z2.36 F12000
G1 X84.23 Y119.6 Z2.36 E125.664 F1500
G1 X85.51 Y119.6 Z2.35 E125.717
G1 X86.79 Y119.6 Z2.35 E125.769
G1 X88.07 Y119.6 Z2.34 E125.822
G1 X89.34 Y119.6 Z2.34 E125.875
G1 X90.62 Y119.6 Z2.33 E125.928
G1 X91.9 Y119.6 Z2.33 E125.98
G1 X93.18 Y119.6 Z2.32 E126.033
G1 X94.46 Y119.6 Z2.32 E126.086
G1 X95.74 Y119.6 Z2.31 E126.139
G1 X97.02 Y119.6 Z2.31 E126.192
G1 X98.3 Y119.6 Z2.3 E126.244
G1 X99.58 Y119.6 Z2.3 E126.297
G1 X100.85 Y119.6 Z2.29 E126.35
G1 X102.13 Y119.6 Z2.29 E126.403
G1 X103.41 Y119.6 Z2.28 E126.455
G1 X104.69 Y119.6 Z2.28 E126.508
G1 X105.97 Y119.6 Z2.28 E126.561
G1 X107.02 Y119.2 Z2.27 F12000
G1 X105.74 Y119.2 Z2.28 E126.614 F1500
G1 X104.46 Y119.2 Z2.28 E126.666
G1 X103.19 Y119.2 Z2.29 E126.719
G1 X101.91 Y119.2 Z2.29 E126.772
G1 X100.63 Y119.2 Z2.3 E126.825
G1 X99.35 Y119.2 Z2.3 E126.877
G1 X98.07 Y119.2 Z2.31 E126.93
G1 X96.8 Y119.2 Z2.31 E126.983
G1 X95.52 Y119.2 Z2.31 E127.036
G1 X94.24 Y119.2 Z2.32 E127.088
G1 X92.96 Y119.2 Z2.32 E127.141
G1 X91.69 Y119.2 Z2.33 E127.194
G1 X90.41 Y119.2 Z2.33 E127.247
G1 X89.13 Y119.2 Z2.34 E127.299
G1 X87.85 Y119.2 Z2.34 E127.352
G1 X86.57 Y119.2 Z2.35 E127.405
G1 X85.3 Y119.2 Z2.35 E127.458
G1 X84.02 Y119.2 Z2.36 E127.51
G1 X82.74 Y119.2 Z2.36 E127.563
G1 X82.54 Y118.8 Z2.36 F12000
G1 X83.82 Y118.8 Z2.36 E127.616 F1500
G1 X85.09 Y118.8 Z2.36 E127.668
G1 X86.37 Y118.8 Z2.35 E127.721
G1 X87.65 Y118.8 Z2.35 E127.774
G1 X88.93 Y118.8 Z2.34 E127.827
G1 X90.2 Y118.8 Z2.34 E127.879
G1 X91.48 Y118.8 Z2.33 E127.932
G1 X92.76 Y118.8 Z2.33 E127.985
G1 X94.03 Y118.8 Z2.32 E128.037
G1 X95.31 Y118.8 Z2.32 E128.09
G1 X96.59 Y118.8 Z2.31 E128.143
G1 X97.86 Y118.8 Z2.31 E128.195
G1 X99.14 Y118.8 Z2.3 E128.248
G1 X100.42 Y118.8 Z2.3 E128.301
G1 X101.7 Y118.8 Z2.29 E128.354
G1 X102.97 Y118.8 Z2.29 E128.406
G1 X104.25 Y118.8 Z2.28 E128.459
G1 X105.53 Y118.8 Z2.28 E128.512
G1 X106.8 Y118.8 Z2.27 E128.564
G1 X108.08 Y118.8 Z2.27 E128.617
G1 X109.92 Y118.4 Z2.26 F12000
G1 X108.67 Y118.4 Z2.27 E128.669 F1500
G1 X107.41 Y118.4 Z2.27 E128.72
G1 X106.16 Y118.4 Z2.28 E128.772
G1 X104.91 Y118.4 Z2.28 E128.824
G1 X103.65 Y118.4 Z2.28 E128.876
G1 X102.4 Y118.4 Z2.29 E128.927
G1 X101.14 Y118.4 Z2.29 E128.979
G1 X99.89 Y118.4 Z2.3 E129.031
G1 X98.64 Y118.4 Z2.3 E129.083
G1 X97.38 Y118.4 Z2.31 E129.134
G1 X96.13 Y118.4 Z2.31 E129.186
G1 X94.88 Y118.4 Z2.32 E129.238
G1 X93.62 Y118.4 Z2.32 E129.289
G1 X92.37 Y118.4 Z2.33 E129.341
G1 X91.12 Y118.4 Z2.33 E129.393
G1 X89.86 Y118.4 Z2.34 E129.445
G1 X88.61 Y118.4 Z2.34 E129.496
G1 X87.35 Y118.4 Z2.35 E129.548
G1 X86.1 Y118.4 Z2.35 E129.6
G1 X84.85 Y118.4 Z2.36 E129.652
G1 X83.59 Y118.4 Z2.36 E129.703
G1 X82.34 Y118.4 Z2.37 E129.755
G1 X82.14 Y118 Z2.37 F12000
G1 X83.4 Y118 Z2.36 E129.807 F1500
G1 X84.66 Y118 Z2.36 E129.859
G1 X85.92 Y118 Z2.35 E129.911
G1 X87.18 Y118 Z2.35 E129.963
G1 X88.44 Y118 Z2.34 E130.015
G1 X89.7 Y118 Z2.34 E130.067
G1 X90.96 Y118 Z2.33 E130.119
G1 X92.22 Y118 Z2.33 E130.171
G1 X93.49 Y118 Z2.32 E130.223
G1 X94.75 Y118 Z2.32 E130.275
G1 X96.01 Y118 Z2.31 E130.327
G1 X97.27 Y118 Z2.31 E130.379
G1 X98.53 Y118 Z2.3 E130.431
G1 X99.79 Y118 Z2.3 E130.483
G1 X101.05 Y118 Z2.29 E130.535
G1 X102.31 Y118 Z2.29 E130.587
G1 X103.57 Y118 Z2.28 E130.64
G1 X104.83 Y118 Z2.28 E130.692
G1 X106.09 Y118 Z2.28 E130.744
G1 X107.35 Y118 Z2.27 E130.796
G1 X108.61 Y118 Z2.27 E130.848
G1 X109.87 Y118 Z2.26 E130.9
G1 X111.13 Y118 Z2.26 E130.952
G1 X112.39 Y118 Z2.26 E131.004
G1 X113.65 Y118 Z2.25 E131.056
G1 X114.92 Y118 Z2.25 E131.108
G1 X116.18 Y118 Z2.25 E131.16
G1 X117.44 Y118 Z2.25 E131.212
G1 X118.7 Y118 Z2.24 E131.264
G1 X119.96 Y118 Z2.24 E131.316
G1 X121.22 Y118 Z2.24 E131.368
G1 X122.48 Y118 Z2.24 E131.42
G1 X123.74 Y118 Z2.24 E131.472
G1 X125 Y118 Z2.23 E131.524
G1 X126.26 Y118 Z2.23 E131.576
G1 X127.52 Y118 Z2.23 E131.628
G1 X128.78 Y118 Z2.23 E131.68
G1 X130.04 Y118 Z2.22 E131.732
G1 X131.3 Y118 Z2.22 E131.784
G1 X132.56 Y118 Z2.22 E131.836
G1 X133.82 Y118 Z2.22 E131.888
G1 X135.08 Y118 Z2.21 E131.94
G1 X136.35 Y118 Z2.21 E131.992
G1 X137.61 Y118 Z2.21 E132.044
G1 X138.87 Y118 Z2.21 E132.096
G1 X140.13 Y118 Z2.21 E132.148
G1 X141.39 Y118 Z2.2 E132.2
G1 X142.65 Y118 Z2.2 E132.252
G1 X143.91 Y118 Z2.2 E132.304
G1 X145.17 Y118 Z2.2 E132.356
G1 X146.43 Y118 Z2.19 E132.408
G1 X147.69 Y118 Z2.19 E132.461
G1 X148.95 Y118 Z2.19 E132.513
G1 X150.21 Y118 Z2.19 E132.565
G1 X151.47 Y118 Z2.18 E132.617
G1 X152.73 Y118 Z2.18 E132.669
G1 X153.99 Y118 Z2.18 E132.721
G1 X155.25 Y118 Z2.18 E132.773
G1 X156.51 Y118 Z2.18 E132.825
G1 X157.78 Y118 Z2.17 E132.877
G1 X159.04 Y118 Z2.17 E132.929
G1 X160.3 Y118 Z2.17 E132.981
G1 X161.56 Y118 Z2.17 E133.033
G1 X162.82 Y118 Z2.17 E133.085
G1 X164.08 Y118 Z2.17 E133.137
G1 X165.34 Y118 Z2.16 E133.189
G1 X166.6 Y118 Z2.16 E133.241
G1 X167.86 Y118 Z2.16 E133.293
G1 X168.06 Y117.6 Z2.16 F12000
G1 X166.79 Y117.6 Z2.16 E133.345 F1500
G1 X165.53 Y117.6 Z2.16 E133.398
G1 X164.26 Y117.6 Z2.16 E133.45
G1 X162.99 Y117.6 Z2.17 E133.502
G1 X161.73 Y117.6 Z2.17 E133.554
G1 X160.46 Y117.6 Z2.17 E133.607
G1 X159.19 Y117.6 Z2.17 E133.659
G1 X157.93 Y117.6 Z2.17 E133.711
G1 X156.66 Y117.6 Z2.18 E133.763
G1 X155.39 Y117.6 Z2.18 E133.816
G1 X154.13 Y117.6 Z2.18 E133.868
G1 X152.86 Y117.6 Z2.18 E133.92
G1 X151.59 Y117.6 Z2.18 E133.972
G1 X150.33 Y117.6 Z2.19 E134.025
G1 X149.06 Y117.6 Z2.19 E134.077
G1 X147.79 Y117.6 Z2.19 E134.129
G1 X146.53 Y117.6 Z2.19 E134.181
G1 X145.26 Y117.6 Z2.2 E134.234
G1 X143.99 Y117.6 Z2.2 E134.286
G1 X142.73 Y117.6 Z2.2 E134.338
G1 X141.46 Y117.6 Z2.2 E134.391
G1 X140.19 Y117.6 Z2.21 E134.443
G1 X138.93 Y117.6 Z2.21 E134.495
G1 X137.66 Y117.6 Z2.21 E134.547
G1 X136.39 Y117.6 Z2.21 E134.6
G1 X135.13 Y117.6 Z2.21 E134.652
G1 X133.86 Y117.6 Z2.22 E134.704
G1 X132.59 Y117.6 Z2.22 E134.756
G1 X131.33 Y117.6 Z2.22 E134.809
G1 X130.06 Y117.6 Z2.22 E134.861
G1 X128.79 Y117.6 Z2.23 E134.913
G1 X127.53 Y117.6 Z2.23 E134.965
G1 X126.26 Y117.6 Z2.23 E135.018
G1 X125 Y117.6 Z2.23 E135.07
G1 X123.73 Y117.6 Z2.23 E135.122
G1 X122.46 Y117.6 Z2.24 E135.175
G1 X121.2 Y117.6 Z2.24 E135.227
G1 X119.93 Y117.6 Z2.24 E135.279
G1 X118.66 Y117.6 Z2.24 E135.331
G1 X117.4 Y117.6 Z2.25 E135.384
G1 X116.13 Y117.6 Z2.25 E135.436
G1 X114.86 Y117.6 Z2.25 E135.488
G1 X113.6 Y117.6 Z2.25 E135.54
G1 X112.33 Y117.6 Z2.26 E135.593
G1 X111.06 Y117.6 Z2.26 E135.645
G1 X109.8 Y117.6 Z2.26 E135.697
G1 X108.53 Y117.6 Z2.27 E135.749
G1 X107.26 Y117.6 Z2.27 E135.802
G1 X106 Y117.6 Z2.28 E135.854
G1 X104.73 Y117.6 Z2.28 E135.906
G1 X103.46 Y117.6 Z2.29 E135.958
G1 X102.2 Y117.6 Z2.29 E136.011
G1 X100.93 Y117.6 Z2.29 E136.063
G1 X99.66 Y117.6 Z2.3 E136.115
G1 X98.4 Y117.6 Z2.3 E136.168
G1 X97.13 Y117.6 Z2.31 E136.22
G1 X95.86 Y117.6 Z2.31 E136.272
G1 X94.6 Y117.6 Z2.32 E136.324
G1 X93.33 Y117.6 Z2.32 E136.377
G1 X92.06 Y117.6 Z2.33 E136.429
G1 X90.8 Y117.6 Z2.33 E136.481
G1 X89.53 Y117.6 Z2.34 E136.533
G1 X88.26 Y117.6 Z2.34 E136.586
G1 X87 Y117.6 Z2.35 E136.638
G1 X85.73 Y117.6 Z2.35 E136.69
G1 X84.46 Y117.6 Z2.36 E136.742
G1 X83.2 Y117.6 Z2.36 E136.795
G1 X81.93 Y117.6 Z2.37 E136.847
G1 X81.73 Y117.2 Z2.37 F12000
G1 X82.98 Y117.2 Z2.36 E136.899 F1500
G1 X84.24 Y117.2 Z2.36 E136.951
G1 X85.49 Y117.2 Z2.35 E137.002
G1 X86.75 Y117.2 Z2.35 E137.054
G1 X88 Y117.2 Z2.34 E137.106
G1 X89.26 Y117.2 Z2.34 E137.158
G1 X90.51 Y117.2 Z2.34 E137.209
G1 X91.76 Y117.2 Z2.33 E137.261
G1 X93.02 Y117.2 Z2.33 E137.313
G1 X94.27 Y117.2 Z2.32 E137.365
G1 X95.53 Y117.2 Z2.32 E137.416
G1 X96.78 Y117.2 Z2.31 E137.468
G1 X98.03 Y117.2 Z2.31 E137.52
G1 X99.29 Y117.2 Z2.3 E137.572
G1 X100.54 Y117.2 Z2.3 E137.623
G1 X101.8 Y117.2 Z2.29 E137.675
G1 X103.05 Y117.2 Z2.29 E137.727
G1 X104.31 Y117.2 Z2.28 E137.779
G1 X105.56 Y117.2 Z2.28 E137.83
G1 X106.81 Y117.2 Z2.27 E137.882
G1 X108.07 Y117.2 Z2.27 E137.934
G1 X109.32 Y117.2 Z2.26 E137.986
G1 X110.58 Y117.2 Z2.26 E138.037
G1 X111.83 Y117.2 Z2.26 E138.089
G1 X113.09 Y117.2 Z2.25 E138.141
G1 X114.34 Y117.2 Z2.25 E138.193
G1 X115.59 Y117.2 Z2.25 E138.244
G1 X116.85 Y117.2 Z2.25 E138.296
G1 X118.1 Y117.2 Z2.24 E138.348
G1 X119.36 Y117.2 Z2.24 E138.4
G1 X120.61 Y117.2 Z2.24 E138.451
G1 X121.86 Y117.2 Z2.24 E138.503
G1 X123.12 Y117.2 Z2.24 E138.555
G1 X124.37 Y117.2 Z2.23 E138.607
G1 X125.63 Y117.2 Z2.23 E138.658
G1 X126.88 Y117.2 Z2.23 E138.71
G1 X128.14 Y117.2 Z2.23 E138.762
G1 X129.39 Y117.2 Z2.22 E138.814
G1 X130.64 Y117.2 Z2.22 E138.865
G1 X131.9 Y117.2 Z2.22 E138.917
G1 X133.15 Y117.2 Z2.22 E138.969
G1 X134.41 Y117.2 Z2.22 E139.021
G1 X135.66 Y117.2 Z2.21 E139.072
G1 X136.91 Y117.2 Z2.21 E139.124
G1 X138.17 Y117.2 Z2.21 E139.176
G1 X139.42 Y117.2 Z2.21 E139.228
G1 X140.68 Y117.2 Z2.2 E139.279
G1 X141.93 Y117.2 Z2.2 E139.331
G1 X143.19 Y117.2 Z2.2 E139.383
G1 X144.44 Y117.2 Z2.2 E139.435
G1 X145.69 Y117.2 Z2.2 E139.486
G1 X146.95 Y117.2 Z2.19 E139.538
G1 X148.2 Y117.2 Z2.19 E139.59
G1 X149.46 Y117.2 Z2.19 E139.642
G1 X150.71 Y117.2 Z2.19 E139.693
G1 X151.97 Y117.2 Z2.18 E139.745
G1 X153.22 Y117.2 Z2.18 E139.797
G1 X154.47 Y117.2 Z2.18 E139.849
G1 X155.73 Y117.2 Z2.18 E139.9
G1 X156.98 Y117.2 Z2.17 E139.952
G1 X158.24 Y117.2 Z2.17 E140.004
G1 X159.49 Y117.2 Z2.17 E140.056
G1 X160.74 Y117.2 Z2.17 E140.107
G1 X162 Y117.2 Z2.17 E140.159
G1 X163.25 Y117.2 Z2.17 E140.211
G1 X164.51 Y117.2 Z2.16 E140.263
G1 X165.76 Y117.2 Z2.16 E140.314
G1 X167.02 Y117.2 Z2.16 E140.366
G1 X168.27 Y117.2 Z2.16 E140.418
G1 X168.47 Y116.8 Z2.16 F12000
G1 X167.21 Y116.8 Z2.16 E140.47 F1500
G1 X165.95 Y116.8 Z2.16 E140.522
G1 X164.69 Y116.8 Z2.16 E140.574
G1 X163.43 Y116.8 Z2.17 E140.626
G1 X162.17 Y116.8 Z2.17 E140.678
G1 X160.91 Y116.8 Z2.17 E140.73
G1 X159.65 Y116.8 Z2.17 E140.782
G1 X158.39 Y116.8 Z2.17 E140.834
G1 X157.13 Y116.8 Z2.17 E140.886
G1 X155.87 Y116.8 Z2.18 E140.938
G1 X154.61 Y116.8 Z2.18 E140.99
G1 X153.35 Y116.8 Z2.18 E141.042
G1 X152.09 Y116.8 Z2.18 E141.094
G1 X150.83 Y116.8 Z2.19 E141.146
G1 X149.57 Y116.8 Z2.19 E141.198
G1 X148.31 Y116.8 Z2.19 E141.25
G1 X147.05 Y116.8 Z2.19 E141.302
G1 X145.79 Y116.8 Z2.19 E141.354
G1 X144.53 Y116.8 Z2.2 E141.406
G1 X143.27 Y116.8 Z2.2 E141.458
G1 X142.01 Y116.8 Z2.2 E141.51
G1 X140.75 Y116.8 Z2.2 E141.562
G1 X139.49 Y116.8 Z2.21 E141.614
G1 X138.23 Y116.8 Z2.21 E141.666
G1 X136.97 Y116.8 Z2.21 E141.718
G1 X135.71 Y116.8 Z2.21 E141.77
G1 X134.45 Y116.8 Z2.22 E141.822
G1 X133.19 Y116.8 Z2.22 E141.874
G1 X131.93 Y116.8 Z2.22 E141.926
G1 X130.67 Y116.8 Z2.22 E141.978
G1 X129.41 Y116.8 Z2.22 E142.03
G1 X128.15 Y116.8 Z2.23 E142.082
G1 X126.89 Y116.8 Z2.23 E142.134
G1 X125.63 Y116.8 Z2.23 E142.186
G1 X124.37 Y116.8 Z2.23 E142.238
G1 X123.11 Y116.8 Z2.24 E142.29
G1 X121.85 Y116.8 Z2.24 E142.342
G1 X120.59 Y116.8 Z2.24 E142.394
G1 X119.33 Y116.8 Z2.24 E142.446
G1 X118.07 Y116.8 Z2.24 E142.498
G1 X116.81 Y116.8 Z2.25 E142.55
G1 X115.55 Y116.8 Z2.25 E142.602
G1 X114.29 Y116.8 Z2.25 E142.654
G1 X113.03 Y116.8 Z2.25 E142.706
G1 X111.77 Y116.8 Z2.26 E142.758
G1 X110.51 Y116.8 Z2.26 E142.81
G1 X109.25 Y116.8 Z2.26 E142.862
G1 X107.99 Y116.8 Z2.27 E142.914
G1 X106.73 Y116.8 Z2.27 E142.966
G1 X105.47 Y116.8 Z2.28 E143.018
G1 X104.21 Y116.8 Z2.28 E143.07
G1 X102.95 Y116.8 Z2.29 E143.122
G1 X101.69 Y116.8 Z2.29 E143.174
G1 X100.43 Y116.8 Z2.3 E143.226
G1 X99.17 Y116.8 Z2.3 E143.278
G1 X97.91 Y116.8 Z2.31 E143.33
G1 X96.65 Y116.8 Z2.31 E143.382
G1 X95.39 Y116.8 Z2.32 E143.434
G1 X94.13 Y116.8 Z2.32 E143.486
G1 X92.87 Y116.8 Z2.33 E143.538
G1 X91.61 Y116.8 Z2.33 E143.59
G1 X90.35 Y116.8 Z2.34 E143.642
G1 X89.09 Y116.8 Z2.34 E143.694
G1 X87.83 Y116.8 Z2.35 E143.746
G1 X86.57 Y116.8 Z2.35 E143.798
G1 X85.31 Y116.8 Z2.36 E143.85
G1 X84.05 Y116.8 Z2.36 E143.902
G1 X82.79 Y116.8 Z2.36 E143.954
G1 X81.53 Y116.8 Z2.37 E144.006
G1 X81.33 Y116.4 Z2.37 F12000
G1 X82.6 Y116.4 Z2.37 E144.058 F1500
G1 X83.86 Y116.4 Z2.36 E144.11
G1 X85.13 Y116.4 Z2.36 E144.163
G1 X86.39 Y116.4 Z2.35 E144.215
G1 X87.66 Y116.4 Z2.35 E144.267
G1 X88.92 Y116.4 Z2.34 E144.319
G1 X90.19 Y116.4 Z2.34 E144.372
G1 X91.46 Y116.4 Z2.33 E144.424
G1 X92.72 Y116.4 Z2.33 E144.476
G1 X93.99 Y116.4 Z2.32 E144.528
G1 X95.25 Y116.4 Z2.32 E144.581
G1 X96.52 Y116.4 Z2.31 E144.633
G1 X97.79 Y116.4 Z2.31 E144.685
G1 X99.05 Y116.4 Z2.3 E144.737
G1 X100.32 Y116.4 Z2.3 E144.789
G1 X101.58 Y116.4 Z2.29 E144.842
G1 X102.85 Y116.4 Z2.29 E144.894
G1 X104.11 Y116.4 Z2.28 E144.946
G1 X105.38 Y116.4 Z2.28 E144.998
G1 X106.65 Y116.4 Z2.27 E145.051
G1 X107.91 Y116.4 Z2.27 E145.103
G1 X109.18 Y116.4 Z2.27 E145.155
G1 X110.44 Y116.4 Z2.26 E145.207
G1 X111.71 Y116.4 Z2.26 E145.26
G1 X112.97 Y116.4 Z2.25 E145.312
G1 X114.24 Y116.4 Z2.25 E145.364
G1 X115.51 Y116.4 Z2.25 E145.416
G1 X116.77 Y116.4 Z2.25 E145.468
G1 X118.04 Y116.4 Z2.24 E145.521
G1 X119.3 Y116.4 Z2.24 E145.573
G1 X120.57 Y116.4 Z2.24 E145.625
G1 X121.84 Y116.4 Z2.24 E145.677
G1 X123.1 Y116.4 Z2.24 E145.73
G1 X124.37 Y116.4 Z2.23 E145.782
G1 X125.63 Y116.4 Z2.23 E145.834
G1 X126.9 Y116.4 Z2.23 E145.886
G1 X128.16 Y116.4 Z2.23 E145.939
G1 X129.43 Y116.4 Z2.22 E145.991
G1 X130.7 Y116.4 Z2.22 E146.043
G1 X131.96 Y116.4 Z2.22 E146.095
G1 X133.23 Y116.4 Z2.22 E146.148
G1 X134.49 Y116.4 Z2.21 E146.2
G1 X135.76 Y116.4 Z2.21 E146.252
G1 X137.03 Y116.4 Z2.21 E146.304
G1 X138.29 Y116.4 Z2.21 E146.356
G1 X139.56 Y116.4 Z2.21 E146.409
G1 X140.82 Y116.4 Z2.2 E146.461
G1 X142.09 Y116.4 Z2.2 E146.513
G1 X143.35 Y116.4 Z2.2 E146.565
G1 X144.62 Y116.4 Z2.2 E146.618
G1 X145.89 Y116.4 Z2.19 E146.67
G1 X147.15 Y116.4 Z2.19 E146.722
G1 X148.42 Y116.4 Z2.19 E146.774
G1 X149.68 Y116.4 Z2.19 E146.827
G1 X150.95 Y116.4 Z2.19 E146.879
G1 X152.21 Y116.4 Z2.18 E146.931
G1 X153.48 Y116.4 Z2.18 E146.983
G1 X154.75 Y116.4 Z2.18 E147.035
G1 X156.01 Y116.4 Z2.18 E147.088
G1 X157.28 Y116.4 Z2.17 E147.14
G1 X158.54 Y116.4 Z2.17 E147.192
G1 X159.81 Y116.4 Z2.17 E147.244
G1 X161.08 Y116.4 Z2.17 E147.297
G1 X162.34 Y116.4 Z2.17 E147.349
G1 X163.61 Y116.4 Z2.16 E147.401
G1 X164.87 Y116.4 Z2.16 E147.453
G1 X166.14 Y116.4 Z2.16 E147.506
G1 X167.4 Y116.4 Z2.16 E147.558
G1 X168.67 Y116.4 Z2.16 E147.61
G1 X168.87 Y116 Z2.16 F12000
G1 X167.62 Y116 Z2.16 E147.662 F1500
G1 X166.36 Y116 Z2.16 E147.713
G1 X165.11 Y116 Z2.16 E147.765
G1 X163.86 Y116 Z2.16 E147.817
G1 X162.6 Y116 Z2.17 E147.869
G1 X161.35 Y116 Z2.17 E147.92
G1 X160.1 Y116 Z2.17 E147.972
G1 X158.84 Y116 Z2.17 E148.024
G1 X157.59 Y116 Z2.17 E148.076
G1 X156.34 Y116 Z2.18 E148.127
G1 X155.08 Y116 Z2.18 E148.179
G1 X153.83 Y116 Z2.18 E148.231
G1 X152.58 Y116 Z2.18 E148.282
G1 X151.32 Y116 Z2.18 E148.334
G1 X150.07 Y116 Z2.19 E148.386
G1 X148.82 Y116 Z2.19 E148.438
G1 X147.56 Y116 Z2.19 E148.489
G1 X146.31 Y116 Z2.19 E148.541
G1 X145.05 Y116 Z2.2 E148.593
G1 X143.8 Y116 Z2.2 E148.645
G1 X142.55 Y116 Z2.2 E148.696
G1 X141.29 Y116 Z2.2 E148.748
G1 X140.04 Y116 Z2.2 E148.8
G1 X138.79 Y116 Z2.21 E148.851
G1 X137.53 Y116 Z2.21 E148.903
G1 X136.28 Y116 Z2.21 E148.955
G1 X135.03 Y116 Z2.21 E149.007
G1 X133.77 Y116 Z2.22 E149.058
G1 X132.52 Y116 Z2.22 E149.11
G1 X131.27 Y116 Z2.22 E149.162
G1 X130.01 Y116 Z2.22 E149.214
G1 X128.76 Y116 Z2.23 E149.265
G1 X127.51 Y116 Z2.23 E149.317
G1 X126.25 Y116 Z2.23 E149.369
G1 X125 Y116 Z2.23 E149.421
G1 X123.75 Y116 Z2.23 E149.472
G1 X122.49 Y116 Z2.24 E149.524
G1 X121.24 Y116 Z2.24 E149.576
G1 X119.99 Y116 Z2.24 E149.627
G1 X118.73 Y116 Z2.24 E149.679
G1 X117.48 Y116 Z2.25 E149.731
G1 X116.23 Y116 Z2.25 E149.783
G1 X114.97 Y116 Z2.25 E149.834
G1 X113.72 Y116 Z2.25 E149.886
G1 X112.47 Y116 Z2.25 E149.938
G1 X111.21 Y116 Z2.26 E149.99
G1 X109.96 Y116 Z2.26 E150.041
G1 X108.71 Y116 Z2.27 E150.093
G1 X107.45 Y116 Z2.27 E150.145
G1 X106.2 Y116 Z2.28 E150.196
G1 X104.95 Y116 Z2.28 E150.248
G1 X103.69 Y116 Z2.28 E150.3
G1 X102.44 Y116 Z2.29 E150.352
G1 X101.18 Y116 Z2.29 E150.403
G1 X99.93 Y116 Z2.3 E150.455
G1 X98.68 Y116 Z2.3 E150.507
G1 X97.42 Y116 Z2.31 E150.559
G1 X96.17 Y116 Z2.31 E150.61
G1 X94.92 Y116 Z2.32 E150.662
G1 X93.66 Y116 Z2.32 E150.714
G1 X92.41 Y116 Z2.33 E150.765
G1 X91.16 Y116 Z2.33 E150.817
G1 X89.9 Y116 Z2.34 E150.869
G1 X88.65 Y116 Z2.34 E150.921
G1 X87.4 Y116 Z2.35 E150.972
G1 X86.14 Y116 Z2.35 E151.024
G1 X84.89 Y116 Z2.36 E151.076
G1 X83.64 Y116 Z2.36 E151.128
G1 X82.38 Y116 Z2.37 E151.179
G1 X81.13 Y116 Z2.37 E151.231
G1 X80.92 Y115.6 Z2.37 F12000
G1 X82.18 Y115.6 Z2.37 E151.283 F1500
G1 X83.44 Y115.6 Z2.36 E151.335
G1 X84.7 Y115.6 Z2.36 E151.387
G1 X85.96 Y115.6 Z2.35 E151.439
G1 X87.22 Y115.6 Z2.35 E151.491
G1 X88.48 Y115.6 Z2.34 E151.543
G1 X89.74 Y115.6 Z2.34 E151.595
G1 X91 Y115.6 Z2.33 E151.647
G1 X92.25 Y115.6 Z2.33 E151.699
G1 X93.51 Y115.6 Z2.32 E151.751
G1 X94.77 Y115.6 Z2.32 E151.803
G1 X96.03 Y115.6 Z2.31 E151.855
G1 X97.29 Y115.6 Z2.31 E151.907
G1 X98.55 Y115.6 Z2.3 E151.959
G1 X99.81 Y115.6 Z2.3 E152.011
G1 X101.07 Y115.6 Z2.3 E152.063
G1 X102.33 Y115.6 Z2.29 E152.115
G1 X103.59 Y115.6 Z2.29 E152.166
G1 X104.85 Y115.6 Z2.28 E152.218
G1 X106.11 Y115.6 Z2.28 E152.27
G1 X107.37 Y115.6 Z2.27 E152.322
G1 X108.63 Y115.6 Z2.27 E152.374
G1 X109.89 Y115.6 Z2.26 E152.426
G1 X111.15 Y115.6 Z2.26 E152.478
G1 X112.41 Y115.6 Z2.25 E152.53
G1 X113.67 Y115.6 Z2.25 E152.582
G1 X114.92 Y115.6 Z2.25 E152.634
G1 X116.18 Y115.6 Z2.25 E152.686
G1 X117.44 Y115.6 Z2.25 E152.738
G1 X118.7 Y115.6 Z2.24 E152.79
G1 X119.96 Y115.6 Z2.24 E152.842
G1 X121.22 Y115.6 Z2.24 E152.894
G1 X122.48 Y115.6 Z2.24 E152.946
G1 X123.74 Y115.6 Z2.23 E152.998
G1 X125 Y115.6 Z2.23 E153.05
G1 X126.26 Y115.6 Z2.23 E153.102
G1 X127.52 Y115.6 Z2.23 E153.154
G1 X128.78 Y115.6 Z2.22 E153.206
G1 X130.04 Y115.6 Z2.22 E153.258
G1 X131.3 Y115.6 Z2.22 E153.31
G1 X132.56 Y115.6 Z2.22 E153.362
G1 X133.82 Y115.6 Z2.22 E153.414
G1 X135.08 Y115.6 Z2.21 E153.466
G1 X136.33 Y115.6 Z2.21 E153.518
G1 X137.59 Y115.6 Z2.21 E153.57
G1 X138.85 Y115.6 Z2.21 E153.622
G1 X140.11 Y115.6 Z2.2 E153.674
G1 X141.37 Y115.6 Z2.2 E153.726
G1 X142.63 Y115.6 Z2.2 E153.778
G1 X143.89 Y115.6 Z2.2 E153.83
G1 X145.15 Y115.6 Z2.2 E153.882
G1 X146.41 Y115.6 Z2.19 E153.934
G1 X147.67 Y115.6 Z2.19 E153.985
G1 X148.93 Y115.6 Z2.19 E154.037
G1 X150.19 Y115.6 Z2.19 E154.089
G1 X151.45 Y115.6 Z2.18 E154.141
G1 X152.71 Y115.6 Z2.18 E154.193
G1 X153.97 Y115.6 Z2.18 E154.245
G1 X155.23 Y115.6 Z2.18 E154.297
G1 X156.49 Y115.6 Z2.17 E154.349
G1 X157.75 Y115.6 Z2.17 E154.401
G1 X159 Y115.6 Z2.17 E154.453
G1 X160.26 Y115.6 Z2.17 E154.505
G1 X161.52 Y115.6 Z2.17 E154.557
G1 X162.78 Y115.6 Z2.17 E154.609
G1 X164.04 Y115.6 Z2.16 E154.661
G1 X165.3 Y115.6 Z2.16 E154.713
G1 X166.56 Y115.6 Z2.16 E154.765
G1 X167.82 Y115.6 Z2.16 E154.817
G1 X169.08 Y115.6 Z2.16 E154.869
G1 X169.28 Y115.2 Z2.16 F12000
G1 X168.01 Y115.2 Z2.16 E154.921 F1500
G1 X166.75 Y115.2 Z2.16 E154.973
G1 X165.48 Y115.2 Z2.16 E155.026
G1 X164.22 Y115.2 Z2.16 E155.078
G1 X162.95 Y115.2 Z2.17 E155.13
G1 X161.69 Y115.2 Z2.17 E155.182
G1 X160.42 Y115.2 Z2.17 E155.234
G1 X159.16 Y115.2 Z2.17 E155.287
G1 X157.89 Y115.2 Z2.17 E155.339
G1 X156.63 Y115.2 Z2.17 E155.391
G1 X155.36 Y115.2 Z2.18 E155.443
G1 X154.1 Y115.2 Z2.18 E155.495
G1 X152.83 Y115.2 Z2.18 E155.548
G1 X151.57 Y115.2 Z2.18 E155.6
G1 X150.3 Y115.2 Z2.19 E155.652
G1 X149.04 Y115.2 Z2.19 E155.704
G1 X147.77 Y115.2 Z2.19 E155.756
G1 X146.51 Y115.2 Z2.19 E155.809
G1 X145.24 Y115.2 Z2.19 E155.861
G1 X143.98 Y115.2 Z2.2 E155.913
G1 X142.71 Y115.2 Z2.2 E155.965
G1 X141.45 Y115.2 Z2.2 E156.017
G1 X140.18 Y115.2 Z2.2 E156.07
G1 X138.92 Y115.2 Z2.21 E156.122
G1 X137.65 Y115.2 Z2.21 E156.174
G1 X136.39 Y115.2 Z2.21 E156.226
G1 X135.12 Y115.2 Z2.21 E156.278
G1 X133.86 Y115.2 Z2.22 E156.331
G1 X132.59 Y115.2 Z2.22 E156.383
G1 X131.33 Y115.2 Z2.22 E156.435
G1 X130.06 Y115.2 Z2.22 E156.487
G1 X128.8 Y115.2 Z2.22 E156.539
G1 X127.53 Y115.2 Z2.23 E156.592
G1 X126.27 Y115.2 Z2.23 E156.644
G1 X125 Y115.2 Z2.23 E156.696
G1 X123.73 Y115.2 Z2.23 E156.748
G1 X122.47 Y115.2 Z2.24 E156.8
G1 X121.2 Y115.2 Z2.24 E156.853
G1 X119.94 Y115.2 Z2.24 E156.905
G1 X118.67 Y115.2 Z2.24 E156.957
G1 X117.41 Y115.2 Z2.24 E157.009
G1 X116.14 Y115.2 Z2.25 E157.061
G1 X114.88 Y115.2 Z2.25 E157.114
G1 X113.61 Y115.2 Z2.25 E157.166
G1 X112.35 Y115.2 Z2.25 E157.218
G1 X111.08 Y115.2 Z2.26 E157.27
G1 X109.82 Y115.2 Z2.26 E157.322
G1 X108.55 Y115.2 Z2.27 E157.375
G1 X107.29 Y115.2 Z2.27 E157.427
G1 X106.02 Y115.2 Z2.28 E157.479
G1 X104.76 Y115.2 Z2.28 E157.531
G1 X103.49 Y115.2 Z2.29 E157.583
G1 X102.23 Y115.2 Z2.29 E157.636
G1 X100.96 Y115.2 Z2.3 E157.688
G1 X99.7 Y115.2 Z2.3 E157.74
G1 X98.43 Y115.2 Z2.31 E157.792
G1 X97.17 Y115.2 Z2.31 E157.844
G1 X95.9 Y115.2 Z2.32 E157.897
G1 X94.64 Y115.2 Z2.32 E157.949
G1 X93.37 Y115.2 Z2.32 E158.001
G1 X92.11 Y115.2 Z2.33 E158.053
G1 X90.84 Y115.2 Z2.33 E158.105
G1 X89.58 Y115.2 Z2.34 E158.158
G1 X88.31 Y115.2 Z2.34 E158.21
G1 X87.05 Y115.2 Z2.35 E158.262
G1 X85.78 Y115.2 Z2.35 E158.314
G1 X84.52 Y115.2 Z2.36 E158.366
G1 X83.25 Y115.2 Z2.36 E158.419
G1 X81.99 Y115.2 Z2.37 E158.471
G1 X80.72 Y115.2 Z2.37 E158.523
G1 X80.52 Y114.8 Z2.37 F12000
G1 X81.77 Y114.8 Z2.37 E158.575 F1500
G1 X83.03 Y114.8 Z2.36 E158.626
G1 X84.28 Y114.8 Z2.36 E158.678
G1 X85.53 Y114.8 Z2.36 E158.73
G1 X86.78 Y114.8 Z2.35 E158.782
G1 X88.04 Y114.8 Z2.35 E158.833
G1 X89.29 Y114.8 Z2.34 E158.885
G1 X90.54 Y114.8 Z2.34 E158.937
G1 X91.8 Y114.8 Z2.33 E158.988
G1 X93.05 Y114.8 Z2.33 E159.04
G1 X94.3 Y114.8 Z2.32 E159.092
G1 X95.56 Y114.8 Z2.32 E159.143
G1 X96.81 Y114.8 Z2.31 E159.195
G1 X98.06 Y114.8 Z2.31 E159.247
G1 X99.31 Y114.8 Z2.3 E159.299
G1 X100.57 Y114.8 Z2.3 E159.35
G1 X101.82 Y114.8 Z2.29 E159.402
G1 X103.07 Y114.8 Z2.29 E159.454
G1 X104.33 Y114.8 Z2.28 E159.505
G1 X105.58 Y114.8 Z2.28 E159.557
G1 X106.83 Y114.8 Z2.27 E159.609
G1 X108.09 Y114.8 Z2.27 E159.66
G1 X109.34 Y114.8 Z2.26 E159.712
G1 X110.59 Y114.8 Z2.26 E159.764
G1 X111.84 Y114.8 Z2.26 E159.816
G1 X113.1 Y114.8 Z2.25 E159.867
G1 X114.35 Y114.8 Z2.25 E159.919
G1 X115.6 Y114.8 Z2.25 E159.971
G1 X116.86 Y114.8 Z2.25 E160.022
G1 X118.11 Y114.8 Z2.24 E160.074
G1 X119.36 Y114.8 Z2.24 E160.126
G1 X120.61 Y114.8 Z2.24 E160.178
G1 X121.87 Y114.8 Z2.24 E160.229
G1 X123.12 Y114.8 Z2.23 E160.281
G1 X124.37 Y114.8 Z2.23 E160.333
G1 X125.63 Y114.8 Z2.23 E160.384
G1 X126.88 Y114.8 Z2.23 E160.436
G1 X128.13 Y114.8 Z2.23 E160.488
G1 X129.39 Y114.8 Z2.22 E160.539
