; Generated with MatterSlice 2.20.11
; filamentDiameter = 2.85
; extrusionWidth = 0.5
; firstLayerExtrusionWidth = 0.5
; layerThickness = 0.21
; firstLayerThickness = 0.42
; automatic settings before start_gcode
G21 ; set units to millimeters
M107 ; fan off
M140 S115 ; start heating the bed
M104 T0 S240 ; start heating T0
T0 ; set the active extruder to 0
; settings from start_gcode
G28 ; home all axes
M117 HD Printing...
; automatic settings after start_gcode
M190 S115 ; wait for bed temperature to be reached
M109 T0 S240 ; Finish heating T0
T0 ; set the active extruder to 0
G90 ; use absolute coordinates
G92 E0 ; reset the expected extruder position
M82 ; use absolute distance for extrusion
; Layer count: 9
; Layer Change GCode
; LAYER:0
; LAYER_HEIGHT:0.42
; TYPE:FILL
M400
M107
G1 X0 Y0 Z0.42 F6000
G1 X99.83 Y70.1
G1 X124.53 Y70.75
G1 X175.24 Y73.85
G1 X178.12 Y73.81
G1 X182.37 Y74.48
; TYPE:SKIRT
G1 E0 F3000
G1 X189.27 Y79.4 E0.279 F900
G1 X194.51 Y85.24 E0.537
G1 X197.82 Y91.78 E0.779
G1 X198.95 Y98.73 E1.01
G1 X197.82 Y105.67 E1.242
G1 X194.51 Y112.21 E1.483
G1 X189.27 Y118.05 E1.741
G1 X182.37 Y122.97 E2.02
G1 X174.08 Y126.83 E2.321
G1 X173.32 Y127.05 E2.347
G1 X155.33 Y128.19 E2.941
G1 X144.67 E3.292
G1 X126.68 Y127.05 E3.885
G1 X125.87 Y126.82 E3.913
G1 X117.63 Y122.97 E4.212
G1 X110.73 Y118.05 E4.491
G1 X105.49 Y112.21 E4.749
G1 X102.18 Y105.67 E4.991
G1 X101.05 Y98.73 E5.222
G1 X102.18 Y91.78 E5.454
G1 X105.49 Y85.24 E5.695
G1 X110.73 Y79.4 E5.953
G1 X117.63 Y74.48 E6.232
G1 X123.34 Y71.82 E6.44
G1 X176.66 E8.195
G1 X182.37 Y74.48 E8.402
G1 X182.11 Y74.91 F6000
G1 X188.93 Y79.78 E8.678 F900
G1 X194.09 Y85.53 E8.932
G1 X197.34 Y91.94 E9.169
G1 X198.45 Y98.73 E9.395
G1 X197.34 Y105.51 E9.622
G1 X194.09 Y111.93 E9.858
G1 X188.93 Y117.67 E10.113
G1 X182.11 Y122.54 E10.388
G1 X173.91 Y126.36 E10.686
G1 X173.23 Y126.56 E10.709
G1 X155.31 Y127.69 E11.301
G1 X144.69 E11.65
G1 X126.77 Y126.56 E12.241
G1 X126.05 Y126.35 E12.266
G1 X117.89 Y122.54 E12.562
G1 X111.07 Y117.67 E12.838
G1 X105.91 Y111.93 E13.092
G1 X102.66 Y105.51 E13.329
G1 X101.56 Y98.73 E13.555
G1 X102.66 Y91.94 E13.782
G1 X105.91 Y85.53 E14.018
G1 X111.07 Y79.78 E14.273
G1 X117.89 Y74.91 E14.548
G1 X123.45 Y72.32 E14.75
G1 X176.55 E16.498
G1 X182.11 Y74.91 E16.701
G1 X181.86 Y75.35 F6000
G1 X188.6 Y80.15 E16.973 F900
G1 X193.68 Y85.81 E17.223
G1 X196.86 Y92.1 E17.455
G1 X197.94 Y98.73 E17.676
G1 X196.86 Y105.36 E17.897
G1 X193.68 Y111.64 E18.129
G1 X188.6 Y117.3 E18.38
G1 X181.86 Y122.1 E18.652
G1 X173.73 Y125.89 E18.947
G1 X173.15 Y126.06 E18.967
G1 X155.29 Y127.19 E19.556
G1 X144.71 E19.905
G1 X126.85 Y126.06 E20.493
G1 X126.23 Y125.88 E20.515
G1 X118.14 Y122.1 E20.809
G1 X111.4 Y117.3 E21.081
G1 X106.32 Y111.64 E21.331
G1 X103.15 Y105.36 E21.563
G1 X102.06 Y98.73 E21.784
G1 X103.15 Y92.1 E22.006
G1 X106.32 Y85.81 E22.237
G1 X111.4 Y80.15 E22.488
G1 X118.14 Y75.35 E22.76
G1 X123.56 Y72.82 E22.957
G1 X176.44 E24.698
G1 X181.86 Y75.35 E24.895
G1 E17.895 F3000
G1 X180.48 Y77.18 F6000
G1 X181.13 Y78
G1 X181.38 Y82.71
G1 X181.12 Y87.19
G1 X178.44 Y89.71
G1 X159.64 Y108.23
G1 X158.73 Y108.39
G1 X158.57 Y109.29
; TYPE:WALL-OUTER
G1 E24.895 F3000
G1 X155.14 Y125.28 E25.433 F900
G1 X152.14 Y120.48 E25.619
G1 X147.86 E25.76
G1 X144.86 Y125.28 E25.947
G1 X141.43 Y109.29 E26.485
G1 X140.7 Y109.13 E26.51
G1 X137.17 Y108.96 E26.626
G1 X133.88 Y109.43 E26.735
G1 X130.98 Y110.53 E26.837
G1 X128.6 Y112.21 E26.933
G1 X126.86 Y114.41 E27.026
G1 X125.83 Y117.02 E27.118
G1 X125.56 Y119.92 E27.214
G1 X126.06 Y122.97 E27.316
G1 X126.64 Y124.42 E27.367
G1 X118.89 Y120.8 E27.648
G1 X112.41 Y116.17 E27.91
G1 X107.57 Y110.79 E28.149
G1 X104.59 Y104.89 E28.367
G1 X103.58 Y98.73 E28.572
G1 X104.59 Y92.57 E28.777
G1 X107.57 Y86.67 E28.995
G1 X112.41 Y81.28 E29.233
G1 X118.89 Y76.65 E29.496
G1 X123.14 Y74.67 E29.65
G1 X122.12 Y76.21 E29.711
G1 X120.17 Y80.22 E29.858
G1 X119.16 Y83.81 E29.98
G1 X119.19 Y86.69 E30.075
G1 X120.31 Y88.65 E30.15
G1 X122.44 Y89.42 E30.224
G1 X125.29 Y88.94 E30.319
G1 X128.64 Y87.33 E30.441
G1 X132.21 Y84.75 E30.586
G1 X132.92 Y87.26 E30.672
G1 X134.41 Y88.86 E30.745
G1 X136.56 Y89.36 E30.817
G1 X139.1 Y88.71 E30.903
G1 X141.85 Y87.03 E31.01
G1 X144.6 Y84.44 E31.134
G1 X147.15 Y81.17 E31.27
G1 X149.29 Y77.46 E31.411
G1 X150 Y75.71 E31.473
G1 X150.71 Y77.46 E31.536
G1 X152.85 Y81.17 E31.677
G1 X155.4 Y84.44 E31.813
G1 X158.15 Y87.03 E31.937
G1 X160.9 Y88.71 E32.043
G1 X163.44 Y89.36 E32.13
G1 X165.59 Y88.86 E32.202
G1 X167.09 Y87.26 E32.275
G1 X167.79 Y84.75 E32.36
G1 X171.36 Y87.33 E32.505
G1 X174.71 Y88.94 E32.628
G1 X177.56 Y89.42 E32.723
G1 X179.69 Y88.65 E32.797
G1 X180.81 Y86.69 E32.872
G1 X180.84 Y83.81 E32.967
G1 X179.83 Y80.22 E33.089
G1 X177.88 Y76.21 E33.236
G1 X176.86 Y74.67 E33.297
G1 X181.1 Y76.65 E33.451
G1 X187.59 Y81.28 E33.714
G1 X192.43 Y86.67 E33.952
G1 X195.41 Y92.57 E34.17
G1 X196.42 Y98.73 E34.375
G1 X195.41 Y104.89 E34.58
G1 X192.43 Y110.79 E34.798
G1 X187.59 Y116.17 E35.037
G1 X181.11 Y120.8 E35.299
G1 X173.37 Y124.41 E35.58
G1 X173.94 Y122.97 E35.631
G1 X174.44 Y119.92 E35.733
G1 X174.17 Y117.02 E35.829
G1 X173.14 Y114.41 E35.921
G1 X171.4 Y112.21 E36.013
G1 X169.02 Y110.53 E36.109
G1 X166.12 Y109.43 E36.211
G1 X162.83 Y108.96 E36.32
G1 X159.24 Y109.14 E36.439
G1 X158.61 Y109.28 E36.46
G1 X158.57 Y109.29
G1 X157.94 Y112.23
G1 X158.32 Y108.96 F6000
; TYPE:FILL
G1 X177.5 Y89.79 E37.353 F900
G1 X176.89 Y89.69 F6000
G1 X144.55 Y122.03 E38.859 F900
G1 X144.42 Y121.45 F6000
G1 X176.29 Y89.59 E40.342 F900
G1 X175.68 Y89.49 F6000
G1 X144.3 Y120.87 E41.803 F900
G1 X144.17 Y120.29 F6000
G1 X175.07 Y89.38 E43.241 F900
G1 X174.5 Y89.26 F6000
G1 X144.05 Y119.7 E44.659 F900
G1 X143.92 Y119.12 F6000
G1 X174.02 Y89.03 E46.06 F900
G1 X173.54 Y88.8 F6000
G1 X143.8 Y118.54 E47.445 F900
G1 X143.67 Y117.96 F6000
G1 X173.06 Y88.57 E48.813 F900
G1 X172.59 Y88.34 F6000
G1 X143.55 Y117.37 E50.165 F900
G1 X143.42 Y116.79 F6000
G1 X172.11 Y88.11 E51.5 F900
G1 X171.63 Y87.88 F6000
G1 X143.3 Y116.21 E52.819 F900
G1 X143.17 Y115.63 F6000
G1 X171.16 Y87.65 E54.122 F900
G1 X170.75 Y87.35 F6000
G1 X143.05 Y115.04 E55.411 F900
G1 X142.92 Y114.46 F6000
G1 X170.33 Y87.05 E56.687 F900
G1 X169.92 Y86.75 F6000
G1 X142.8 Y113.88 E57.95 F900
G1 X142.68 Y113.3 F6000
G1 X169.51 Y86.46 E59.199 F900
G1 X169.1 Y86.16 F6000
G1 X142.55 Y112.72 E60.436 F900
G1 X142.43 Y112.13 F6000
G1 X165.23 Y89.33 E61.497 F900
G1 X164.31 Y89.54 F6000
G1 X142.3 Y111.55 E62.522 F900
G1 X142.18 Y110.97 F6000
G1 X163.41 Y89.74 E63.51 F900
G1 X162.84 Y89.59 F6000
G1 X142.05 Y110.39 E64.478 F900
G1 X141.93 Y109.8 F6000
G1 X162.28 Y89.45 E65.426 F900
G1 X161.71 Y89.31 F6000
G1 X141.8 Y109.22 E66.353 F900
G1 X141.41 Y108.91 F6000
G1 X161.15 Y89.17 E67.272 F900
G1 X160.62 Y88.99 F6000
G1 X140.83 Y108.78 E68.193 F900
G1 X140.17 Y108.73 F6000
G1 X160.18 Y88.72 E69.125 F900
G1 X159.75 Y88.45 F6000
G1 X139.5 Y108.7 E70.067 F900
G1 X138.82 Y108.66 F6000
G1 X159.31 Y88.18 E71.021 F900
G1 X158.87 Y87.91 F6000
G1 X138.15 Y108.63 E71.986 F900
G1 X137.48 Y108.6 F6000
G1 X158.43 Y87.64 E72.961 F900
G1 X157.99 Y87.37 F6000
G1 X136.72 Y108.64 E73.951 F900
G1 X135.9 Y108.76 F6000
G1 X157.62 Y87.04 E74.962 F900
G1 X157.25 Y86.7 F6000
G1 X135.07 Y108.88 E75.995 F900
G1 X134.25 Y109 F6000
G1 X156.89 Y86.36 E77.049 F900
G1 X156.52 Y86.01 F6000
G1 X133.29 Y109.25 E78.13 F900
G1 X132.15 Y109.68 F6000
G1 X156.16 Y85.67 E79.248 F900
G1 X155.79 Y85.33 F6000
G1 X131.01 Y110.11 E80.402 F900
G1 X130.64 Y109.74 F6000
G1 X128.82 Y111.6
G1 X155.43 Y84.99 E81.641 F900
G1 X155.07 Y84.64 F6000
G1 X119.19 Y120.52 E83.311 F900
G1 X118.76 Y120.24 F6000
G1 X154.76 Y84.24 E84.987 F900
G1 X154.45 Y83.84 F6000
G1 X118.35 Y119.95 E86.668 F900
G1 X117.93 Y119.65 F6000
G1 X154.15 Y83.44 E88.354 F900
G1 X153.84 Y83.04 F6000
G1 X117.52 Y119.36 E90.045 F900
G1 X117.11 Y119.07 F6000
G1 X153.53 Y82.65 E91.74 F900
G1 X153.22 Y82.25 F6000
G1 X116.7 Y118.77 E93.441 F900
G1 X116.28 Y118.48 F6000
G1 X152.91 Y81.85 E95.146 F900
G1 X152.6 Y81.45 F6000
G1 X115.87 Y118.18 E96.855 F900
G1 X115.46 Y117.89 F6000
G1 X152.33 Y81.02 E98.572 F900
G1 X152.07 Y80.57 F6000
G1 X115.04 Y117.59 E100.296 F900
G1 X114.63 Y117.3 F6000
G1 X151.81 Y80.12 E102.027 F900
G1 X151.55 Y79.67 F6000
G1 X114.22 Y117 E103.765 F900
G1 X113.81 Y116.71 F6000
G1 X151.29 Y79.22 E105.51 F900
G1 X151.04 Y78.77 F6000
G1 X113.39 Y116.42 E107.262 F900
G1 X112.98 Y116.12 F6000
G1 X141.29 Y87.81 E108.58 F900
G1 X139.46 Y88.94 F6000
G1 X112.59 Y115.81 E109.831 F900
G1 X112.25 Y115.44 F6000
G1 X138.41 Y89.28 E111.049 F900
G1 X137.47 Y89.51 F6000
G1 X111.92 Y115.06 E112.239 F900
G1 X111.58 Y114.69 F6000
G1 X136.54 Y89.74 E113.4 F900
G1 X135.96 Y89.6 F6000
G1 X111.25 Y114.32 E114.551 F900
G1 X110.91 Y113.95 F6000
G1 X135.39 Y89.47 E115.69 F900
G1 X134.81 Y89.34 F6000
G1 X110.58 Y113.57 E116.818 F900
G1 X110.24 Y113.2 F6000
G1 X134.24 Y89.21 E117.935 F900
G1 X133.89 Y88.85 F6000
G1 X109.91 Y112.83 E119.052 F900
G1 X109.58 Y112.46 F6000
G1 X133.55 Y88.48 E120.168 F900
G1 X133.21 Y88.12 F6000
G1 X109.24 Y112.08 E121.283 F900
G1 X108.91 Y111.71 F6000
G1 X132.87 Y87.75 E122.399 F900
G1 X132.55 Y87.36 F6000
G1 X108.57 Y111.34 E123.515 F900
G1 X108.24 Y110.97 F6000
G1 X132.4 Y86.81 E124.64 F900
G1 X132.24 Y86.25 F6000
G1 X107.9 Y110.59 E125.773 F900
G1 X107.66 Y110.13 F6000
G1 X132.09 Y85.7 E126.91 F900
G1 X130.99 Y86.09 F6000
G1 X107.42 Y109.66 E128.007 F900
G1 X107.18 Y109.19 F6000
G1 X128.62 Y87.75 E129.005 F900
G1 X127.26 Y88.41 F6000
G1 X106.95 Y108.72 E129.951 F900
G1 X106.71 Y108.25 F6000
G1 X125.89 Y89.07 E130.844 F900
G1 X124.86 Y89.4 F6000
G1 X106.47 Y107.78 E131.7 F900
G1 X106.24 Y107.31 F6000
G1 X124.01 Y89.54 E132.527 F900
G1 X123.16 Y89.68 F6000
G1 X106 Y106.84 E133.326 F900
G1 X105.76 Y106.37 F6000
G1 X122.35 Y89.78 E134.099 F900
G1 X121.83 Y89.6 F6000
G1 X105.52 Y105.9 E134.858 F900
G1 X105.29 Y105.43 F6000
G1 X121.31 Y89.41 E135.604 F900
G1 X120.79 Y89.22 F6000
G1 X105.05 Y104.96 E136.336 F900
G1 X104.89 Y104.41 F6000
G1 X120.27 Y89.04 E137.052 F900
G1 X119.9 Y88.69 F6000
G1 X104.79 Y103.81 E137.756 F900
G1 X104.69 Y103.2 F6000
G1 X119.65 Y88.24 E138.452 F900
G1 X119.39 Y87.79 F6000
G1 X104.59 Y102.59 E139.141 F900
G1 X104.49 Y101.98 F6000
G1 X119.13 Y87.34 E139.822 F900
G1 X118.87 Y86.89 F6000
G1 X104.39 Y101.37 E140.496 F900
G1 X104.29 Y100.77 F6000
G1 X118.81 Y86.25 E141.172 F900
G1 X118.8 Y85.55 F6000
G1 X104.19 Y100.16 E141.852 F900
G1 X104.1 Y99.55 F6000
G1 X118.8 Y84.85 E142.537 F900
G1 X118.79 Y84.15 F6000
G1 X104 Y98.94 E143.225 F900
G1 X104.05 Y98.18 F6000
G1 X118.91 Y83.32 E143.917 F900
G1 X119.19 Y82.34 F6000
G1 X104.19 Y97.34 E144.615 F900
G1 X104.33 Y96.49 F6000
G1 X119.46 Y81.36 E145.32 F900
G1 X119.74 Y80.37 F6000
G1 X104.46 Y95.65 E146.031 F900
G1 X104.6 Y94.8 F6000
G1 X120.29 Y79.11 E146.762 F900
G1 X120.96 Y77.73 F6000
G1 X104.74 Y93.96 E147.517 F900
G1 X104.88 Y93.11 F6000
G1 X121.63 Y76.36 E148.297 F900
G1 X121.38 Y75.91 F6000
G1 X105.31 Y91.97 E149.045 F900
G1 X106.03 Y90.55 F6000
G1 X120.05 Y76.53 E149.698 F900
G1 X118.41 Y77.45 F6000
G1 X106.75 Y89.12 E150.24 F900
G1 X107.48 Y87.69 F6000
G1 X115.95 Y79.21 E150.635 F900
G1 X116.13 Y79.4 F6000
G1 X113.48 Y80.97
G1 X110.6 Y83.86 E150.769 F900
G1 E143.769 F3000
G1 X127.81 Y112.61 F6000
G1 E150.769 F3000
G1 X119.67 Y120.75 E151.148 F900
G1 X120.15 Y120.97 F6000
G1 X126.29 Y114.84 E151.434 F900
G1 X125.82 Y116.01 F6000
G1 X120.63 Y121.2 E151.675 F900
G1 X121.11 Y121.42 F6000
G1 X125.44 Y117.09 E151.877 F900
G1 X125.37 Y117.87 F6000
G1 X121.6 Y121.65 E152.053 F900
G1 X122.08 Y121.87 F6000
G1 X125.3 Y118.65 E152.203 F900
G1 X125.23 Y119.43 F6000
G1 X122.56 Y122.1 E152.327 F900
G1 X123.04 Y122.32 F6000
G1 X125.22 Y120.15 E152.428 F900
G1 X125.31 Y120.76 F6000
G1 X123.52 Y122.55 E152.511 F900
G1 X124.01 Y122.77 F6000
G1 X125.41 Y121.37 E152.577 F900
G1 X125.51 Y121.97 F6000
G1 X124.49 Y123 E152.624 F900
G1 X124.97 Y123.22 F6000
G1 X125.61 Y122.58 E152.654 F900
G1 X125.73 Y123.17 F6000
G1 X125.45 Y123.45 E152.667 F900
G1 E145.667 F3000
G1 X144.67 Y122.62 F6000
G1 E152.667 F3000
G1 X158.23 Y109.05 E153.299 F900
G1 X158.04 Y109.95 F6000
G1 X147.89 Y120.1 E153.771 F900
G1 X148.6 F6000
G1 X157.85 Y110.85 E154.201 F900
G1 X157.65 Y111.75 F6000
G1 X149.31 Y120.1 E154.59 F900
G1 X150.01 F6000
G1 X157.46 Y112.65 E154.937 F900
G1 X157.27 Y113.55 F6000
G1 X150.72 Y120.1 E155.241 F900
G1 X151.43 F6000
G1 X157.08 Y114.45 E155.504 F900
G1 X156.88 Y115.35 F6000
G1 X152.14 Y120.1 E155.725 F900
G1 X152.54 Y120.41 F6000
G1 X156.69 Y116.25 E155.919 F900
G1 X156.5 Y117.15 F6000
G1 X152.81 Y120.84 E156.09 F900
G1 X153.08 Y121.28 F6000
G1 X156.3 Y118.05 E156.24 F900
G1 X156.11 Y118.95 F6000
G1 X153.35 Y121.71 E156.369 F900
G1 X153.62 Y122.15 F6000
G1 X155.92 Y119.85 E156.476 F900
G1 X155.73 Y120.75 F6000
G1 X153.9 Y122.58 E156.561 F900
G1 X154.17 Y123.02 F6000
G1 X155.53 Y121.65 E156.624 F900
G1 X155.34 Y122.55 F6000
G1 X154.44 Y123.45 E156.666 F900
G1 X154.71 Y123.89 F6000
G1 X155.15 Y123.45 E156.687 F900
G1 X154.59 Y123.27 F6000
G1 X152.56 Y120.17
G1 X148.8 Y119.6
G1 X147.25 Y120.74
G1 X144.8 Y123.2 E156.801 F900
G1 X144.92 Y123.78 F6000
G1 X146.08 Y122.63 E156.855 F900
G1 X145.7 Y122.25 F6000
G1 X148.18 Y119.66
G1 X150.81 Y117.64
G1 X157.46 Y110.43
G1 X158.32 Y108.95
G1 X159.22 Y108.77
G1 X178.52 Y89.47 E157.753 F900
G1 X179.63 Y89.07 F6000
G1 X159.97 Y108.73 E158.668 F900
G1 X160.72 Y108.69 F6000
G1 X187.58 Y81.83 E159.919 F900
G1 X187.22 Y81.48 F6000
G1 X180.21 Y88.49 E160.245 F900
G1 X181.16 Y86.83 F6000
G1 X186.81 Y81.18 E160.508 F900
G1 X186.4 Y80.89 F6000
G1 X181.19 Y86.1 E160.751 F900
G1 X181.2 Y85.38 F6000
G1 X185.99 Y80.59 E160.974 F900
G1 X185.57 Y80.3 F6000
G1 X181.2 Y84.67 E161.177 F900
G1 X181.21 Y83.96 F6000
G1 X185.16 Y80 E161.361 F900
G1 X184.75 Y79.71 F6000
G1 X181.1 Y83.36 E161.531 F900
G1 X180.94 Y82.81 F6000
G1 X184.33 Y79.42 E161.689 F900
G1 X183.92 Y79.12 F6000
G1 X180.79 Y82.25 E161.835 F900
G1 X180.63 Y81.7 F6000
G1 X183.51 Y78.83 E161.969 F900
G1 X183.1 Y78.53 F6000
G1 X180.48 Y81.15 E162.091 F900
G1 X180.32 Y80.6 F6000
G1 X182.68 Y78.24 E162.201 F900
G1 X182.27 Y77.94 F6000
G1 X180.16 Y80.05 E162.299 F900
G1 X179.93 Y79.58 F6000
G1 X181.86 Y77.65 E162.388 F900
G1 X181.45 Y77.36 F6000
G1 X179.7 Y79.1 E162.47 F900
G1 X179.47 Y78.63 F6000
G1 X181.03 Y77.06 E162.542 F900
G1 X180.57 Y76.82 F6000
G1 X179.24 Y78.15 E162.605 F900
G1 X179.01 Y77.67 F6000
G1 X180.09 Y76.59 E162.655 F900
G1 X179.61 Y76.37 F6000
G1 X178.77 Y77.2 E162.694 F900
G1 X178.54 Y76.72 F6000
G1 X179.12 Y76.14 E162.721 F900
G1 X178.64 Y75.91 F6000
G1 X178.31 Y76.25 E162.736 F900
G1 X178.5 Y76.06 F6000
G1 X187.91 Y82.2
G1 X161.46 Y108.65 E163.968 F900
G1 X162.21 Y108.61 F6000
G1 X188.25 Y82.57 E165.18 F900
G1 X188.58 Y82.95 F6000
G1 X162.94 Y108.59 E166.374 F900
G1 X163.55 Y108.68 F6000
G1 X188.92 Y83.32 E167.555 F900
G1 X189.25 Y83.69 F6000
G1 X164.17 Y108.77 E168.722 F900
G1 X164.79 Y108.86 F6000
G1 X189.59 Y84.06 E169.877 F900
G1 X189.92 Y84.44 F6000
G1 X165.41 Y108.95 E171.018 F900
G1 X166.03 Y109.04 F6000
G1 X190.26 Y84.81 E172.145 F900
G1 X190.59 Y85.18 F6000
G1 X166.57 Y109.2 E173.263 F900
G1 X167.09 Y109.39 F6000
G1 X190.93 Y85.55 E174.373 F900
G1 X191.26 Y85.93 F6000
G1 X167.6 Y109.59 E175.475 F900
G1 X168.11 Y109.78 F6000
G1 X191.59 Y86.3 E176.568 F900
G1 X191.93 Y86.67 F6000
G1 X168.62 Y109.98 E177.653 F900
G1 X169.14 Y110.17 F6000
G1 X192.22 Y87.09 E178.728 F900
G1 X192.46 Y87.56 F6000
G1 X169.56 Y110.45 E179.793 F900
G1 X169.98 Y110.75 F6000
G1 X192.7 Y88.03 E180.851 F900
G1 X192.93 Y88.5 F6000
G1 X170.39 Y111.04 E181.9 F900
G1 X170.8 Y111.33 F6000
G1 X193.17 Y88.97 E182.942 F900
G1 X193.41 Y89.44 F6000
G1 X171.22 Y111.63 E183.975 F900
G1 X171.63 Y111.92 F6000
G1 X193.64 Y89.91 E185 F900
G1 X193.88 Y90.38 F6000
G1 X171.95 Y112.31 E186.02 F900
G1 X172.26 Y112.7 F6000
G1 X194.12 Y90.84 E187.038 F900
G1 X194.36 Y91.31 F6000
G1 X172.58 Y113.1 E188.052 F900
G1 X172.89 Y113.49 F6000
G1 X194.59 Y91.78 E189.062 F900
G1 X194.83 Y92.25 F6000
G1 X173.2 Y113.88 E190.069 F900
G1 X173.5 Y114.29 F6000
G1 X195.06 Y92.73 E191.073 F900
G1 X195.16 Y93.34 F6000
G1 X173.7 Y114.8 E192.072 F900
G1 X173.9 Y115.31 F6000
G1 X195.26 Y93.95 E193.066 F900
G1 X195.36 Y94.56 F6000
G1 X174.1 Y115.81 E194.056 F900
G1 X174.3 Y116.32 F6000
G1 X195.46 Y95.17 E195.041 F900
G1 X195.55 Y95.77 F6000
G1 X174.5 Y116.83 E196.021 F900
G1 X174.59 Y117.45 F6000
G1 X195.65 Y96.38 E197.002 F900
G1 X195.75 Y96.99 F6000
G1 X174.65 Y118.09 E197.984 F900
G1 X174.71 Y118.74 F6000
G1 X195.85 Y97.6 E198.969 F900
G1 X195.95 Y98.2 F6000
G1 X174.77 Y119.39 E199.955 F900
G1 X174.8 Y120.07 F6000
G1 X196.02 Y98.84 E200.943 F900
G1 X195.88 Y99.69 F6000
G1 X174.66 Y120.91 E201.931 F900
G1 X174.52 Y121.76 F6000
G1 X195.74 Y100.54 E202.919 F900
G1 X195.6 Y101.38 F6000
G1 X174.39 Y122.6 E203.906 F900
G1 X174.2 Y123.49 F6000
G1 X195.47 Y102.23 E204.896 F900
G1 X195.33 Y103.07 F6000
G1 X175.31 Y123.09 E205.828 F900
G1 X176.63 Y122.47 F6000
G1 X195.19 Y103.92 E206.692 F900
G1 X195.05 Y104.76 F6000
G1 X177.96 Y121.85 E207.488 F900
G1 X179.28 Y121.24 F6000
G1 X194.33 Y106.19 E208.188 F900
G1 X193.61 Y107.62 F6000
G1 X180.61 Y120.62 E208.794 F900
G1 X180.23 Y120.24 F6000
G1 X182.81 Y119.12
G1 X192.89 Y109.05 E209.263 F900
G1 X192.16 Y110.48 F6000
G1 X185.28 Y117.36 E209.583 F900
G1 E202.583 F3000
G1 X184.91 Y116.99 F6000
G1 X167.54 Y87.02
G1 E209.583 F3000
G1 X168.69 Y85.86 E209.637 F900
G1 X168.28 Y85.57 F6000
G1 X167.82 Y86.03 E209.658 F900
G1 X168.01 Y86.22 F6000
G1 X166.02 Y89.2
G1 X162.63 Y90.02
G1 X159.57 Y88.82
G1 X154.36 Y84.43
G1 X150.88 Y79.29
G1 X150.78 Y78.33
G1 X146.53 Y82.58 E209.856 F900
G1 X146.71 Y82.76 F6000
G1 X148.06 Y80.33
G1 X150.52 Y77.88 E209.971 F900
G1 X150.28 Y77.4 F6000
G1 X149.03 Y78.66 E210.029 F900
G1 X149.81 Y77.17 F6000
G1 X150.07 Y76.91 E210.041 F900
; Layer Change GCode
; LAYER:1
; LAYER_HEIGHT:0.21
; TYPE:FILL
G1 E206.541 F3000
G1 E203.041
G1 X149.88 Y77.1 Z0.63 F6000
G1 X151.33 Y82.47
G1 X152.78 Y87.83
G1 X154.23 Y93.2
G1 X155.67 Y98.56
G1 X157.12 Y103.93
G1 X158.57 Y109.29
; TYPE:WALL-OUTER
G1 E206.541 F3000
G1 E210.041
G1 X157.71 Y113.29 E210.108 F1800
G1 X156.86 Y117.29 E210.176
G1 X156 Y121.28 E210.243
G1 X155.14 Y125.28 E210.31
G1 X153.64 Y122.88 E210.357
G1 X152.14 Y120.48 E210.403
G1 X147.86 E210.474
G1 X146.36 Y122.88 E210.521
G1 X144.86 Y125.28 E210.567
G1 X144 Y121.28 E210.634
G1 X143.15 Y117.29 E210.702
G1 X142.29 Y113.29 E210.769
G1 X141.43 Y109.29 E210.836
G1 X140.7 Y109.13 E210.848
G1 X137.17 Y108.96 E210.907
G1 X133.88 Y109.43 E210.961
G1 X130.98 Y110.53 E211.012
G1 X128.6 Y112.21 E211.06
G1 X126.86 Y114.41 E211.107
G1 X125.83 Y117.02 E211.153
G1 X125.56 Y119.92 E211.201
G1 X126.06 Y122.97 E211.252
G1 X126.64 Y124.42 E211.277
G1 X122.77 Y122.61 E211.348
G1 X118.89 Y120.8 E211.418
G1 X115.65 Y118.49 E211.484
G1 X112.41 Y116.17 E211.549
G1 X109.99 Y113.48 E211.609
G1 X107.57 Y110.79 E211.668
G1 X106.08 Y107.84 E211.723
G1 X104.59 Y104.89 E211.777
G1 X104.09 Y101.81 E211.829
G1 X103.58 Y98.73 E211.88
G1 X104.09 Y95.65 E211.931
G1 X104.59 Y92.57 E211.982
G1 X106.08 Y89.62 E212.037
G1 X107.57 Y86.67 E212.091
G1 X109.99 Y83.98 E212.151
G1 X112.41 Y81.28 E212.21
G1 X115.65 Y78.97 E212.276
G1 X118.89 Y76.65 E212.342
G1 X123.14 Y74.67 E212.419
G1 X122.12 Y76.21 E212.449
G1 X120.17 Y80.22 E212.523
G1 X119.16 Y83.81 E212.584
G1 X119.19 Y86.69 E212.631
G1 X120.31 Y88.65 E212.668
G1 X122.44 Y89.42 E212.706
G1 X125.29 Y88.94 E212.753
G1 X128.64 Y87.33 E212.814
G1 X132.21 Y84.75 E212.887
G1 X132.92 Y87.26 E212.93
G1 X134.41 Y88.86 E212.966
G1 X136.56 Y89.36 E213.002
G1 X139.1 Y88.71 E213.045
G1 X141.85 Y87.03 E213.098
G1 X144.6 Y84.44 E213.161
G1 X147.15 Y81.17 E213.229
G1 X149.29 Y77.46 E213.299
G1 X150 Y75.71 E213.33
G1 X150.71 Y77.46 E213.362
G1 X152.85 Y81.17 E213.432
G1 X155.4 Y84.44 E213.5
G1 X158.15 Y87.03 E213.562
G1 X160.9 Y88.71 E213.615
G1 X163.44 Y89.36 E213.659
G1 X165.59 Y88.86 E213.695
G1 X167.09 Y87.26 E213.731
G1 X167.79 Y84.75 E213.774
G1 X171.36 Y87.33 E213.846
G1 X174.71 Y88.94 E213.908
G1 X177.56 Y89.42 E213.955
G1 X179.69 Y88.65 E213.992
G1 X180.81 Y86.69 E214.03
G1 X180.84 Y83.81 E214.077
G1 X179.83 Y80.22 E214.138
G1 X177.88 Y76.21 E214.212
G1 X176.86 Y74.67 E214.242
G1 X181.1 Y76.65 E214.319
G1 X184.35 Y78.97 E214.385
G1 X187.59 Y81.28 E214.45
G1 X190.01 Y83.98 E214.51
G1 X192.43 Y86.67 E214.57
G1 X193.92 Y89.62 E214.625
G1 X195.41 Y92.57 E214.679
G1 X195.92 Y95.65 E214.73
G1 X196.42 Y98.73 E214.781
G1 X195.92 Y101.81 E214.833
G1 X195.41 Y104.89 E214.884
G1 X193.92 Y107.84 E214.939
G1 X192.43 Y110.79 E214.993
G1 X190.01 Y113.48 E215.053
G1 X187.59 Y116.17 E215.112
G1 X184.35 Y118.49 E215.178
G1 X181.11 Y120.8 E215.243
G1 X177.24 Y122.61 E215.314
G1 X173.37 Y124.42 E215.384
G1 X173.94 Y122.97 E215.409
G1 X174.44 Y119.92 E215.46
G1 X174.17 Y117.02 E215.508
G1 X173.14 Y114.41 E215.554
G1 X171.4 Y112.21 E215.601
G1 X169.02 Y110.53 E215.648
G1 X166.12 Y109.43 E215.699
G1 X162.84 Y108.96 E215.754
G1 X159.3 Y109.13 E215.812
G1 X158.61 Y109.28 E215.824
G1 X158.57 Y109.29
G1 X157.94 Y112.23
G1 X158.44 Y108.94 F6000
; TYPE:FILL
G1 X155.15 Y105.65 E215.901 F1800
G1 X151.86 Y102.36 E215.977
G1 X148.57 Y99.07 E216.054
G1 X145.28 Y95.78 E216.13
G1 X141.99 Y92.49 E216.207
G1 X138.7 Y89.2 E216.283
G1 X139.26 Y89.06 F6000
G1 X142.55 Y92.35 E216.36 F1800
G1 X145.84 Y95.64 E216.436
G1 X149.14 Y98.94 E216.513
G1 X152.43 Y102.23 E216.59
G1 X155.72 Y105.52 E216.666
G1 X159.01 Y108.81 E216.743
G1 X159.65 Y108.74 F6000
G1 X156.33 Y105.42 E216.821 F1800
G1 X153 Y102.09 E216.898
G1 X149.68 Y98.77 E216.976
G1 X146.35 Y95.44 E217.053
G1 X143.03 Y92.12 E217.131
G1 X139.7 Y88.79 E217.208
G1 X140.14 Y88.52 F6000
G1 X143.5 Y91.89 E217.286 F1800
G1 X146.87 Y95.25 E217.364
G1 X150.23 Y98.62 E217.443
G1 X153.59 Y101.98 E217.521
G1 X156.96 Y105.35 E217.599
G1 X160.32 Y108.71 E217.677
G1 X161 Y108.67 F6000
G1 X157.6 Y105.27 E217.756 F1800
G1 X154.19 Y101.86 E217.836
G1 X150.79 Y98.46 E217.915
G1 X147.39 Y95.06 E217.994
G1 X143.98 Y91.65 E218.074
G1 X140.58 Y88.25 E218.153
G1 X141.01 Y87.98 F6000
G1 X144.45 Y91.42 E218.233 F1800
G1 X147.9 Y94.87 E218.313
G1 X151.34 Y98.31 E218.394
G1 X154.78 Y101.75 E218.474
G1 X158.23 Y105.2 E218.554
G1 X161.67 Y108.64 E218.634
G1 X162.35 Y108.61 F6000
G1 X158.87 Y105.13 E218.715 F1800
G1 X155.38 Y101.64 E218.796
G1 X151.9 Y98.16 E218.877
G1 X148.42 Y94.68 E218.958
G1 X144.93 Y91.19 E219.039
G1 X141.45 Y87.71 E219.12
G1 X141.89 Y87.44 F6000
G1 X145.42 Y90.97 E219.202 F1800
G1 X148.95 Y94.5 E219.284
G1 X152.48 Y98.03 E219.367
G1 X156 Y101.55 E219.449
G1 X159.53 Y105.08 E219.531
G1 X163.06 Y108.61 E219.613
G1 X163.88 Y108.73 F6000
G1 X160.8 Y105.64 E219.685 F1800
G1 X157.71 Y102.56 E219.756
G1 X154.63 Y99.47 E219.828
G1 X151.54 Y96.39 E219.9
G1 X148.46 Y93.3 E219.972
G1 X145.37 Y90.22 E220.043
G1 X142.29 Y87.13 E220.115
G1 X142.65 Y86.79 F6000
G1 X145.8 Y89.94 E220.188 F1800
G1 X148.95 Y93.09 E220.262
G1 X152.1 Y96.24 E220.335
G1 X155.26 Y99.4 E220.409
G1 X158.41 Y102.55 E220.482
G1 X161.56 Y105.7 E220.556
G1 X164.71 Y108.85 E220.629
G1 X165.53 Y108.96 F6000
G1 X162.31 Y105.74 E220.704 F1800
G1 X159.1 Y102.53 E220.779
G1 X155.88 Y99.31 E220.854
G1 X152.67 Y96.1 E220.928
G1 X149.45 Y92.88 E221.003
G1 X146.24 Y89.67 E221.078
G1 X143.02 Y86.45 E221.153
G1 X143.38 Y86.1 F6000
G1 X146.67 Y89.39 E221.23 F1800
G1 X149.96 Y92.68 E221.306
G1 X153.25 Y95.97 E221.383
G1 X156.54 Y99.27 E221.459
G1 X159.83 Y102.56 E221.536
G1 X163.12 Y105.85 E221.612
G1 X166.41 Y109.14 E221.689
G1 X167.55 Y109.57 F6000
G1 X164.15 Y106.17 E221.768 F1800
G1 X160.75 Y102.77 E221.847
G1 X157.35 Y99.37 E221.926
G1 X153.94 Y95.96 E222.006
G1 X150.54 Y92.56 E222.085
G1 X147.14 Y89.16 E222.164
G1 X143.74 Y85.76 E222.243
G1 X144.11 Y85.42 F6000
G1 X147.62 Y88.93 E222.325 F1800
G1 X151.13 Y92.44 E222.406
G1 X154.64 Y95.95 E222.488
G1 X158.16 Y99.47 E222.57
G1 X161.67 Y102.98 E222.652
G1 X165.18 Y106.49 E222.733
G1 X168.69 Y110 E222.815
G1 X170.55 Y111.15 F6000
G1 X167.29 Y107.89 E222.891 F1800
G1 X164.03 Y104.63 E222.967
G1 X160.77 Y101.37 E223.043
G1 X157.51 Y98.12 E223.119
G1 X154.25 Y94.86 E223.194
G1 X150.99 Y91.6 E223.27
G1 X147.73 Y88.34 E223.346
G1 X144.47 Y85.08 E223.422
G1 X144.84 Y84.73 F6000
G1 X148.1 Y87.99 E223.498 F1800
G1 X151.36 Y91.25 E223.574
G1 X154.62 Y94.51 E223.65
G1 X157.88 Y97.77 E223.726
G1 X161.14 Y101.03 E223.802
G1 X164.39 Y104.28 E223.877
G1 X167.65 Y107.54 E223.953
G1 X170.91 Y110.8 E224.029
G1 X174.17 Y114.06 E224.105
G1 X177.43 Y117.32 E224.181
G1 X180.69 Y120.58 E224.257
G1 X181.13 Y120.32 F6000
G1 X177.86 Y117.05 E224.333 F1800
G1 X174.59 Y113.78 E224.409
G1 X171.32 Y110.51 E224.485
G1 X168.05 Y107.24 E224.561
G1 X164.78 Y103.97 E224.637
G1 X161.5 Y100.69 E224.714
G1 X158.23 Y97.42 E224.79
G1 X154.96 Y94.15 E224.866
G1 X151.69 Y90.88 E224.942
G1 X148.42 Y87.61 E225.018
G1 X145.15 Y84.34 E225.094
G1 X145.46 Y83.94 F6000
G1 X148.74 Y87.22 E225.17 F1800
G1 X152.02 Y90.5 E225.247
G1 X155.3 Y93.78 E225.323
G1 X158.58 Y97.06 E225.399
G1 X161.86 Y100.34 E225.476
G1 X165.14 Y103.63 E225.552
G1 X168.42 Y106.91 E225.629
G1 X171.7 Y110.19 E225.705
G1 X174.98 Y113.47 E225.781
G1 X178.26 Y116.75 E225.858
G1 X181.54 Y120.03 E225.934
G1 X181.96 Y119.73 F6000
G1 X178.67 Y116.44 E226.011 F1800
G1 X175.38 Y113.15 E226.087
G1 X172.09 Y109.86 E226.164
G1 X168.8 Y106.57 E226.24
G1 X165.51 Y103.28 E226.317
G1 X162.22 Y100 E226.393
G1 X158.93 Y96.71 E226.47
G1 X155.64 Y93.42 E226.546
G1 X152.35 Y90.13 E226.623
G1 X149.06 Y86.84 E226.699
G1 X145.77 Y83.55 E226.776
G1 X146.08 Y83.15 F6000
G1 X149.38 Y86.45 E226.853 F1800
G1 X152.68 Y89.75 E226.93
G1 X155.98 Y93.05 E227.006
G1 X159.28 Y96.35 E227.083
G1 X162.58 Y99.65 E227.16
G1 X165.87 Y102.94 E227.237
G1 X169.17 Y106.24 E227.314
G1 X172.47 Y109.54 E227.391
G1 X175.77 Y112.84 E227.467
G1 X179.07 Y116.14 E227.544
G1 X182.37 Y119.44 E227.621
G1 X182.78 Y119.14 F6000
G1 X179.47 Y115.83 E227.698 F1800
G1 X176.16 Y112.52 E227.775
G1 X172.86 Y109.22 E227.852
G1 X169.55 Y105.91 E227.929
G1 X166.24 Y102.6 E228.006
G1 X162.93 Y99.29 E228.083
G1 X159.62 Y95.98 E228.16
G1 X156.31 Y92.67 E228.237
G1 X153.01 Y89.37 E228.314
G1 X149.7 Y86.06 E228.391
G1 X146.39 Y82.75 E228.468
G1 X146.7 Y82.35 F6000
G1 X150.02 Y85.67 E228.545 F1800
G1 X153.34 Y88.99 E228.622
G1 X156.65 Y92.3 E228.7
G1 X159.97 Y95.62 E228.777
G1 X163.29 Y98.94 E228.854
G1 X166.61 Y102.26 E228.931
G1 X169.93 Y105.58 E229.008
G1 X173.25 Y108.9 E229.085
G1 X176.56 Y112.21 E229.163
G1 X179.88 Y115.53 E229.24
G1 X183.2 Y118.85 E229.317
G1 X183.61 Y118.55 F6000
G1 X180.28 Y115.22 E229.394 F1800
G1 X176.96 Y111.9 E229.472
G1 X173.63 Y108.57 E229.549
G1 X170.3 Y105.24 E229.627
G1 X166.97 Y101.92 E229.704
G1 X163.65 Y98.59 E229.782
G1 X160.32 Y95.27 E229.859
G1 X156.99 Y91.94 E229.937
G1 X153.66 Y88.61 E230.014
G1 X150.34 Y85.29 E230.092
G1 X147.01 Y81.96 E230.169
G1 X147.32 Y81.56 F6000
G1 X150.66 Y84.9 E230.247 F1800
G1 X153.99 Y88.23 E230.324
G1 X157.33 Y91.57 E230.402
G1 X160.67 Y94.91 E230.48
G1 X164 Y98.24 E230.558
G1 X167.34 Y101.58 E230.635
G1 X170.67 Y104.91 E230.713
G1 X174.01 Y108.25 E230.791
G1 X177.35 Y111.59 E230.869
G1 X180.68 Y114.92 E230.946
G1 X184.02 Y118.26 E231.024
G1 X184.43 Y117.97 F6000
G1 X181.08 Y114.62 E231.102 F1800
G1 X177.73 Y111.27 E231.18
G1 X174.39 Y107.92 E231.258
G1 X171.04 Y104.57 E231.336
G1 X167.69 Y101.22 E231.414
G1 X164.34 Y97.88 E231.491
G1 X160.99 Y94.53 E231.569
G1 X157.64 Y91.18 E231.647
G1 X154.3 Y87.83 E231.725
G1 X150.95 Y84.48 E231.803
G1 X147.6 Y81.13 E231.881
G1 X147.86 Y80.68 F6000
G1 X151.22 Y84.04 E231.959 F1800
G1 X154.59 Y87.41 E232.038
G1 X157.95 Y90.77 E232.116
G1 X161.31 Y94.13 E232.194
G1 X164.67 Y97.49 E232.272
G1 X168.04 Y100.86 E232.351
G1 X171.4 Y104.22 E232.429
G1 X174.76 Y107.58 E232.507
G1 X178.12 Y110.94 E232.585
G1 X181.49 Y114.31 E232.664
G1 X184.85 Y117.67 E232.742
G1 X185.26 Y117.38 F6000
G1 X181.88 Y114 E232.821 F1800
G1 X178.51 Y110.63 E232.899
G1 X175.13 Y107.25 E232.978
G1 X171.75 Y103.87 E233.056
G1 X168.38 Y100.5 E233.135
G1 X165 Y97.12 E233.213
G1 X161.63 Y93.75 E233.292
G1 X158.25 Y90.37 E233.37
G1 X154.87 Y86.99 E233.449
G1 X151.5 Y83.62 E233.527
G1 X148.12 Y80.24 E233.606
G1 X148.38 Y79.79 F6000
G1 X151.77 Y83.18 E233.685 F1800
G1 X155.16 Y86.57 E233.764
G1 X158.55 Y89.96 E233.843
G1 X161.94 Y93.35 E233.922
G1 X165.33 Y96.74 E234.001
G1 X168.72 Y100.13 E234.08
G1 X172.11 Y103.52 E234.159
G1 X175.5 Y106.91 E234.238
G1 X178.89 Y110.3 E234.317
G1 X182.28 Y113.69 E234.396
G1 X185.67 Y117.08 E234.475
G1 X186.08 Y116.79 F6000
G1 X182.68 Y113.39 E234.554 F1800
G1 X179.27 Y109.98 E234.633
G1 X175.87 Y106.58 E234.713
G1 X172.47 Y103.17 E234.792
G1 X169.06 Y99.77 E234.871
G1 X165.66 Y96.36 E234.95
G1 X162.25 Y92.96 E235.029
G1 X158.85 Y89.55 E235.108
G1 X155.45 Y86.15 E235.188
G1 X152.04 Y82.74 E235.267
G1 X148.64 Y79.34 E235.346
G1 X148.89 Y78.89 F6000
G1 X152.31 Y82.31 E235.426 F1800
G1 X155.73 Y85.73 E235.505
G1 X159.15 Y89.14 E235.585
G1 X162.57 Y92.56 E235.665
G1 X165.99 Y95.98 E235.744
G1 X169.4 Y99.4 E235.824
G1 X172.82 Y102.82 E235.903
G1 X176.24 Y106.24 E235.983
G1 X179.66 Y109.65 E236.063
G1 X183.08 Y113.07 E236.142
G1 X186.5 Y116.49 E236.222
G1 X186.91 Y116.2 F6000
G1 X183.72 Y113.01 E236.296 F1800
G1 X180.54 Y109.83 E236.37
G1 X177.35 Y106.64 E236.444
G1 X174.16 Y103.45 E236.518
G1 X170.98 Y100.27 E236.593
G1 X167.79 Y97.08 E236.667
G1 X164.6 Y93.89 E236.741
G1 X161.42 Y90.71 E236.815
G1 X158.23 Y87.52 E236.889
G1 X160.06 Y88.64 F6000
G1 X163.47 Y92.05 E236.968 F1800
G1 X166.88 Y95.46 E237.048
G1 X170.28 Y98.86 E237.127
G1 X173.69 Y102.27 E237.207
G1 X177.1 Y105.68 E237.286
G1 X180.51 Y109.09 E237.365
G1 X183.91 Y112.49 E237.445
G1 X187.32 Y115.9 E237.524
G1 X187.66 Y115.53 F6000
G1 X184.37 Y112.24 E237.601 F1800
G1 X181.08 Y108.95 E237.677
G1 X177.79 Y105.66 E237.754
G1 X174.5 Y102.37 E237.83
G1 X171.21 Y99.08 E237.907
G1 X167.92 Y95.79 E237.983
G1 X164.63 Y92.5 E238.06
G1 X161.34 Y89.21 E238.136
G1 X162.28 Y89.45 F6000
G1 X165.49 Y92.66 E238.211 F1800
G1 X168.71 Y95.88 E238.286
G1 X171.92 Y99.09 E238.361
G1 X175.14 Y102.31 E238.436
G1 X178.35 Y105.52 E238.51
G1 X181.56 Y108.73 E238.585
G1 X184.78 Y111.95 E238.66
G1 X187.99 Y115.16 E238.735
G1 X188.33 Y114.79 F6000
G1 X185.19 Y111.65 E238.808 F1800
G1 X182.06 Y108.52 E238.881
G1 X178.92 Y105.38 E238.954
G1 X175.78 Y102.24 E239.027
G1 X172.64 Y99.1 E239.1
G1 X169.51 Y95.97 E239.173
G1 X166.37 Y92.83 E239.246
G1 X163.23 Y89.69 E239.319
G1 X163.89 Y89.64 F6000
G1 X166.99 Y92.74 E239.391 F1800
G1 X170.08 Y95.84 E239.463
G1 X173.18 Y98.93 E239.535
G1 X176.28 Y102.03 E239.608
G1 X179.37 Y105.13 E239.68
G1 X182.47 Y108.23 E239.752
G1 X185.56 Y111.32 E239.824
G1 X188.66 Y114.42 E239.896
G1 X189 Y114.04 F6000
G1 X185.49 Y110.54 E239.978 F1800
G1 X181.99 Y107.03 E240.059
G1 X178.48 Y103.53 E240.141
G1 X174.98 Y100.02 E240.222
G1 X171.47 Y96.52 E240.304
G1 X167.97 Y93.01 E240.385
G1 X164.46 Y89.51 E240.467
G1 X165.04 Y89.37 F6000
G1 X168.51 Y92.84 E240.548 F1800
G1 X171.98 Y96.31 E240.629
G1 X175.45 Y99.78 E240.71
G1 X178.92 Y103.26 E240.79
G1 X182.39 Y106.73 E240.871
G1 X185.86 Y110.2 E240.952
G1 X189.33 Y113.67 E241.033
G1 X189.67 Y113.3 F6000
G1 X186.23 Y109.86 E241.113 F1800
G1 X182.8 Y106.43 E241.193
G1 X179.36 Y102.99 E241.273
G1 X175.92 Y99.55 E241.352
G1 X172.48 Y96.11 E241.432
G1 X169.05 Y92.68 E241.512
G1 X165.61 Y89.24 E241.592
G1 X166.02 Y88.95 F6000
G1 X169.45 Y92.38 E241.672 F1800
G1 X172.87 Y95.8 E241.752
G1 X176.3 Y99.23 E241.832
G1 X179.72 Y102.65 E241.911
G1 X183.15 Y106.08 E241.991
G1 X186.57 Y109.5 E242.071
G1 X190 Y112.93 E242.151
G1 X190.34 Y112.55 F6000
G1 X186.91 Y109.13 E242.231 F1800
G1 X183.49 Y105.7 E242.31
G1 X180.06 Y102.28 E242.39
G1 X176.64 Y98.85 E242.47
G1 X173.21 Y95.43 E242.55
G1 X169.79 Y92 E242.629
G1 X166.36 Y88.58 E242.709
G1 X166.7 Y88.21 F6000
G1 X170.12 Y91.63 E242.789 F1800
G1 X173.55 Y95.06 E242.868
G1 X176.97 Y98.48 E242.948
G1 X180.4 Y101.91 E243.028
G1 X183.82 Y105.33 E243.108
G1 X187.25 Y108.76 E243.187
G1 X190.67 Y112.18 E243.267
G1 X191.01 Y111.81 F6000
G1 X187.59 Y108.39 E243.347 F1800
G1 X184.16 Y104.96 E243.426
G1 X180.74 Y101.54 E243.506
G1 X177.31 Y98.12 E243.585
G1 X173.89 Y94.7 E243.665
G1 X170.46 Y91.27 E243.744
G1 X167.04 Y87.85 E243.824
G1 X167.38 Y87.48 F6000
G1 X170.8 Y90.9 E243.904 F1800
G1 X174.23 Y94.33 E243.983
G1 X177.65 Y97.75 E244.063
G1 X181.07 Y101.17 E244.143
G1 X184.49 Y104.59 E244.223
G1 X187.92 Y108.02 E244.302
G1 X191.34 Y111.44 E244.382
G1 X191.67 Y111.06 F6000
G1 X188.23 Y107.62 E244.462 F1800
G1 X184.78 Y104.17 E244.542
G1 X181.34 Y100.73 E244.622
G1 X177.89 Y97.28 E244.703
G1 X174.45 Y93.84 E244.783
G1 X171 Y90.39 E244.863
G1 X167.56 Y86.95 E244.943
G1 X167.72 Y86.4 F6000
G1 X171.19 Y89.87 E245.024 F1800
G1 X174.66 Y93.34 E245.105
G1 X178.13 Y96.81 E245.186
G1 X181.6 Y100.28 E245.266
G1 X185.07 Y103.75 E245.347
G1 X188.54 Y107.22 E245.428
G1 X192.01 Y110.69 E245.509
G1 X192.28 Y110.25 F6000
G1 X188.79 Y106.76 E245.59 F1800
G1 X185.31 Y103.28 E245.671
G1 X181.82 Y99.79 E245.752
G1 X178.33 Y96.31 E245.834
G1 X174.84 Y92.82 E245.915
G1 X171.36 Y89.34 E245.996
G1 X167.87 Y85.85 E246.077
G1 X168.34 Y85.6 F6000
G1 X171.79 Y89.05 E246.157 F1800
G1 X175.25 Y92.51 E246.238
G1 X178.7 Y95.96 E246.318
G1 X182.15 Y99.42 E246.399
G1 X185.6 Y102.87 E246.479
G1 X189.06 Y106.33 E246.56
G1 X192.51 Y109.78 E246.64
G1 X192.75 Y109.31 F6000
G1 X189.63 Y106.19 E246.713 F1800
G1 X186.51 Y103.07 E246.785
G1 X183.39 Y99.95 E246.858
G1 X180.26 Y96.82 E246.93
G1 X177.14 Y93.7 E247.003
G1 X174.02 Y90.58 E247.075
G1 X170.9 Y87.46 E247.148
G1 X172.38 Y88.24 F6000
G1 X175.82 Y91.67 E247.228 F1800
G1 X179.25 Y95.11 E247.308
G1 X182.69 Y98.54 E247.388
G1 X186.12 Y101.97 E247.468
G1 X189.56 Y105.41 E247.548
G1 X192.99 Y108.84 E247.628
G1 X193.23 Y108.37 F6000
G1 X189.98 Y105.13 E247.704 F1800
G1 X186.74 Y101.88 E247.779
G1 X183.49 Y98.64 E247.855
G1 X180.24 Y95.39 E247.93
G1 X177 Y92.15 E248.006
G1 X173.75 Y88.9 E248.081
G1 X174.92 Y89.36 F6000
G1 X178.01 Y92.45 E248.153 F1800
G1 X181.1 Y95.54 E248.225
G1 X184.19 Y98.63 E248.297
G1 X187.28 Y101.72 E248.369
G1 X190.37 Y104.81 E248.441
G1 X193.46 Y107.9 E248.513
G1 X193.7 Y107.43 F6000
G1 X190.71 Y104.44 E248.583 F1800
G1 X187.72 Y101.45 E248.652
G1 X184.74 Y98.47 E248.722
G1 X181.75 Y95.48 E248.792
G1 X178.76 Y92.49 E248.861
G1 X175.77 Y89.5 E248.931
G1 X176.62 Y89.64 F6000
G1 X180.08 Y93.1 E249.012 F1800
G1 X183.55 Y96.57 E249.092
G1 X187.01 Y100.03 E249.173
G1 X190.48 Y103.5 E249.253
G1 X193.94 Y106.96 E249.334
G1 X194.18 Y106.5 F6000
G1 X190.84 Y103.16 E249.412 F1800
G1 X187.49 Y99.81 E249.49
G1 X184.15 Y96.47 E249.567
G1 X180.8 Y93.12 E249.645
G1 X177.46 Y89.78 E249.723
G1 X178.03 Y89.65 F6000
G1 X181.31 Y92.93 E249.799 F1800
G1 X184.58 Y96.2 E249.875
G1 X187.86 Y99.48 E249.952
G1 X191.13 Y102.75 E250.028
G1 X194.41 Y106.03 E250.104
G1 X194.65 Y105.56 F6000
G1 X191.43 Y102.34 E250.179 F1800
G1 X188.21 Y99.12 E250.254
G1 X184.99 Y95.9 E250.329
G1 X181.77 Y92.68 E250.404
G1 X178.55 Y89.46 E250.479
G1 X179.07 Y89.27 F6000
G1 X182.23 Y92.43 E250.553 F1800
G1 X185.4 Y95.6 E250.626
G1 X188.56 Y98.76 E250.7
G1 X191.73 Y101.93 E250.773
G1 X194.89 Y105.09 E250.847
G1 X195.08 Y104.57 F6000
G1 X191.98 Y101.47 E250.919 F1800
G1 X188.88 Y98.37 E250.991
G1 X185.79 Y95.28 E251.063
G1 X182.69 Y92.18 E251.135
G1 X179.59 Y89.08 E251.207
G1 X180.03 Y88.81 F6000
G1 X183.06 Y91.84 E251.278 F1800
G1 X186.09 Y94.87 E251.348
G1 X189.12 Y97.9 E251.419
G1 X192.15 Y100.93 E251.489
G1 X195.18 Y103.96 E251.56
G1 X195.28 Y103.36 F6000
G1 X192.28 Y100.36 E251.63 F1800
G1 X189.28 Y97.36 E251.7
G1 X186.29 Y94.36 E251.769
G1 X183.29 Y91.36 E251.839
G1 X180.29 Y88.36 E251.909
G1 X180.54 Y87.91 F6000
G1 X183.51 Y90.88 E251.978 F1800
G1 X186.48 Y93.85 E252.047
G1 X189.44 Y96.81 E252.116
G1 X192.41 Y99.78 E252.185
G1 X195.38 Y102.75 E252.254
G1 X195.48 Y102.14 F6000
G1 X192.54 Y99.2 E252.322 F1800
G1 X189.61 Y96.27 E252.391
G1 X186.67 Y93.33 E252.459
G1 X183.74 Y90.4 E252.528
G1 X180.8 Y87.46 E252.596
G1 X181.06 Y87.01 F6000
G1 X183.96 Y89.91 E252.664 F1800
G1 X186.87 Y92.82 E252.731
G1 X189.77 Y95.72 E252.799
G1 X192.68 Y98.63 E252.866
G1 X195.58 Y101.53 E252.934
G1 X195.68 Y100.93 F6000
G1 X192.78 Y98.03 E253.002 F1800
G1 X189.88 Y95.13 E253.069
G1 X186.99 Y92.23 E253.137
G1 X184.09 Y89.33 E253.204
G1 X181.19 Y86.43 E253.272
G1 X181.19 Y85.73 F6000
G1 X184.11 Y88.65 E253.34 F1800
G1 X187.03 Y91.57 E253.408
G1 X189.94 Y94.48 E253.475
G1 X192.86 Y97.4 E253.543
G1 X195.78 Y100.32 E253.611
G1 X195.88 Y99.71 F6000
G1 X192.94 Y96.77 E253.679 F1800
G1 X190.01 Y93.84 E253.748
G1 X187.07 Y90.9 E253.816
G1 X184.14 Y87.97 E253.885
G1 X181.2 Y85.03 E253.953
G1 X181.21 Y84.33 F6000
G1 X184.16 Y87.28 E254.022 F1800
G1 X187.12 Y90.24 E254.091
G1 X190.07 Y93.19 E254.159
G1 X193.03 Y96.15 E254.228
G1 X195.98 Y99.1 E254.297
G1 X195.99 Y98.41 F6000
G1 X193.02 Y95.44 E254.366 F1800
G1 X190.06 Y92.48 E254.435
G1 X187.09 Y89.51 E254.504
G1 X184.13 Y86.55 E254.573
G1 X181.16 Y83.58 E254.642
G1 X180.89 Y82.6 F6000
G1 X183.88 Y85.59 E254.712 F1800
G1 X186.87 Y88.58 E254.781
G1 X189.87 Y91.58 E254.851
G1 X192.86 Y94.57 E254.92
G1 X195.85 Y97.56 E254.99
G1 X195.71 Y96.71 F6000
G1 X192.69 Y93.69 E255.06 F1800
G1 X189.67 Y90.67 E255.13
G1 X186.65 Y87.65 E255.201
G1 X183.63 Y84.63 E255.271
G1 X180.61 Y81.61 E255.341
G1 X180.33 Y80.63 F6000
G1 X183.38 Y83.68 E255.412 F1800
G1 X186.43 Y86.73 E255.483
G1 X189.47 Y89.77 E255.554
G1 X192.52 Y92.82 E255.625
G1 X195.57 Y95.87 E255.696
G1 X195.43 Y95.02 F6000
G1 X192.32 Y91.91 E255.768 F1800
G1 X189.21 Y88.8 E255.841
G1 X186.1 Y85.69 E255.913
G1 X182.99 Y82.58 E255.986
G1 X179.88 Y79.47 E256.058
G1 X179.21 Y78.09 F6000
G1 X182.43 Y81.31 E256.133 F1800
G1 X185.64 Y84.53 E256.208
G1 X188.86 Y87.74 E256.282
G1 X192.07 Y90.96 E256.357
G1 X195.29 Y94.18 E256.432
G1 X195.16 Y93.33 F6000
G1 X191.84 Y90.01 E256.509 F1800
G1 X188.51 Y86.69 E256.587
G1 X185.19 Y83.36 E256.664
G1 X181.86 Y80.04 E256.742
G1 X178.54 Y76.72 E256.819
G1 X178.27 Y75.74 F6000
G1 X181.59 Y79.06 E256.896 F1800
G1 X184.91 Y82.38 E256.974
G1 X188.24 Y85.71 E257.051
G1 X191.56 Y89.03 E257.129
G1 X194.88 Y92.35 E257.206
G1 X194.16 Y90.92 F6000
G1 X191.25 Y88.01 E257.274 F1800
G1 X188.34 Y85.1 E257.342
G1 X185.42 Y82.18 E257.409
G1 X182.51 Y79.27 E257.477
G1 X179.6 Y76.36 E257.545
G1 X180.94 Y76.99 F6000
G1 X184.06 Y80.12 E257.618 F1800
G1 X187.19 Y83.24 E257.69
G1 X190.31 Y86.37 E257.763
G1 X193.43 Y89.49 E257.835
G1 X192.71 Y88.06 F6000
G1 X189.61 Y84.96 E257.907 F1800
G1 X186.5 Y81.85 E257.98
G1 X183.4 Y78.75 E258.052
G1 X183.22 Y78.94 F6000
G1 X185.87 Y80.51
G1 X188.45 Y83.09 E258.112 F1800
G1 X191.03 Y85.67 E258.172
G1 E254.672 F3000
G1 E251.172
G1 X190.85 Y85.86 F6000
G1 X187.86 Y90.47
G1 X184.87 Y95.07
G1 X181.88 Y99.68
G1 X178.88 Y104.29
G1 X175.89 Y108.89
G1 X172.9 Y113.5
G1 E254.672 F3000
G1 E258.172
G1 X175.33 Y115.94 E258.229 F1800
G1 X177.77 Y118.37 E258.285
G1 X180.2 Y120.81 E258.342
G1 X179.72 Y121.03 F6000
G1 X176.78 Y118.09 E258.411 F1800
G1 X173.83 Y115.14 E258.479
G1 X174.3 Y116.31 F6000
G1 X176.77 Y118.79 E258.537 F1800
G1 X179.24 Y121.26 E258.594
G1 X178.76 Y121.48 F6000
G1 X176.67 Y119.39 E258.643 F1800
G1 X174.57 Y117.3 E258.692
G1 X174.65 Y118.08 F6000
G1 X176.47 Y119.9 E258.734 F1800
G1 X178.28 Y121.71 E258.776
G1 X177.79 Y121.93 F6000
G1 X174.72 Y118.86 E258.848 F1800
G1 X174.79 Y119.64 F6000
G1 X177.31 Y122.16 E258.906 F1800
G1 X176.83 Y122.38 F6000
G1 X174.76 Y120.31 E258.955 F1800
G1 X174.66 Y120.92 F6000
G1 X176.35 Y122.61 E258.994 F1800
G1 X175.87 Y122.83 F6000
G1 X174.56 Y121.53 E259.024 F1800
G1 X174.46 Y122.13 F6000
G1 X175.38 Y123.06 E259.046 F1800
G1 X174.9 Y123.28 F6000
G1 X174.36 Y122.74 E259.059 F1800
G1 X174.21 Y123.3 F6000
G1 X174.42 Y123.51 E259.063 F1800
G1 E255.563 F3000
G1 E252.063
G1 X174.61 Y122.95 F6000
G1 X175.05 Y117.08
G1 X172.35 Y112.55
G1 X169.65 Y110
G1 X164.63 Y108.32
G1 X159.33 Y108.26
G1 X157.44 Y110.25
G1 X155.69 Y118.33
G1 X156.04 Y119.27
G1 E255.563 F3000
G1 E259.063
G1 X152.69 Y115.92 E259.141 F1800
G1 X149.33 Y112.56 E259.219
G1 X145.98 Y109.21 E259.297
G1 X142.63 Y105.86 E259.375
G1 X139.27 Y102.5 E259.454
G1 X135.92 Y99.15 E259.532
G1 X132.57 Y95.8 E259.61
G1 X129.21 Y92.44 E259.688
G1 X125.86 Y89.09 E259.766
G1 X126.33 Y88.86 F6000
G1 X129.65 Y92.17 E259.843 F1800
G1 X132.96 Y95.49 E259.92
G1 X136.28 Y98.8 E259.998
G1 X139.59 Y102.12 E260.075
G1 X142.91 Y105.43 E260.152
G1 X146.22 Y108.75 E260.229
G1 X149.54 Y112.06 E260.307
G1 X152.85 Y115.38 E260.384
G1 X156.17 Y118.69 E260.461
G1 X156.29 Y118.11 F6000
G1 X153.01 Y114.83 E260.537 F1800
G1 X149.74 Y111.56 E260.613
G1 X146.46 Y108.28 E260.69
G1 X143.19 Y105.01 E260.766
G1 X139.91 Y101.73 E260.842
G1 X136.64 Y98.46 E260.918
G1 X133.36 Y95.18 E260.995
G1 X130.09 Y91.91 E261.071
G1 X126.81 Y88.63 E261.147
G1 X127.29 Y88.4 F6000
G1 X130.53 Y91.64 E261.222 F1800
G1 X133.76 Y94.87 E261.298
G1 X137 Y98.11 E261.373
G1 X140.24 Y101.35 E261.448
G1 X143.47 Y104.58 E261.524
G1 X146.71 Y107.82 E261.599
G1 X149.95 Y111.06 E261.674
G1 X153.18 Y114.29 E261.75
G1 X156.42 Y117.53 E261.825
G1 X156.54 Y116.94 F6000
G1 X153.34 Y113.74 E261.899 F1800
G1 X150.14 Y110.55 E261.974
G1 X146.95 Y107.35 E262.048
G1 X143.75 Y104.15 E262.123
G1 X140.55 Y100.96 E262.197
G1 X137.35 Y97.76 E262.272
G1 X134.16 Y94.56 E262.346
G1 X130.96 Y91.37 E262.421
G1 X127.76 Y88.17 E262.495
G1 X128.24 Y87.94 F6000
G1 X131.4 Y91.1 E262.568 F1800
G1 X134.56 Y94.26 E262.642
G1 X137.72 Y97.41 E262.715
G1 X140.88 Y100.57 E262.789
G1 X144.03 Y103.73 E262.862
G1 X147.19 Y106.89 E262.936
G1 X150.35 Y110.04 E263.009
G1 X153.51 Y113.2 E263.083
G1 X156.67 Y116.36 E263.156
G1 X156.79 Y115.78 F6000
G1 X153.28 Y112.27 E263.238 F1800
G1 X149.77 Y108.76 E263.32
G1 X146.26 Y105.25 E263.401
G1 X142.76 Y101.75 E263.483
G1 X139.25 Y98.24 E263.565
G1 X135.74 Y94.73 E263.647
G1 X132.23 Y91.22 E263.728
G1 X128.72 Y87.71 E263.81
G1 X129.15 Y87.43 F6000
G1 X132.62 Y90.9 E263.891 F1800
G1 X136.09 Y94.37 E263.972
G1 X139.56 Y97.84 E264.052
G1 X143.04 Y101.32 E264.133
G1 X146.51 Y104.79 E264.214
G1 X149.98 Y108.26 E264.295
G1 X153.45 Y111.73 E264.375
G1 X156.92 Y115.2 E264.456
G1 X157.04 Y114.61 F6000
G1 X153.61 Y111.18 E264.536 F1800
G1 X150.17 Y107.74 E264.616
G1 X146.74 Y104.31 E264.696
G1 X143.3 Y100.87 E264.776
G1 X139.87 Y97.44 E264.856
G1 X136.43 Y94 E264.936
G1 X133 Y90.57 E265.016
G1 X129.56 Y87.13 E265.096
G1 X129.97 Y86.83 F6000
G1 X133.37 Y90.23 E265.175 F1800
G1 X136.77 Y93.63 E265.254
G1 X140.17 Y97.03 E265.333
G1 X143.57 Y100.43 E265.413
G1 X146.97 Y103.83 E265.492
G1 X150.37 Y107.23 E265.571
G1 X153.77 Y110.63 E265.65
G1 X157.17 Y114.03 E265.729
G1 X157.29 Y113.45 F6000
G1 X153.93 Y110.09 E265.807 F1800
G1 X150.56 Y106.72 E265.886
G1 X147.2 Y103.36 E265.964
G1 X143.84 Y100 E266.043
G1 X140.47 Y96.63 E266.121
G1 X137.11 Y93.27 E266.199
G1 X133.74 Y89.9 E266.278
G1 X130.38 Y86.54 E266.356
G1 X130.79 Y86.24 F6000
G1 X134.12 Y89.57 E266.433 F1800
G1 X137.45 Y92.9 E266.511
G1 X140.77 Y96.23 E266.588
G1 X144.1 Y99.56 E266.666
G1 X147.43 Y102.88 E266.743
G1 X150.76 Y106.21 E266.82
G1 X154.08 Y109.54 E266.898
G1 X157.41 Y112.87 E266.975
G1 X157.54 Y112.28 F6000
G1 X154.25 Y108.99 E267.052 F1800
G1 X150.97 Y105.71 E267.128
G1 X147.68 Y102.42 E267.205
G1 X144.39 Y99.14 E267.281
G1 X141.1 Y95.85 E267.358
G1 X137.82 Y92.57 E267.434
G1 X134.53 Y89.28 E267.511
G1 X135.45 Y89.49 F6000
G1 X138.62 Y92.66 E267.585 F1800
G1 X141.8 Y95.84 E267.659
G1 X144.97 Y99.01 E267.733
G1 X148.14 Y102.18 E267.806
G1 X151.31 Y105.35 E267.88
G1 X154.49 Y108.53 E267.954
G1 X157.66 Y111.7 E268.028
G1 X157.79 Y111.12 F6000
G1 X154.73 Y108.06 E268.099 F1800
G1 X151.67 Y105 E268.171
G1 X148.61 Y101.94 E268.242
G1 X145.55 Y98.88 E268.313
G1 X142.49 Y95.82 E268.384
G1 X139.43 Y92.76 E268.456
G1 X136.37 Y89.7 E268.527
G1 X137.01 Y89.63 F6000
G1 X140.49 Y93.12 E268.608 F1800
G1 X143.98 Y96.6 E268.689
G1 X147.46 Y100.09 E268.77
G1 X150.94 Y103.57 E268.851
G1 X154.43 Y107.06 E268.932
G1 X157.91 Y110.54 E269.013
G1 X158.04 Y109.96 F6000
G1 X154.63 Y106.55 E269.093 F1800
G1 X151.22 Y103.14 E269.172
G1 X147.81 Y99.73 E269.252
G1 X144.39 Y96.31 E269.331
G1 X140.98 Y92.9 E269.411
G1 X137.57 Y89.49 E269.49
G1 X138.14 Y89.35 F6000
G1 X141.48 Y92.69 E269.568 F1800
G1 X144.81 Y96.02 E269.645
G1 X148.15 Y99.36 E269.723
G1 X151.49 Y102.7 E269.801
G1 X154.82 Y106.03 E269.878
G1 X158.16 Y109.37 E269.956
G1 X157.98 Y109.19 F6000
G1 X156.75 Y114.15
G1 X155.52 Y119.11
G1 X155.92 Y119.86
G1 X152.53 Y116.47 E270.035 F1800
G1 X149.13 Y113.07 E270.114
G1 X145.74 Y109.68 E270.193
G1 X142.34 Y106.28 E270.272
G1 X138.95 Y102.89 E270.351
G1 X135.55 Y99.49 E270.43
G1 X132.16 Y96.1 E270.509
G1 X128.76 Y92.7 E270.588
G1 X125.37 Y89.31 E270.667
G1 X124.77 Y89.41 F6000
G1 X128.22 Y92.86 E270.747 F1800
G1 X131.66 Y96.31 E270.827
G1 X135.11 Y99.75 E270.908
G1 X138.56 Y103.2 E270.988
G1 X142 Y106.65 E271.068
G1 X145.45 Y110.1 E271.148
G1 X148.9 Y113.54 E271.229
G1 X152.34 Y116.99 E271.309
G1 X155.79 Y120.44 E271.389
G1 X155.67 Y121.02 F6000
G1 X152.17 Y117.52 E271.471 F1800
G1 X148.67 Y114.02 E271.552
G1 X145.17 Y110.52 E271.634
G1 X141.67 Y107.02 E271.715
G1 X138.16 Y103.51 E271.797
G1 X134.66 Y100.01 E271.878
G1 X131.16 Y96.51 E271.96
G1 X127.66 Y93.01 E272.041
G1 X124.16 Y89.51 E272.123
G1 X123.55 Y89.61 F6000
G1 X126.75 Y92.81 E272.197 F1800
G1 X129.95 Y96.01 E272.272
G1 X133.15 Y99.21 E272.346
G1 X136.35 Y102.41 E272.421
G1 X139.55 Y105.61 E272.495
G1 X142.74 Y108.8 E272.569
G1 X145.94 Y112 E272.644
G1 X149.14 Y115.2 E272.718
G1 X152.34 Y118.4 E272.793
G1 X155.54 Y121.6 E272.867
G1 X155.42 Y122.19 F6000
G1 X152.17 Y118.94 E272.943 F1800
G1 X148.93 Y115.69 E273.018
G1 X145.68 Y112.45 E273.094
G1 X142.43 Y109.2 E273.169
G1 X139.19 Y105.95 E273.245
G1 X135.94 Y102.7 E273.321
G1 X132.69 Y99.45 E273.396
G1 X129.44 Y96.21 E273.472
G1 X126.2 Y92.96 E273.547
G1 X122.95 Y89.71 E273.623
G1 X122.29 Y89.76 F6000
G1 X125.48 Y92.95 E273.697 F1800
G1 X128.67 Y96.14 E273.772
G1 X131.87 Y99.34 E273.846
G1 X135.06 Y102.53 E273.92
G1 X138.25 Y105.72 E273.995
G1 X141.44 Y108.91 E274.069
G1 X141.82 Y109.29 F6000
G1 X145.19 Y112.66 E274.148 F1800
G1 X148.56 Y116.03 E274.226
G1 X151.92 Y119.4 E274.305
G1 X155.29 Y122.77 E274.383
G1 X155.17 Y123.35 F6000
G1 X153.05 Y121.23 E274.432 F1800
G1 X151.92 Y120.1 F6000
G1 X148.62 Y116.8 E274.509 F1800
G1 X145.31 Y113.49 E274.585
G1 X142.01 Y110.19 E274.662
G1 X142.2 Y111.09 F6000
G1 X145.2 Y114.09 E274.732 F1800
G1 X148.21 Y117.1 E274.802
G1 X151.21 Y120.1 E274.872
G1 X150.51 F6000
G1 X147.8 Y117.4 E274.935 F1800
G1 X145.1 Y114.69 E274.998
G1 X142.39 Y111.99 E275.061
G1 X142.59 Y112.89 F6000
G1 X144.99 Y115.29 E275.117 F1800
G1 X147.4 Y117.7 E275.173
G1 X149.8 Y120.1 E275.229
G1 X149.09 F6000
G1 X145.94 Y116.95 E275.303 F1800
G1 X142.78 Y113.79 E275.376
G1 X142.97 Y114.69 F6000
G1 X145.68 Y117.4 E275.439 F1800
G1 X148.38 Y120.1 E275.502
G1 X147.68 F6000
G1 X145.43 Y117.85 E275.555 F1800
G1 X143.17 Y115.59 E275.607
G1 X143.36 Y116.49 F6000
G1 X145.38 Y118.51 E275.654 F1800
G1 X147.39 Y120.52 E275.701
G1 X147.12 Y120.96 F6000
G1 X145.34 Y119.18 E275.743 F1800
G1 X143.55 Y117.39 E275.784
G1 X143.74 Y118.29 F6000
G1 X146.85 Y121.39 E275.856 F1800
G1 X146.57 Y121.83 F6000
G1 X143.94 Y119.19 E275.917 F1800
G1 X144.13 Y120.09 F6000
G1 X146.3 Y122.26 E275.968 F1800
G1 X146.03 Y122.7 F6000
G1 X144.32 Y120.99 E276.008 F1800
G1 X144.52 Y121.89 F6000
G1 X145.76 Y123.13 E276.037 F1800
G1 X145.49 Y123.57 F6000
G1 X144.71 Y122.79 E276.055 F1800
G1 X144.9 Y123.69 F6000
G1 X145.22 Y124 E276.062 F1800
G1 X145.03 Y123.63 F6000
G1 X147.44 Y120.17
G1 X151.2 Y119.6
G1 X153.68 Y121.36
G1 X154.23 Y123.12
G1 X155.05 Y123.93 E276.081 F1800
G1 E272.581 F3000
G1 E269.081
G1 X154.86 Y123.75 F6000
G1 X152.55 Y120.17
G1 X150.43 Y119.09
G1 X146.47 Y114.74
G1 X142.5 Y110.38
G1 X141.46 Y108.92
G1 X140.57 Y108.75
G1 E272.581 F3000
G1 E276.081
G1 X137.34 Y105.52 E276.156 F1800
G1 X134.11 Y102.29 E276.231
G1 X130.88 Y99.06 E276.307
G1 X127.64 Y95.82 E276.382
G1 X124.41 Y92.59 E276.457
G1 X121.18 Y89.36 E276.532
G1 X120.08 Y88.97 F6000
G1 X123.37 Y92.26 E276.609 F1800
G1 X126.66 Y95.55 E276.685
G1 X129.96 Y98.84 E276.762
G1 X133.25 Y102.13 E276.839
G1 X136.54 Y105.42 E276.915
G1 X139.83 Y108.71 E276.992
G1 X139.08 Y108.68 F6000
G1 X135.74 Y105.34 E277.07 F1800
G1 X132.39 Y101.99 E277.148
G1 X129.05 Y98.65 E277.225
G1 X125.71 Y95.31 E277.303
G1 X122.36 Y91.96 E277.381
G1 X119.02 Y88.62 E277.459
G1 X115.67 Y85.27 E277.536
G1 X112.33 Y81.93 E277.614
G1 X112.67 Y81.55 F6000
G1 X115.12 Y84.01 E277.671 F1800
G1 X117.58 Y86.46 E277.729
G1 X120.03 Y88.92 E277.786
G1 X119.09 Y87.27 F6000
G1 X116.09 Y84.27 E277.856 F1800
G1 X113.08 Y81.26 E277.926
G1 X113.49 Y80.97 F6000
G1 X116.15 Y83.63 E277.988 F1800
G1 X118.81 Y86.28 E278.049
G1 X118.8 Y85.57 F6000
G1 X116.36 Y83.12 E278.107 F1800
G1 X113.91 Y80.67 E278.164
G1 X114.32 Y80.38 F6000
G1 X116.56 Y82.62 E278.216 F1800
G1 X118.8 Y84.86 E278.268
G1 X118.79 Y84.14 F6000
G1 X116.76 Y82.11 E278.315 F1800
G1 X114.73 Y80.08 E278.362
G1 X115.14 Y79.79 F6000
G1 X117 Y81.65 E278.406 F1800
G1 X118.86 Y83.5 E278.449
G1 X119.01 Y82.95 F6000
G1 X115.56 Y79.49 E278.529 F1800
G1 X115.97 Y79.2 F6000
G1 X119.17 Y82.4 E278.604 F1800
G1 X119.32 Y81.85 F6000
G1 X116.38 Y78.9 E278.672 F1800
G1 X116.79 Y78.61 F6000
G1 X119.48 Y81.3 E278.735 F1800
G1 X119.63 Y80.74 F6000
G1 X117.21 Y78.32 E278.791 F1800
G1 X117.62 Y78.02 F6000
G1 X119.79 Y80.19 E278.842 F1800
G1 X120.01 Y79.7 F6000
G1 X118.03 Y77.73 E278.888 F1800
G1 X118.44 Y77.43 F6000
G1 X120.24 Y79.23 E278.93 F1800
G1 X120.47 Y78.75 F6000
G1 X118.86 Y77.14 E278.967 F1800
G1 X119.3 Y76.88 F6000
G1 X120.7 Y78.27 E279 F1800
G1 X120.93 Y77.8 F6000
G1 X119.78 Y76.65 E279.026 F1800
G1 X120.27 Y76.42 F6000
G1 X121.16 Y77.32 E279.047 F1800
G1 X121.39 Y76.85 F6000
G1 X120.75 Y76.2 E279.062 F1800
G1 X121.23 Y75.97 F6000
G1 X121.63 Y76.37 E279.072 F1800
G1 X121.87 Y75.91 F6000
G1 X121.71 Y75.75 E279.075 F1800
G1 X121.34 Y76.12 F6000
G1 X116.67 Y79.21
G1 X112 Y82.3
G1 X115.29 Y85.59 E279.152 F1800
G1 X118.59 Y88.89 E279.228
G1 X121.88 Y92.18 E279.305
G1 X125.17 Y95.47 E279.382
G1 X128.46 Y98.76 E279.458
G1 X131.76 Y102.06 E279.535
G1 X135.05 Y105.35 E279.611
G1 X138.34 Y108.64 E279.688
G1 X137.59 Y108.6 F6000
G1 X134.35 Y105.36 E279.764 F1800
G1 X131.11 Y102.12 E279.839
G1 X127.87 Y98.88 E279.915
G1 X124.63 Y95.64 E279.99
G1 X121.38 Y92.39 E280.066
G1 X118.14 Y89.15 E280.141
G1 X114.9 Y85.91 E280.217
G1 X111.66 Y82.67 E280.292
G1 X111.33 Y83.04 F6000
G1 X114.53 Y86.24 E280.366 F1800
G1 X117.72 Y89.44 E280.441
G1 X120.92 Y92.63 E280.515
G1 X124.12 Y95.83 E280.59
G1 X127.31 Y99.03 E280.664
G1 X130.51 Y102.23 E280.738
G1 X133.7 Y105.42 E280.813
G1 X136.9 Y108.62 E280.887
G1 X136.28 Y108.7 F6000
G1 X133.12 Y105.54 E280.961 F1800
G1 X129.96 Y102.38 E281.034
G1 X126.8 Y99.22 E281.108
G1 X123.64 Y96.06 E281.182
G1 X120.47 Y92.9 E281.255
G1 X117.31 Y89.74 E281.329
G1 X114.15 Y86.58 E281.402
G1 X110.99 Y83.42 E281.476
G1 X110.66 Y83.79 F6000
G1 X113.79 Y86.92 E281.549 F1800
G1 X116.91 Y90.04 E281.622
G1 X120.04 Y93.17 E281.694
G1 X123.16 Y96.29 E281.767
G1 X126.29 Y99.42 E281.84
G1 X129.41 Y102.54 E281.913
G1 X132.54 Y105.67 E281.985
G1 X135.66 Y108.79 E282.058
G1 X135.04 Y108.88 F6000
G1 X131.51 Y105.35 E282.14 F1800
G1 X127.98 Y101.82 E282.222
G1 X124.45 Y98.29 E282.304
G1 X120.91 Y94.75 E282.387
G1 X117.38 Y91.22 E282.469
G1 X113.85 Y87.69 E282.551
G1 X110.32 Y84.16 E282.633
G1 X109.99 Y84.53 F6000
G1 X113.48 Y88.02 E282.714 F1800
G1 X116.97 Y91.51 E282.796
G1 X120.46 Y95 E282.877
G1 X123.96 Y98.5 E282.958
G1 X127.45 Y101.99 E283.039
G1 X130.94 Y105.48 E283.121
G1 X134.43 Y108.97 E283.202
G1 X133.81 Y109.06 F6000
G1 X130.36 Y105.61 E283.282 F1800
G1 X126.91 Y102.16 E283.363
G1 X123.46 Y98.71 E283.443
G1 X120.01 Y95.26 E283.523
G1 X116.56 Y91.81 E283.603
G1 X113.11 Y88.36 E283.684
G1 X109.66 Y84.91 E283.764
G1 X109.32 Y85.28 F6000
G1 X112.74 Y88.7 E283.844 F1800
G1 X116.17 Y92.13 E283.923
G1 X119.59 Y95.55 E284.003
G1 X123.02 Y98.98 E284.083
G1 X126.44 Y102.4 E284.163
G1 X129.87 Y105.83 E284.242
G1 X133.29 Y109.25 E284.322
G1 X132.78 Y109.44 F6000
G1 X129.38 Y106.04 E284.401 F1800
G1 X125.98 Y102.64 E284.48
G1 X122.58 Y99.24 E284.559
G1 X119.19 Y95.85 E284.639
G1 X115.79 Y92.45 E284.718
G1 X112.39 Y89.05 E284.797
G1 X108.99 Y85.65 E284.876
G1 X108.65 Y86.02 F6000
G1 X112.02 Y89.39 E284.955 F1800
G1 X115.4 Y92.77 E285.033
G1 X118.77 Y96.14 E285.112
G1 X122.15 Y99.52 E285.19
G1 X125.52 Y102.89 E285.269
G1 X128.9 Y106.27 E285.347
G1 X132.27 Y109.64 E285.426
G1 X131.75 Y109.83 F6000
G1 X128.4 Y106.48 E285.504 F1800
G1 X125.06 Y103.14 E285.582
G1 X121.71 Y99.79 E285.66
G1 X118.36 Y96.44 E285.737
G1 X115.01 Y93.09 E285.815
G1 X111.67 Y89.75 E285.893
G1 X108.32 Y86.4 E285.971
G1 X107.98 Y86.77 F6000
G1 X111.3 Y90.09 E286.048 F1800
G1 X114.63 Y93.42 E286.126
G1 X117.95 Y96.74 E286.203
G1 X121.27 Y100.06 E286.281
G1 X124.59 Y103.38 E286.358
G1 X127.92 Y106.71 E286.436
G1 X131.24 Y110.03 E286.513
G1 X130.74 Y110.24 F6000
G1 X127.45 Y106.95 E286.59 F1800
G1 X124.16 Y103.66 E286.666
G1 X120.87 Y100.37 E286.743
G1 X117.59 Y97.08 E286.819
G1 X114.3 Y93.79 E286.896
G1 X111.01 Y90.5 E286.972
G1 X107.72 Y87.21 E287.049
G1 X107.48 Y87.68 F6000
G1 X110.74 Y90.94 E287.125 F1800
G1 X114.01 Y94.21 E287.201
G1 X117.27 Y97.47 E287.277
G1 X120.54 Y100.74 E287.352
G1 X123.8 Y104 E287.428
G1 X127.07 Y107.27 E287.504
G1 X130.33 Y110.53 E287.58
G1 X129.91 Y110.82 F6000
G1 X126.67 Y107.58 E287.655 F1800
G1 X123.43 Y104.34 E287.731
G1 X120.19 Y101.1 E287.806
G1 X116.96 Y97.87 E287.882
G1 X113.72 Y94.63 E287.957
G1 X110.48 Y91.39 E288.033
G1 X107.24 Y88.15 E288.108
G1 X107 Y88.62 F6000
G1 X110.21 Y91.83 E288.183 F1800
G1 X113.43 Y95.05 E288.258
G1 X116.64 Y98.26 E288.333
G1 X119.86 Y101.48 E288.407
G1 X123.07 Y104.69 E288.482
G1 X126.29 Y107.91 E288.557
G1 X129.5 Y111.12 E288.632
G1 X129.09 Y111.41 F6000
G1 X125.9 Y108.22 E288.706 F1800
G1 X122.71 Y105.03 E288.78
G1 X119.52 Y101.84 E288.854
G1 X116.34 Y98.66 E288.929
G1 X113.15 Y95.47 E289.003
G1 X109.96 Y92.28 E289.077
G1 X106.77 Y89.09 E289.151
G1 X106.53 Y89.56 F6000
G1 X109.69 Y92.72 E289.225 F1800
G1 X112.86 Y95.89 E289.298
G1 X116.02 Y99.05 E289.372
G1 X119.18 Y102.21 E289.446
G1 X122.34 Y105.37 E289.52
G1 X125.51 Y108.54 E289.593
G1 X128.67 Y111.7 E289.667
G1 X128.28 Y112.02 F6000
G1 X125.14 Y108.88 E289.74 F1800
G1 X122 Y105.74 E289.813
G1 X118.86 Y102.6 E289.886
G1 X115.71 Y99.45 E289.96
G1 X112.57 Y96.31 E290.033
G1 X109.43 Y93.17 E290.106
G1 X106.29 Y90.03 E290.179
G1 X106.05 Y90.5 F6000
G1 X109.18 Y93.63 E290.252 F1800
G1 X112.31 Y96.76 E290.325
G1 X115.44 Y99.89 E290.398
G1 X118.58 Y103.02 E290.47
G1 X121.71 Y106.15 E290.543
G1 X124.84 Y109.28 E290.616
G1 X127.97 Y112.41 E290.689
G1 X127.65 Y112.8 F6000
G1 X124.53 Y109.68 E290.762 F1800
G1 X121.41 Y106.56 E290.834
G1 X118.29 Y103.44 E290.907
G1 X115.18 Y100.33 E290.979
G1 X112.06 Y97.21 E291.052
G1 X108.94 Y94.09 E291.124
G1 X105.82 Y90.97 E291.197
G1 X105.58 Y91.44 F6000
G1 X108.69 Y94.55 E291.269 F1800
G1 X111.8 Y97.66 E291.342
G1 X114.91 Y100.77 E291.414
G1 X118.01 Y103.87 E291.486
G1 X121.12 Y106.98 E291.558
G1 X124.23 Y110.09 E291.631
G1 X127.34 Y113.2 E291.703
G1 X127.03 Y113.59 F6000
G1 X123.93 Y110.49 E291.775 F1800
G1 X120.83 Y107.4 E291.847
G1 X117.73 Y104.3 E291.919
G1 X114.64 Y101.2 E291.992
G1 X111.54 Y98.1 E292.064
G1 X108.44 Y95.01 E292.136
G1 X105.34 Y91.91 E292.208
G1 X105.11 Y92.38 F6000
G1 X108.2 Y95.47 E292.28 F1800
G1 X111.28 Y98.55 E292.352
G1 X114.37 Y101.64 E292.424
G1 X117.45 Y104.73 E292.495
G1 X120.54 Y107.82 E292.567
G1 X123.62 Y110.9 E292.639
G1 X126.71 Y113.99 E292.711
G1 X126.45 Y114.43 F6000
G1 X123.37 Y111.35 E292.783 F1800
G1 X120.3 Y108.28 E292.854
G1 X117.22 Y105.2 E292.926
G1 X114.14 Y102.12 E292.997
G1 X111.06 Y99.04 E293.069
G1 X107.99 Y95.97 E293.14
G1 X104.91 Y92.89 E293.212
G1 X104.82 Y93.5 F6000
G1 X107.88 Y96.56 E293.283 F1800
G1 X110.94 Y99.62 E293.355
G1 X114 Y102.68 E293.426
G1 X117.07 Y105.75 E293.497
G1 X120.13 Y108.81 E293.568
G1 X123.19 Y111.87 E293.64
G1 X126.25 Y114.93 E293.711
G1 X126.05 Y115.44 F6000
G1 X123 Y112.39 E293.782 F1800
G1 X119.96 Y109.35 E293.853
G1 X116.91 Y106.3 E293.924
G1 X113.86 Y103.25 E293.995
G1 X110.81 Y100.2 E294.066
G1 X107.77 Y97.16 E294.137
G1 X104.72 Y94.11 E294.208
G1 X104.62 Y94.72 F6000
G1 X107.65 Y97.75 E294.279 F1800
G1 X110.69 Y100.79 E294.349
G1 X113.72 Y103.82 E294.42
G1 X116.75 Y106.85 E294.49
G1 X119.78 Y109.88 E294.561
G1 X122.82 Y112.92 E294.631
G1 X125.85 Y115.95 E294.702
G1 X125.65 Y116.45 F6000
G1 X122.13 Y112.93 E294.784 F1800
G1 X118.61 Y109.41 E294.866
G1 X115.09 Y105.89 E294.948
G1 X111.56 Y102.36 E295.03
G1 X108.04 Y98.84 E295.112
G1 X104.52 Y95.32 E295.194
G1 X104.42 Y95.93 F6000
G1 X107.93 Y99.44 E295.276 F1800
G1 X111.43 Y102.94 E295.357
G1 X114.94 Y106.45 E295.439
G1 X118.45 Y109.96 E295.521
G1 X121.95 Y113.46 E295.602
G1 X125.46 Y116.97 E295.684
G1 X125.4 Y117.62 F6000
G1 X121.89 Y114.11 E295.766 F1800
G1 X118.37 Y110.59 E295.847
G1 X114.86 Y107.08 E295.929
G1 X111.35 Y103.57 E296.011
G1 X107.83 Y100.05 E296.092
G1 X104.32 Y96.54 E296.174
G1 X104.22 Y97.15 F6000
G1 X107.74 Y100.67 E296.256 F1800
G1 X111.26 Y104.19 E296.338
G1 X114.78 Y107.71 E296.42
G1 X118.3 Y111.22 E296.502
G1 X121.82 Y114.74 E296.584
G1 X125.34 Y118.26 E296.666
G1 X125.28 Y118.91 F6000
G1 X121.75 Y115.39 E296.748 F1800
G1 X118.23 Y111.86 E296.83
G1 X114.7 Y108.34 E296.912
G1 X111.17 Y104.81 E296.994
G1 X107.65 Y101.29 E297.076
G1 X104.12 Y97.76 E297.158
G1 X104.02 Y98.36 F6000
G1 X107.55 Y101.89 E297.24 F1800
G1 X111.09 Y105.43 E297.322
G1 X114.62 Y108.96 E297.405
G1 X118.15 Y112.49 E297.487
G1 X121.69 Y116.03 E297.569
G1 X125.22 Y119.56 E297.651
G1 X125.24 Y120.29 F6000
G1 X122.21 Y117.26 E297.722 F1800
G1 X119.18 Y114.23 E297.792
G1 X116.15 Y111.2 E297.863
G1 X113.11 Y108.16 E297.933
G1 X110.08 Y105.13 E298.004
G1 X107.05 Y102.1 E298.074
G1 X104.02 Y99.07 E298.145
G1 X104.15 Y99.91 F6000
G1 X107.18 Y102.94 E298.216 F1800
G1 X110.22 Y105.97 E298.286
G1 X113.25 Y109 E298.357
G1 X116.28 Y112.04 E298.427
G1 X119.31 Y115.07 E298.498
G1 X122.35 Y118.1 E298.568
G1 X125.38 Y121.13 E298.639
G1 X125.51 Y121.98 F6000
G1 X122.48 Y118.95 E298.71 F1800
G1 X119.45 Y115.92 E298.78
G1 X116.42 Y112.89 E298.851
G1 X113.38 Y109.85 E298.921
G1 X110.35 Y106.82 E298.992
G1 X107.32 Y103.79 E299.062
G1 X104.29 Y100.76 E299.133
G1 X104.43 Y101.6 F6000
G1 X107.46 Y104.63 E299.204 F1800
G1 X110.49 Y107.66 E299.274
G1 X113.52 Y110.69 E299.345
G1 X116.56 Y113.73 E299.415
G1 X119.59 Y116.76 E299.486
G1 X122.62 Y119.79 E299.556
G1 X125.65 Y122.82 E299.627
G1 X125.68 Y123.56 F6000
G1 X122.16 Y120.04 E299.709 F1800
G1 X118.64 Y116.52 E299.791
G1 X115.13 Y113.01 E299.873
G1 X111.61 Y109.49 E299.955
G1 X108.09 Y105.97 E300.037
G1 X104.57 Y102.45 E300.119
G1 X104.71 Y103.29 F6000
G1 X107.98 Y106.57 E300.195 F1800
G1 X111.26 Y109.84 E300.271
G1 X114.53 Y113.12 E300.348
G1 X117.8 Y116.39 E300.424
G1 X121.08 Y119.67 E300.5
G1 X124.35 Y122.94 E300.576
G1 X123.02 Y122.31 F6000
G1 X119.99 Y119.28 E300.647 F1800
G1 X116.96 Y116.25 E300.717
G1 X113.94 Y113.23 E300.788
G1 X110.91 Y110.2 E300.858
G1 X107.88 Y107.17 E300.929
G1 X104.85 Y104.14 E300.999
G1 X105.13 Y105.13 F6000
G1 X108.44 Y108.44 E301.076 F1800
G1 X111.75 Y111.75 E301.153
G1 X115.07 Y115.07 E301.23
G1 X118.38 Y118.38 E301.307
G1 X121.69 Y121.69 E301.384
G1 X120.37 Y121.07 F6000
G1 X117.47 Y118.17 E301.452 F1800
G1 X114.57 Y115.27 E301.519
G1 X111.66 Y112.36 E301.587
G1 X108.76 Y109.46 E301.654
G1 X105.86 Y106.56 E301.722
G1 X106.58 Y108 F6000
G1 X109.69 Y111.11 E301.794 F1800
G1 X112.79 Y114.21 E301.867
G1 X115.9 Y117.32 E301.939
G1 X119 Y120.42 E302.011
G1 X119.38 Y120.04 F6000
G1 X116.54 Y118.66
G1 X113.46 Y115.58 E302.083 F1800
G1 X110.38 Y112.5 E302.154
G1 X107.3 Y109.42 E302.226
G1 X107.68 Y109.05 F6000
G1 X109.12 Y111.94
G1 X111.6 Y114.42 E302.284 F1800
G1 X114.07 Y116.9 E302.341
G1 E298.841 F3000
G1 E295.341
G1 X114.44 Y116.52 F6000
G1 X117.46 Y111.65
G1 X120.47 Y106.77
G1 X123.49 Y101.9
G1 X126.5 Y97.03
G1 X129.52 Y92.15
G1 X132.53 Y87.28
G1 E298.841 F3000
G1 E302.341
G1 X131.2 Y85.94 E302.373 F1800
G1 X131.61 Y85.64 F6000
G1 X132.25 Y86.29 E302.388 F1800
G1 X131.69 Y86.48 F6000
G1 X133.98 Y89.2
G1 X136.93 Y90.04
G1 X142.26 Y87.39
G1 X147.63 Y81.15
G1 X149.05 Y79.4
G1 X149.15 Y78.44
G1 X151.64 Y80.93 E302.446 F1800
G1 X154.12 Y83.41 E302.503
G1 X153.93 Y83.59 F6000
G1 X152.3 Y81.8
G1 X152.19 Y80.77
G1 X149.41 Y78 E302.568 F1800
G1 X149.66 Y77.54 F6000
G1 X151.22 Y79.1 E302.604 F1800
G1 X150.32 Y77.48 F6000
G1 X149.87 Y77.03 E302.615 F1800
; Layer Change GCode
; LAYER:2
; LAYER_HEIGHT:0.21
; TYPE:FILL
G1 E299.115 F3000
G1 E295.615
G1 Z0.84 F6000
G1 X148.46 Y82.41
G1 X147.06 Y87.78
G1 X145.65 Y93.16
G1 X144.24 Y98.54
G1 X142.84 Y103.91
G1 X141.43 Y109.29
; TYPE:WALL-OUTER
G1 E299.115 F3000
G1 E302.615
G1 X140.7 Y109.13 E302.627 F1800
G1 X137.17 Y108.96 E302.685
G1 X133.88 Y109.43 E302.74
G1 X130.98 Y110.53 E302.791
G1 X128.6 Y112.21 E302.839
G1 X126.86 Y114.41 E302.885
G1 X125.83 Y117.02 E302.931
G1 X125.56 Y119.92 E302.979
G1 X126.06 Y122.97 E303.03
G1 X126.64 Y124.42 E303.056
G1 X122.77 Y122.61 E303.126
G1 X118.89 Y120.8 E303.196
G1 X115.65 Y118.49 E303.262
G1 X112.41 Y116.17 E303.327
G1 X109.99 Y113.48 E303.387
G1 X107.57 Y110.79 E303.447
G1 X106.08 Y107.84 E303.501
G1 X104.59 Y104.89 E303.555
G1 X104.09 Y101.81 E303.607
G1 X103.58 Y98.73 E303.658
G1 X104.09 Y95.65 E303.71
G1 X104.59 Y92.57 E303.761
G1 X106.08 Y89.62 E303.816
G1 X107.57 Y86.67 E303.87
G1 X109.99 Y83.98 E303.93
G1 X112.41 Y81.28 E303.989
G1 X115.65 Y78.97 E304.055
G1 X118.89 Y76.65 E304.12
G1 X123.14 Y74.67 E304.197
G1 X122.12 Y76.21 E304.228
G1 X120.17 Y80.22 E304.301
G1 X119.16 Y83.81 E304.362
G1 X119.19 Y86.69 E304.41
G1 X120.31 Y88.65 E304.447
G1 X122.44 Y89.42 E304.484
G1 X125.29 Y88.94 E304.532
G1 X128.64 Y87.33 E304.593
G1 X132.21 Y84.75 E304.665
G1 X132.92 Y87.26 E304.708
G1 X134.41 Y88.86 E304.744
G1 X136.56 Y89.36 E304.781
G1 X139.1 Y88.71 E304.824
G1 X141.85 Y87.03 E304.877
G1 X144.6 Y84.44 E304.939
G1 X147.15 Y81.17 E305.007
G1 X149.29 Y77.46 E305.078
G1 X150 Y75.71 E305.109
G1 X150.71 Y77.46 E305.14
G1 X152.85 Y81.17 E305.21
G1 X155.4 Y84.44 E305.279
G1 X158.15 Y87.03 E305.341
G1 X160.9 Y88.71 E305.394
G1 X163.44 Y89.36 E305.437
G1 X165.59 Y88.86 E305.473
G1 X167.09 Y87.26 E305.509
G1 X167.79 Y84.75 E305.552
G1 X171.36 Y87.33 E305.625
G1 X174.71 Y88.94 E305.686
G1 X177.56 Y89.42 E305.734
G1 X179.69 Y88.65 E305.771
G1 X180.81 Y86.69 E305.808
G1 X180.84 Y83.81 E305.855
G1 X179.83 Y80.22 E305.917
G1 X177.88 Y76.21 E305.99
G1 X176.86 Y74.67 E306.021
G1 X181.1 Y76.65 E306.098
G1 X184.35 Y78.97 E306.164
G1 X187.59 Y81.28 E306.229
G1 X190.01 Y83.98 E306.289
G1 X192.43 Y86.67 E306.348
G1 X193.92 Y89.62 E306.403
G1 X195.41 Y92.57 E306.457
G1 X195.92 Y95.65 E306.509
G1 X196.42 Y98.73 E306.56
G1 X195.92 Y101.81 E306.611
G1 X195.41 Y104.89 E306.662
G1 X193.92 Y107.84 E306.717
G1 X192.43 Y110.79 E306.771
G1 X190.01 Y113.48 E306.831
G1 X187.59 Y116.17 E306.89
G1 X184.35 Y118.49 E306.956
G1 X181.11 Y120.8 E307.021
G1 X177.24 Y122.61 E307.092
G1 X173.37 Y124.42 E307.162
G1 X173.94 Y122.97 E307.188
G1 X174.44 Y119.92 E307.239
G1 X174.17 Y117.02 E307.287
G1 X173.14 Y114.41 E307.333
G1 X171.4 Y112.21 E307.379
G1 X169.02 Y110.53 E307.427
G1 X166.12 Y109.43 E307.478
G1 X162.84 Y108.96 E307.533
G1 X159.3 Y109.13 E307.591
G1 X158.57 Y109.29 E307.603
G1 X157.71 Y113.29 E307.67
G1 X156.86 Y117.29 E307.738
G1 X156 Y121.28 E307.805
G1 X155.14 Y125.28 E307.872
G1 X153.64 Y122.88 E307.919
G1 X152.14 Y120.48 E307.966
G1 X147.86 E308.036
G1 X146.36 Y122.88 E308.083
G1 X144.86 Y125.28 E308.129
G1 X144.01 Y121.3 E308.196
G1 X143.16 Y117.31 E308.263
G1 X142.3 Y113.33 E308.33
G1 X141.45 Y109.34 E308.397
G1 X141.43 Y109.29
G1 X140.7 Y109.13
G1 X138.45 Y109.02
G1 X141.8 Y109.22 F6000
; TYPE:FILL
G1 X145.12 Y105.9 E308.474 F1800
G1 X148.44 Y102.58 E308.552
G1 X151.76 Y99.27 E308.629
G1 X155.07 Y95.95 E308.706
G1 X158.39 Y92.63 E308.784
G1 X161.71 Y89.31 E308.861
G1 X161.15 Y89.17 F6000
G1 X157.86 Y92.46 E308.938 F1800
G1 X154.57 Y95.75 E309.014
G1 X151.28 Y99.04 E309.091
G1 X147.99 Y102.33 E309.167
G1 X144.7 Y105.62 E309.244
G1 X141.41 Y108.91 E309.32
G1 X140.83 Y108.78 F6000
G1 X144.13 Y105.48 E309.397 F1800
G1 X147.43 Y102.18 E309.474
G1 X150.73 Y98.89 E309.551
G1 X154.02 Y95.59 E309.627
G1 X157.32 Y92.29 E309.704
G1 X160.62 Y88.99 E309.781
G1 X160.18 Y88.72 F6000
G1 X156.85 Y92.06 E309.859 F1800
G1 X153.51 Y95.39 E309.936
G1 X150.18 Y98.73 E310.014
G1 X146.84 Y102.06 E310.092
G1 X143.51 Y105.4 E310.169
G1 X140.17 Y108.73 E310.247
G1 X139.5 Y108.7 F6000
G1 X142.88 Y105.33 E310.326 F1800
G1 X146.25 Y101.95 E310.404
G1 X149.63 Y98.58 E310.483
G1 X153 Y95.2 E310.561
G1 X156.38 Y91.83 E310.64
G1 X159.75 Y88.45 E310.718
G1 X159.31 Y88.18 F6000
G1 X155.9 Y91.59 E310.798 F1800
G1 X152.48 Y95.01 E310.877
G1 X149.07 Y98.42 E310.957
G1 X145.65 Y101.83 E311.036
G1 X142.24 Y105.25 E311.116
G1 X138.82 Y108.66 E311.195
G1 X138.15 Y108.63 F6000
G1 X141.6 Y105.18 E311.275 F1800
G1 X145.06 Y101.72 E311.356
G1 X148.51 Y98.27 E311.436
G1 X151.96 Y94.82 E311.516
G1 X155.42 Y91.36 E311.597
G1 X158.87 Y87.91 E311.677
G1 X158.43 Y87.64 F6000
G1 X154.94 Y91.13 E311.758 F1800
G1 X151.45 Y94.63 E311.84
G1 X147.96 Y98.12 E311.921
G1 X144.46 Y101.61 E312.002
G1 X140.97 Y105.11 E312.084
G1 X137.48 Y108.6 E312.165
G1 X136.72 Y108.64 F6000
G1 X139.76 Y105.6 E312.236 F1800
G1 X142.8 Y102.56 E312.306
G1 X145.84 Y99.52 E312.377
G1 X148.87 Y96.49 E312.448
G1 X151.91 Y93.45 E312.519
G1 X154.95 Y90.41 E312.589
G1 X157.99 Y87.37 E312.66
G1 X157.62 Y87.04 F6000
G1 X154.52 Y90.14 E312.732 F1800
G1 X151.41 Y93.25 E312.805
G1 X148.31 Y96.35 E312.877
G1 X145.21 Y99.45 E312.949
G1 X142.11 Y102.55 E313.021
G1 X139 Y105.66 E313.094
G1 X135.9 Y108.76 E313.166
G1 X135.07 Y108.88 F6000
G1 X138.24 Y105.71 E313.24 F1800
G1 X141.41 Y102.54 E313.313
G1 X144.58 Y99.37 E313.387
G1 X147.74 Y96.21 E313.461
G1 X150.91 Y93.04 E313.535
G1 X154.08 Y89.87 E313.608
G1 X157.25 Y86.7 E313.682
G1 X156.89 Y86.36 F6000
G1 X153.66 Y89.59 E313.757 F1800
G1 X150.42 Y92.83 E313.833
G1 X147.19 Y96.06 E313.908
G1 X143.95 Y99.3 E313.983
G1 X140.72 Y102.53 E314.058
G1 X137.48 Y105.77 E314.134
G1 X134.25 Y109 E314.209
G1 X133.29 Y109.25 F6000
G1 X136.61 Y105.93 E314.286 F1800
G1 X139.93 Y102.61 E314.364
G1 X143.25 Y99.29 E314.441
G1 X146.56 Y95.97 E314.518
G1 X149.88 Y92.65 E314.595
G1 X153.2 Y89.33 E314.673
G1 X156.52 Y86.01 E314.75
G1 X156.16 Y85.67 F6000
G1 X152.73 Y89.1 E314.83 F1800
G1 X149.3 Y92.53 E314.91
G1 X145.87 Y95.96 E314.99
G1 X142.44 Y99.39 E315.069
G1 X139.01 Y102.82 E315.149
G1 X135.58 Y106.25 E315.229
G1 X132.15 Y109.68 E315.309
G1 X131.01 Y110.11 F6000
G1 X134.11 Y107.01 E315.381 F1800
G1 X137.21 Y103.92 E315.453
G1 X140.3 Y100.82 E315.525
G1 X143.4 Y97.72 E315.598
G1 X146.5 Y94.62 E315.67
G1 X149.6 Y91.53 E315.742
G1 X152.69 Y88.43 E315.814
G1 X155.79 Y85.33 E315.886
G1 X155.43 Y84.99 F6000
G1 X152.1 Y88.32 E315.963 F1800
G1 X148.78 Y91.64 E316.041
G1 X145.45 Y94.97 E316.118
G1 X142.13 Y98.3 E316.196
G1 X138.8 Y101.62 E316.273
G1 X135.47 Y104.95 E316.35
G1 X132.15 Y108.27 E316.428
G1 X128.82 Y111.6 E316.505
G1 X127.81 Y112.61 F6000
G1 X125.1 Y115.32 E316.568 F1800
G1 X122.38 Y118.04 E316.631
G1 X119.67 Y120.75 E316.694
G1 X119.19 Y120.52 F6000
G1 X122.45 Y117.26 E316.77 F1800
G1 X125.71 Y114 E316.846
G1 X128.98 Y110.73 E316.922
G1 X132.24 Y107.47 E316.998
G1 X135.5 Y104.21 E317.074
G1 X138.76 Y100.95 E317.15
G1 X142.02 Y97.69 E317.226
G1 X145.28 Y94.43 E317.302
G1 X148.55 Y91.16 E317.378
G1 X151.81 Y87.9 E317.454
G1 X155.07 Y84.64 E317.53
G1 X154.76 Y84.24 F6000
G1 X151.49 Y87.51 E317.606 F1800
G1 X148.21 Y90.79 E317.682
G1 X144.94 Y94.06 E317.759
G1 X141.67 Y97.33 E317.835
G1 X138.4 Y100.6 E317.911
G1 X135.12 Y103.88 E317.987
G1 X131.85 Y107.15 E318.063
G1 X128.58 Y110.42 E318.139
G1 X125.31 Y113.69 E318.216
G1 X122.03 Y116.97 E318.292
G1 X118.76 Y120.24 E318.368
G1 X118.35 Y119.95 F6000
G1 X121.63 Y116.67 E318.444 F1800
G1 X124.91 Y113.38 E318.521
G1 X128.2 Y110.1 E318.597
G1 X131.48 Y106.82 E318.673
G1 X134.76 Y103.54 E318.75
G1 X138.04 Y100.25 E318.826
G1 X141.32 Y96.97 E318.903
G1 X144.6 Y93.69 E318.979
G1 X147.89 Y90.41 E319.055
G1 X151.17 Y87.12 E319.132
G1 X154.45 Y83.84 E319.208
G1 X154.15 Y83.44 F6000
G1 X150.86 Y86.73 E319.285 F1800
G1 X147.56 Y90.02 E319.361
G1 X144.27 Y93.32 E319.438
G1 X140.98 Y96.61 E319.515
G1 X137.69 Y99.9 E319.591
G1 X134.39 Y103.19 E319.668
G1 X131.1 Y106.48 E319.744
G1 X127.81 Y109.77 E319.821
G1 X124.52 Y113.07 E319.898
G1 X121.22 Y116.36 E319.974
G1 X117.93 Y119.65 E320.051
G1 X117.52 Y119.36 F6000
G1 X120.82 Y116.06 E320.128 F1800
G1 X124.12 Y112.76 E320.205
G1 X127.43 Y109.45 E320.282
G1 X130.73 Y106.15 E320.359
G1 X134.03 Y102.85 E320.436
G1 X137.33 Y99.55 E320.512
G1 X140.63 Y96.25 E320.589
G1 X143.93 Y92.95 E320.666
G1 X147.24 Y89.64 E320.743
G1 X150.54 Y86.34 E320.82
G1 X153.84 Y83.04 E320.897
G1 X153.53 Y82.65 F6000
G1 X150.22 Y85.96 E320.974 F1800
G1 X146.91 Y89.27 E321.051
G1 X143.6 Y92.58 E321.128
G1 X140.29 Y95.89 E321.205
G1 X136.98 Y99.2 E321.282
G1 X133.66 Y102.52 E321.359
G1 X130.35 Y105.83 E321.436
G1 X127.04 Y109.14 E321.513
G1 X123.73 Y112.45 E321.59
G1 X120.42 Y115.76 E321.667
G1 X117.11 Y119.07 E321.744
G1 X116.7 Y118.77 F6000
G1 X120.02 Y115.45 E321.821 F1800
G1 X123.34 Y112.13 E321.899
G1 X126.66 Y108.81 E321.976
G1 X129.98 Y105.49 E322.053
G1 X133.3 Y102.17 E322.13
G1 X136.62 Y98.85 E322.208
G1 X139.94 Y95.53 E322.285
G1 X143.26 Y92.21 E322.362
G1 X146.58 Y88.89 E322.439
G1 X149.9 Y85.57 E322.517
G1 X153.22 Y82.25 E322.594
G1 X152.91 Y81.85 F6000
G1 X149.58 Y85.18 E322.672 F1800
G1 X146.25 Y88.51 E322.749
G1 X142.92 Y91.84 E322.827
G1 X139.59 Y95.17 E322.904
G1 X136.26 Y98.5 E322.982
G1 X132.93 Y101.83 E323.059
G1 X129.6 Y105.16 E323.137
G1 X126.27 Y108.49 E323.214
G1 X122.94 Y111.82 E323.292
G1 X119.61 Y115.15 E323.369
G1 X116.28 Y118.48 E323.447
G1 X115.87 Y118.18 F6000
G1 X119.21 Y114.84 E323.525 F1800
G1 X122.55 Y111.5 E323.602
G1 X125.89 Y108.16 E323.68
G1 X129.23 Y104.82 E323.758
G1 X132.57 Y101.48 E323.836
G1 X135.9 Y98.15 E323.913
G1 X139.24 Y94.81 E323.991
G1 X142.58 Y91.47 E324.069
G1 X145.92 Y88.13 E324.147
G1 X149.26 Y84.79 E324.224
G1 X152.6 Y81.45 E324.302
G1 X152.33 Y81.02 F6000
G1 X148.98 Y84.37 E324.38 F1800
G1 X145.63 Y87.72 E324.458
G1 X142.27 Y91.08 E324.536
G1 X138.92 Y94.43 E324.614
G1 X135.57 Y97.78 E324.692
G1 X132.22 Y101.13 E324.77
G1 X128.87 Y104.48 E324.848
G1 X125.52 Y107.83 E324.926
G1 X122.16 Y111.19 E325.004
G1 X118.81 Y114.54 E325.082
G1 X115.46 Y117.89 E325.16
G1 X115.04 Y117.59 F6000
G1 X118.41 Y114.22 E325.238 F1800
G1 X121.77 Y110.86 E325.317
G1 X125.14 Y107.49 E325.395
G1 X128.51 Y104.13 E325.473
G1 X131.87 Y100.76 E325.552
G1 X135.24 Y97.4 E325.63
G1 X138.6 Y94.03 E325.709
G1 X141.97 Y90.67 E325.787
G1 X145.34 Y87.3 E325.865
G1 X148.7 Y83.94 E325.944
G1 X152.07 Y80.57 E326.022
G1 X151.81 Y80.12 F6000
G1 X148.43 Y83.5 E326.101 F1800
G1 X145.05 Y86.88 E326.179
G1 X141.67 Y90.26 E326.258
G1 X138.29 Y93.64 E326.337
G1 X134.91 Y97.02 E326.415
G1 X131.53 Y100.4 E326.494
G1 X128.15 Y103.78 E326.572
G1 X124.77 Y107.16 E326.651
G1 X121.39 Y110.54 E326.73
G1 X118.01 Y113.92 E326.808
G1 X114.63 Y117.3 E326.887
G1 X114.22 Y117 F6000
G1 X117.61 Y113.61 E326.966 F1800
G1 X121.01 Y110.21 E327.045
G1 X124.4 Y106.82 E327.124
G1 X127.79 Y103.43 E327.203
G1 X131.19 Y100.03 E327.282
G1 X134.58 Y96.64 E327.361
G1 X137.98 Y93.24 E327.44
G1 X141.37 Y89.85 E327.519
G1 X144.76 Y86.46 E327.598
G1 X148.16 Y83.06 E327.677
G1 X151.55 Y79.67 E327.756
G1 X151.29 Y79.22 F6000
G1 X147.88 Y82.63 E327.835 F1800
G1 X144.48 Y86.04 E327.915
G1 X141.07 Y89.44 E327.994
G1 X137.66 Y92.85 E328.073
G1 X134.25 Y96.26 E328.153
G1 X130.85 Y99.67 E328.232
G1 X127.44 Y103.08 E328.312
G1 X124.03 Y106.49 E328.391
G1 X120.62 Y109.89 E328.47
G1 X117.22 Y113.3 E328.55
G1 X113.81 Y116.71 E328.629
G1 X113.39 Y116.42 F6000
G1 X116.81 Y113 E328.709 F1800
G1 X120.24 Y109.57 E328.788
G1 X123.66 Y106.15 E328.868
G1 X127.08 Y102.73 E328.948
G1 X130.5 Y99.31 E329.027
G1 X133.93 Y95.88 E329.107
G1 X137.35 Y92.46 E329.186
G1 X140.77 Y89.04 E329.266
G1 X144.19 Y85.62 E329.346
G1 X147.62 Y82.19 E329.425
G1 X151.04 Y78.77 E329.505
G1 X150.78 Y78.33 F6000
G1 X148.66 Y80.46 E329.555 F1800
G1 X146.53 Y82.58 E329.604
G1 X146.71 Y82.76 F6000
G1 X148.06 Y80.33
G1 X150.52 Y77.88 E329.661 F1800
G1 X150.28 Y77.4 F6000
G1 X149.03 Y78.66 E329.691 F1800
G1 X149.81 Y77.17 F6000
G1 X150.07 Y76.91 E329.697 F1800
G1 X149.88 Y77.1 F6000
G1 X146.97 Y82.13
G1 X142 Y87.41
G1 X141.29 Y87.81
G1 X138.14 Y90.96 E329.77 F1800
G1 X135 Y94.1 E329.843
G1 X131.85 Y97.25 E329.917
G1 X128.71 Y100.39 E329.99
G1 X125.56 Y103.54 E330.063
G1 X122.42 Y106.68 E330.136
G1 X119.27 Y109.83 E330.21
G1 X116.13 Y112.97 E330.283
G1 X112.98 Y116.12 E330.356
G1 X112.59 Y115.81 F6000
G1 X115.95 Y112.45 E330.434 F1800
G1 X119.31 Y109.09 E330.512
G1 X122.67 Y105.73 E330.59
G1 X126.03 Y102.38 E330.669
G1 X129.38 Y99.02 E330.747
G1 X132.74 Y95.66 E330.825
G1 X136.1 Y92.3 E330.903
G1 X139.46 Y88.94 E330.981
G1 X138.41 Y89.28 F6000
G1 X135.14 Y92.55 E331.057 F1800
G1 X131.87 Y95.82 E331.133
G1 X128.6 Y99.09 E331.209
G1 X125.33 Y102.36 E331.286
G1 X122.06 Y105.63 E331.362
G1 X118.79 Y108.9 E331.438
G1 X115.52 Y112.17 E331.514
G1 X112.25 Y115.44 E331.59
G1 X111.92 Y115.06 F6000
G1 X115.11 Y111.87 E331.664 F1800
G1 X118.31 Y108.67 E331.739
G1 X121.5 Y105.48 E331.813
G1 X124.7 Y102.29 E331.888
G1 X127.89 Y99.09 E331.962
G1 X131.08 Y95.9 E332.036
G1 X134.28 Y92.7 E332.111
G1 X137.47 Y89.51 E332.185
G1 X136.54 Y89.74 F6000
G1 X133.42 Y92.86 E332.258 F1800
G1 X130.3 Y95.98 E332.33
G1 X127.18 Y99.1 E332.403
G1 X124.06 Y102.22 E332.476
G1 X120.94 Y105.33 E332.548
G1 X117.82 Y108.45 E332.621
G1 X114.7 Y111.57 E332.693
G1 X111.58 Y114.69 E332.766
G1 X111.25 Y114.32 F6000
G1 X114.78 Y110.79 E332.848 F1800
G1 X118.31 Y107.26 E332.93
G1 X121.84 Y103.73 E333.012
G1 X125.37 Y100.19 E333.095
G1 X128.9 Y96.66 E333.177
G1 X132.43 Y93.13 E333.259
G1 X135.96 Y89.6 E333.341
G1 X135.39 Y89.47 F6000
G1 X131.89 Y92.97 E333.422 F1800
G1 X128.4 Y96.46 E333.504
G1 X124.9 Y99.96 E333.585
G1 X121.4 Y103.46 E333.667
G1 X117.9 Y106.96 E333.748
G1 X114.41 Y110.45 E333.83
G1 X110.91 Y113.95 E333.911
G1 X110.58 Y113.57 F6000
G1 X114.04 Y110.11 E333.992 F1800
G1 X117.5 Y106.65 E334.072
G1 X120.96 Y103.19 E334.153
G1 X124.43 Y99.72 E334.233
G1 X127.89 Y96.26 E334.314
G1 X131.35 Y92.8 E334.394
G1 X134.81 Y89.34 E334.475
G1 X134.24 Y89.21 F6000
G1 X130.81 Y92.64 E334.555 F1800
G1 X127.38 Y96.06 E334.634
G1 X123.95 Y99.49 E334.714
G1 X120.53 Y102.92 E334.794
G1 X117.1 Y106.35 E334.874
G1 X113.67 Y109.77 E334.953
G1 X110.24 Y113.2 E335.033
G1 X109.91 Y112.83 F6000
G1 X113.34 Y109.4 E335.113 F1800
G1 X116.76 Y105.98 E335.192
G1 X120.19 Y102.55 E335.272
G1 X123.61 Y99.13 E335.352
G1 X127.04 Y95.7 E335.432
G1 X130.46 Y92.28 E335.511
G1 X133.89 Y88.85 E335.591
G1 X133.55 Y88.48 F6000
G1 X130.13 Y91.91 E335.671 F1800
G1 X126.7 Y95.33 E335.75
G1 X123.28 Y98.76 E335.83
G1 X119.85 Y102.18 E335.91
G1 X116.43 Y105.61 E335.99
G1 X113 Y109.03 E336.069
G1 X109.58 Y112.46 E336.149
G1 X109.24 Y112.08 F6000
G1 X112.66 Y108.66 E336.229 F1800
G1 X116.09 Y105.23 E336.308
G1 X119.51 Y101.81 E336.388
G1 X122.94 Y98.39 E336.468
G1 X126.36 Y94.97 E336.548
G1 X129.79 Y91.54 E336.627
G1 X133.21 Y88.12 E336.707
G1 X132.87 Y87.75 F6000
G1 X129.45 Y91.17 E336.787 F1800
G1 X126.02 Y94.6 E336.866
G1 X122.6 Y98.02 E336.946
G1 X119.18 Y101.44 E337.026
G1 X115.76 Y104.86 E337.106
G1 X112.33 Y108.29 E337.185
G1 X108.91 Y111.71 E337.265
G1 X108.57 Y111.34 F6000
G1 X112 Y107.91 E337.345 F1800
G1 X115.42 Y104.49 E337.424
G1 X118.85 Y101.06 E337.504
G1 X122.27 Y97.64 E337.584
G1 X125.7 Y94.21 E337.664
G1 X129.12 Y90.79 E337.743
G1 X132.55 Y87.36 E337.823
G1 X132.4 Y86.81 F6000
G1 X128.95 Y90.26 E337.903 F1800
G1 X125.5 Y93.71 E337.984
G1 X122.05 Y97.16 E338.064
G1 X118.59 Y100.62 E338.144
G1 X115.14 Y104.07 E338.224
G1 X111.69 Y107.52 E338.305
G1 X108.24 Y110.97 E338.385
G1 X107.9 Y110.59 F6000
G1 X111.38 Y107.11 E338.466 F1800
G1 X114.85 Y103.64 E338.547
G1 X118.33 Y100.16 E338.628
G1 X121.81 Y96.68 E338.709
G1 X125.29 Y93.2 E338.79
G1 X128.76 Y89.73 E338.871
G1 X132.24 Y86.25 E338.952
G1 X132.09 Y85.7 F6000
G1 X128.6 Y89.19 E339.033 F1800
G1 X125.11 Y92.68 E339.115
G1 X121.62 Y96.17 E339.196
G1 X118.13 Y99.66 E339.277
G1 X114.64 Y103.15 E339.358
G1 X111.15 Y106.64 E339.44
G1 X107.66 Y110.13 E339.521
G1 X107.42 Y109.66 F6000
G1 X110.79 Y106.29 E339.599 F1800
G1 X114.15 Y102.93 E339.678
G1 X117.52 Y99.56 E339.756
G1 X120.89 Y96.19 E339.834
G1 X124.26 Y92.82 E339.912
G1 X127.62 Y89.46 E339.991
G1 X130.99 Y86.09 E340.069
G1 X131.18 Y86.28 F6000
G1 X128.62 Y87.75
G1 X125.56 Y90.81 E340.14 F1800
G1 X122.49 Y93.88 E340.212
G1 X119.43 Y96.94 E340.283
G1 X116.37 Y100 E340.354
G1 X113.31 Y103.06 E340.425
G1 X110.24 Y106.13 E340.497
G1 X107.18 Y109.19 E340.568
G1 X106.95 Y108.72 F6000
G1 X110.34 Y105.34 E340.647 F1800
G1 X113.72 Y101.95 E340.726
G1 X117.11 Y98.57 E340.805
G1 X120.49 Y95.18 E340.883
G1 X123.88 Y91.8 E340.962
G1 X127.26 Y88.41 E341.041
G1 X125.89 Y89.07 F6000
G1 X122.69 Y92.27 E341.115 F1800
G1 X119.5 Y95.46 E341.19
G1 X116.3 Y98.66 E341.264
G1 X113.1 Y101.86 E341.338
G1 X109.91 Y105.05 E341.413
G1 X106.71 Y108.25 E341.487
G1 X106.47 Y107.78 F6000
G1 X109.54 Y104.72 E341.558 F1800
G1 X112.6 Y101.65 E341.63
G1 X115.67 Y98.59 E341.701
G1 X118.73 Y95.53 E341.772
G1 X121.8 Y92.46 E341.844
G1 X124.86 Y89.4 E341.915
G1 X124.01 Y89.54 F6000
G1 X121.05 Y92.5 E341.984 F1800
G1 X118.09 Y95.46 E342.053
G1 X115.13 Y98.43 E342.122
G1 X112.16 Y101.39 E342.191
G1 X109.2 Y104.35 E342.26
G1 X106.24 Y107.31 E342.329
G1 X106 Y106.84 F6000
G1 X109.43 Y103.41 E342.409 F1800
G1 X112.86 Y99.98 E342.489
G1 X116.3 Y96.54 E342.569
G1 X119.73 Y93.11 E342.649
G1 X123.16 Y89.68 E342.729
G1 X122.35 Y89.78 F6000
G1 X119.03 Y93.1 E342.806 F1800
G1 X115.71 Y96.42 E342.883
G1 X112.4 Y99.73 E342.961
G1 X109.08 Y103.05 E343.038
G1 X105.76 Y106.37 E343.115
G1 X105.52 Y105.9 F6000
G1 X108.78 Y102.64 E343.191 F1800
G1 X112.04 Y99.38 E343.267
G1 X115.31 Y96.12 E343.342
G1 X118.57 Y92.86 E343.418
G1 X121.83 Y89.6 E343.494
G1 X121.31 Y89.41 F6000
G1 X118.11 Y92.61 E343.569 F1800
G1 X114.9 Y95.82 E343.643
G1 X111.7 Y99.02 E343.718
G1 X108.49 Y102.23 E343.792
G1 X105.29 Y105.43 E343.867
G1 X105.05 Y104.96 F6000
G1 X108.2 Y101.81 E343.94 F1800
G1 X111.35 Y98.66 E344.014
G1 X114.49 Y95.52 E344.087
G1 X117.64 Y92.37 E344.161
G1 X120.79 Y89.22 E344.234
G1 X120.27 Y89.04 F6000
G1 X117.19 Y92.11 E344.306 F1800
G1 X114.12 Y95.19 E344.377
G1 X111.04 Y98.26 E344.449
G1 X107.97 Y101.34 E344.52
G1 X104.89 Y104.41 E344.592
G1 X104.79 Y103.81 F6000
G1 X107.81 Y100.79 E344.662 F1800
G1 X110.83 Y97.76 E344.732
G1 X113.86 Y94.74 E344.803
G1 X116.88 Y91.71 E344.873
G1 X119.9 Y88.69 E344.943
G1 X119.65 Y88.24 F6000
G1 X116.66 Y91.23 E345.013 F1800
G1 X113.67 Y94.22 E345.082
G1 X110.67 Y97.22 E345.152
G1 X107.68 Y100.21 E345.221
G1 X104.69 Y103.2 E345.291
G1 X104.59 Y102.59 F6000
G1 X107.55 Y99.63 E345.36 F1800
G1 X110.51 Y96.67 E345.429
G1 X113.47 Y93.71 E345.498
G1 X116.43 Y90.75 E345.567
G1 X119.39 Y87.79 E345.636
G1 X119.13 Y87.34 F6000
G1 X116.2 Y90.27 E345.704 F1800
G1 X113.27 Y93.2 E345.772
G1 X110.35 Y96.12 E345.84
G1 X107.42 Y99.05 E345.908
G1 X104.49 Y101.98 E345.976
G1 X104.39 Y101.37 F6000
G1 X107.29 Y98.47 E346.044 F1800
G1 X110.18 Y95.58 E346.111
G1 X113.08 Y92.68 E346.179
G1 X115.97 Y89.79 E346.246
G1 X118.87 Y86.89 E346.314
G1 X118.81 Y86.25 F6000
G1 X115.91 Y89.15 E346.381 F1800
G1 X113 Y92.06 E346.449
G1 X110.1 Y94.96 E346.516
G1 X107.19 Y97.87 E346.584
G1 X104.29 Y100.77 E346.651
G1 X104.19 Y100.16 F6000
G1 X107.11 Y97.24 E346.719 F1800
G1 X110.03 Y94.32 E346.787
G1 X112.96 Y91.39 E346.855
G1 X115.88 Y88.47 E346.923
G1 X118.8 Y85.55 E346.991
G1 X118.8 Y84.85 F6000
G1 X115.86 Y87.79 E347.06 F1800
G1 X112.92 Y90.73 E347.128
G1 X109.98 Y93.67 E347.197
G1 X107.04 Y96.61 E347.265
G1 X104.1 Y99.55 E347.334
G1 X104 Y98.94 F6000
G1 X106.96 Y95.98 E347.403 F1800
G1 X109.92 Y93.02 E347.472
G1 X112.87 Y90.07 E347.54
G1 X115.83 Y87.11 E347.609
G1 X118.79 Y84.15 E347.678
G1 X118.91 Y83.32 F6000
G1 X115.94 Y86.29 E347.747 F1800
G1 X112.97 Y89.26 E347.816
G1 X109.99 Y92.24 E347.886
G1 X107.02 Y95.21 E347.955
G1 X104.05 Y98.18 E348.024
G1 X104.19 Y97.34 F6000
G1 X107.19 Y94.34 E348.094 F1800
G1 X110.19 Y91.34 E348.164
G1 X113.19 Y88.34 E348.233
G1 X116.19 Y85.34 E348.303
G1 X119.19 Y82.34 E348.373
G1 X119.46 Y81.36 F6000
G1 X116.43 Y84.39 E348.443 F1800
G1 X113.41 Y87.41 E348.514
G1 X110.38 Y90.44 E348.584
G1 X107.36 Y93.46 E348.655
G1 X104.33 Y96.49 E348.725
G1 X104.46 Y95.65 F6000
G1 X107.52 Y92.59 E348.796 F1800
G1 X110.57 Y89.54 E348.867
G1 X113.63 Y86.48 E348.939
G1 X116.68 Y83.43 E349.01
G1 X119.74 Y80.37 E349.081
G1 X120.29 Y79.11 F6000
G1 X117.15 Y82.25 E349.154 F1800
G1 X114.01 Y85.39 E349.227
G1 X110.88 Y88.52 E349.3
G1 X107.74 Y91.66 E349.373
G1 X104.6 Y94.8 E349.446
G1 X104.74 Y93.96 F6000
G1 X107.98 Y90.71 E349.522 F1800
G1 X111.23 Y87.47 E349.597
G1 X114.47 Y84.22 E349.673
G1 X117.72 Y80.98 E349.748
G1 X120.96 Y77.73 E349.824
G1 X120.05 Y76.53 F6000
G1 X116.55 Y80.04 E349.906 F1800
G1 X113.04 Y83.54 E349.987
G1 X109.54 Y87.05 E350.069
G1 X106.03 Y90.55 E350.15
G1 X105.31 Y91.97 F6000
G1 X108.52 Y88.76 E350.225 F1800
G1 X111.74 Y85.55 E350.3
G1 X114.95 Y82.33 E350.374
G1 X118.17 Y79.12 E350.449
G1 X121.38 Y75.91 E350.524
G1 X121.63 Y76.36 F6000
G1 X118.28 Y79.71 E350.602 F1800
G1 X114.93 Y83.06 E350.68
G1 X111.58 Y86.41 E350.758
G1 X108.23 Y89.76 E350.836
G1 X104.88 Y93.11 E350.914
G1 X105.25 F6000
G1 X106.75 Y89.12
G1 X109.67 Y86.2 E350.982 F1800
G1 X112.58 Y83.29 E351.05
G1 X115.5 Y80.37 E351.118
G1 X118.41 Y77.45 E351.186
G1 X118.6 Y77.64 F6000
G1 X115.95 Y79.21
G1 X113.13 Y82.04 E351.252 F1800
G1 X110.3 Y84.86 E351.317
G1 X107.48 Y87.69 E351.383
G1 X107.66 Y87.87 F6000
G1 X110.6 Y83.86
G1 X113.48 Y80.97 E351.45 F1800
G1 E347.95 F3000
G1 E344.45
G1 X113.67 Y81.16 F6000
G1 X115.47 Y85.97
G1 X117.28 Y90.78
G1 X119.08 Y95.59
G1 X120.88 Y100.41
G1 X122.68 Y105.22
G1 X124.49 Y110.03
G1 X126.29 Y114.84
G1 E347.95 F3000
G1 E351.45
G1 X123.22 Y117.91 E351.522 F1800
G1 X120.15 Y120.97 E351.593
G1 X120.63 Y121.2 F6000
G1 X123.23 Y118.61 E351.654 F1800
G1 X125.82 Y116.01 E351.714
G1 X125.44 Y117.09 F6000
G1 X123.28 Y119.26 E351.764 F1800
G1 X121.11 Y121.42 E351.814
G1 X121.6 Y121.65 F6000
G1 X123.49 Y119.76 E351.858 F1800
G1 X125.37 Y117.87 E351.902
G1 X125.3 Y118.65 F6000
G1 X122.08 Y121.87 E351.977 F1800
G1 X122.56 Y122.1 F6000
G1 X125.23 Y119.43 E352.039 F1800
G1 X125.22 Y120.15 F6000
G1 X123.04 Y122.32 E352.09 F1800
G1 X123.52 Y122.55 F6000
G1 X125.31 Y120.76 E352.132 F1800
G1 X125.41 Y121.37 F6000
G1 X124.01 Y122.77 E352.164 F1800
G1 X124.49 Y123 F6000
G1 X125.51 Y121.97 E352.188 F1800
G1 X125.61 Y122.58 F6000
G1 X124.97 Y123.22 E352.203 F1800
G1 X125.45 Y123.45 F6000
G1 X125.73 Y123.17 E352.21 F1800
G1 E348.71 F3000
G1 E345.21
G1 X131.79 Y121.82 F6000
G1 X137.86 Y120.47
G1 X143.92 Y119.12
G1 E348.71 F3000
G1 E352.21
G1 X147.26 Y115.78 E352.288 F1800
G1 X150.61 Y112.43 E352.366
G1 X153.95 Y109.09 E352.443
G1 X157.3 Y105.75 E352.521
G1 X160.64 Y102.4 E352.599
G1 X163.99 Y99.06 E352.677
G1 X167.33 Y95.72 E352.754
G1 X170.68 Y92.37 E352.832
G1 X174.02 Y89.03 E352.91
G1 X174.5 Y89.26 F6000
G1 X171.12 Y92.64 E352.989 F1800
G1 X167.73 Y96.02 E353.068
G1 X164.35 Y99.41 E353.146
G1 X160.97 Y102.79 E353.225
G1 X157.58 Y106.17 E353.304
G1 X154.2 Y109.55 E353.383
G1 X150.82 Y112.94 E353.461
G1 X147.43 Y116.32 E353.54
G1 X144.05 Y119.7 E353.619
G1 X144.17 Y120.29 F6000
G1 X147.6 Y116.86 E353.699 F1800
G1 X151.04 Y113.42 E353.779
G1 X154.47 Y109.99 E353.859
G1 X157.9 Y106.55 E353.939
G1 X161.34 Y103.12 E354.018
G1 X164.77 Y99.68 E354.098
G1 X168.2 Y96.25 E354.178
G1 X171.64 Y92.81 E354.258
G1 X175.07 Y89.38 E354.338
G1 X175.68 Y89.49 F6000
G1 X172.19 Y92.98 E354.419 F1800
G1 X168.71 Y96.46 E354.5
G1 X165.22 Y99.95 E354.582
G1 X161.73 Y103.44 E354.663
G1 X158.25 Y106.92 E354.744
G1 X154.76 Y110.41 E354.825
G1 X151.27 Y113.9 E354.907
G1 X147.79 Y117.38 E354.988
G1 X144.3 Y120.87 E355.069
G1 X144.42 Y121.45 F6000
G1 X147.61 Y118.26 E355.143 F1800
G1 X150.79 Y115.08 E355.217
G1 X153.98 Y111.89 E355.291
G1 X157.17 Y108.71 E355.365
G1 X160.36 Y105.52 E355.44
G1 X163.54 Y102.33 E355.514
G1 X166.73 Y99.15 E355.588
G1 X169.92 Y95.96 E355.662
G1 X173.1 Y92.78 E355.736
G1 X176.29 Y89.59 E355.81
G1 X176.89 Y89.69 F6000
G1 X173.66 Y92.92 E355.885 F1800
G1 X170.42 Y96.16 E355.961
G1 X167.19 Y99.39 E356.036
G1 X163.95 Y102.63 E356.111
G1 X160.72 Y105.86 E356.187
G1 X157.49 Y109.09 E356.262
G1 X154.25 Y112.33 E356.337
G1 X151.02 Y115.56 E356.412
G1 X147.78 Y118.8 E356.488
G1 X144.55 Y122.03 E356.563
G1 X144.67 Y122.62 F6000
G1 X148.06 Y119.23 E356.642 F1800
G1 X151.45 Y115.84 E356.721
G1 X154.84 Y112.45 E356.8
G1 X158.23 Y109.06 E356.879
G1 X158.32 Y108.96 F6000
G1 X161.52 Y105.77 E356.953 F1800
G1 X164.71 Y102.57 E357.028
G1 X167.91 Y99.38 E357.102
G1 X171.11 Y96.18 E357.176
G1 X174.3 Y92.99 E357.251
G1 X177.5 Y89.79 E357.325
G1 X178.52 Y89.47 F6000
G1 X175.31 Y92.69 E357.4 F1800
G1 X172.09 Y95.9 E357.475
G1 X168.88 Y99.12 E357.55
G1 X165.66 Y102.33 E357.624
G1 X162.45 Y105.55 E357.699
G1 X159.23 Y108.76 E357.774
G1 X159.98 Y108.72 F6000
G1 X163.26 Y105.45 E357.85 F1800
G1 X166.53 Y102.17 E357.927
G1 X169.81 Y98.9 E358.003
G1 X173.08 Y95.62 E358.079
G1 X176.36 Y92.35 E358.156
G1 X179.63 Y89.07 E358.232
G1 X180.21 Y88.49 F6000
G1 X183.72 Y84.99 E358.314 F1800
G1 X187.22 Y81.48 E358.395
G1 X187.58 Y81.83 F6000
G1 X184.22 Y85.19 E358.473 F1800
G1 X180.87 Y88.55 E358.551
G1 X177.51 Y91.9 E358.629
G1 X174.15 Y95.26 E358.708
G1 X170.79 Y98.62 E358.786
G1 X167.44 Y101.98 E358.864
G1 X164.08 Y105.33 E358.942
G1 X160.72 Y108.69 E359.02
G1 X161.47 Y108.65 F6000
G1 X164.78 Y105.34 E359.097 F1800
G1 X168.08 Y102.04 E359.174
G1 X171.39 Y98.73 E359.251
G1 X174.69 Y95.43 E359.328
G1 X178 Y92.12 E359.405
G1 X181.3 Y88.81 E359.482
G1 X184.61 Y85.51 E359.559
G1 X187.91 Y82.2 E359.636
G1 X188.25 Y82.57 F6000
G1 X185 Y85.83 E359.712 F1800
G1 X181.74 Y89.08 E359.788
G1 X178.49 Y92.34 E359.863
G1 X175.23 Y95.59 E359.939
G1 X171.98 Y98.85 E360.015
G1 X168.72 Y102.1 E360.091
G1 X165.47 Y105.36 E360.166
G1 X162.21 Y108.61 E360.242
G1 X162.94 Y108.59 F6000
G1 X166.15 Y105.39 E360.317 F1800
G1 X169.35 Y102.18 E360.391
G1 X172.56 Y98.98 E360.466
G1 X175.76 Y95.77 E360.541
G1 X178.97 Y92.57 E360.615
G1 X182.17 Y89.36 E360.69
G1 X185.38 Y86.16 E360.764
G1 X188.58 Y82.95 E360.839
G1 X188.92 Y83.32 F6000
G1 X185.75 Y86.49 E360.913 F1800
G1 X182.58 Y89.66 E360.987
G1 X179.41 Y92.83 E361.06
G1 X176.24 Y96 E361.134
G1 X173.06 Y99.17 E361.208
G1 X169.89 Y102.34 E361.282
G1 X166.72 Y105.51 E361.355
G1 X163.55 Y108.68 E361.429
G1 X164.17 Y108.77 F6000
G1 X167.31 Y105.64 E361.502 F1800
G1 X170.44 Y102.5 E361.575
G1 X173.58 Y99.37 E361.648
G1 X176.71 Y96.23 E361.721
G1 X179.85 Y93.1 E361.794
G1 X182.98 Y89.96 E361.867
G1 X186.12 Y86.83 E361.94
G1 X189.25 Y83.69 E362.013
G1 X189.59 Y84.06 F6000
G1 X186.49 Y87.16 E362.085 F1800
G1 X183.39 Y90.26 E362.157
G1 X180.29 Y93.36 E362.229
G1 X177.19 Y96.46 E362.302
G1 X174.09 Y99.56 E362.374
G1 X170.99 Y102.66 E362.446
G1 X167.89 Y105.76 E362.518
G1 X164.79 Y108.86 E362.59
G1 X165.41 Y108.95 F6000
G1 X168.91 Y105.45 E362.672 F1800
G1 X172.41 Y101.95 E362.753
G1 X175.91 Y98.45 E362.835
G1 X179.42 Y94.94 E362.916
G1 X182.92 Y91.44 E362.998
G1 X186.42 Y87.94 E363.079
G1 X189.92 Y84.44 E363.161
G1 X190.26 Y84.81 F6000
G1 X186.8 Y88.27 E363.241 F1800
G1 X183.34 Y91.73 E363.322
G1 X179.88 Y95.19 E363.402
G1 X176.41 Y98.66 E363.483
G1 X172.95 Y102.12 E363.563
G1 X169.49 Y105.58 E363.644
G1 X166.03 Y109.04 E363.724
G1 X166.57 Y109.2 F6000
G1 X170 Y105.77 E363.804 F1800
G1 X173.43 Y102.34 E363.884
G1 X176.86 Y98.91 E363.964
G1 X180.3 Y95.47 E364.044
G1 X183.73 Y92.04 E364.124
G1 X187.16 Y88.61 E364.204
G1 X190.59 Y85.18 E364.284
G1 X190.93 Y85.55 F6000
G1 X187.52 Y88.96 E364.363 F1800
G1 X184.12 Y92.36 E364.442
G1 X180.71 Y95.77 E364.521
G1 X177.31 Y99.17 E364.601
G1 X173.9 Y102.58 E364.68
G1 X170.5 Y105.98 E364.759
G1 X167.09 Y109.39 E364.838
G1 X167.6 Y109.59 F6000
G1 X170.98 Y106.21 E364.917 F1800
G1 X174.36 Y102.83 E364.995
G1 X177.74 Y99.45 E365.074
G1 X181.12 Y96.07 E365.153
G1 X184.5 Y92.69 E365.232
G1 X187.88 Y89.31 E365.31
G1 X191.26 Y85.93 E365.389
G1 X191.59 Y86.3 F6000
G1 X188.24 Y89.65 E365.467 F1800
G1 X184.88 Y93.01 E365.545
G1 X181.53 Y96.36 E365.623
G1 X178.17 Y99.72 E365.702
G1 X174.82 Y103.07 E365.78
G1 X171.46 Y106.43 E365.858
G1 X168.11 Y109.78 E365.936
G1 X168.62 Y109.98 F6000
G1 X171.95 Y106.65 E366.013 F1800
G1 X175.28 Y103.32 E366.091
G1 X178.61 Y99.99 E366.168
G1 X181.94 Y96.66 E366.246
G1 X185.27 Y93.33 E366.323
G1 X188.6 Y90 E366.401
G1 X191.93 Y86.67 E366.478
G1 X192.22 Y87.09 F6000
G1 X188.92 Y90.39 E366.555 F1800
G1 X185.63 Y93.68 E366.632
G1 X182.33 Y96.98 E366.709
G1 X179.03 Y100.28 E366.785
G1 X175.73 Y103.58 E366.862
G1 X172.44 Y106.87 E366.939
G1 X169.14 Y110.17 E367.016
G1 X169.56 Y110.45 F6000
G1 X172.83 Y107.18 E367.092 F1800
G1 X176.1 Y103.91 E367.168
G1 X179.37 Y100.64 E367.244
G1 X182.65 Y97.37 E367.32
G1 X185.92 Y94.1 E367.396
G1 X189.19 Y90.83 E367.472
G1 X192.46 Y87.56 E367.548
G1 X192.7 Y88.03 F6000
G1 X189.45 Y91.28 E367.624 F1800
G1 X186.21 Y94.52 E367.699
G1 X182.96 Y97.77 E367.775
G1 X179.72 Y101.01 E367.85
G1 X176.47 Y104.26 E367.926
G1 X173.23 Y107.5 E368.001
G1 X169.98 Y110.75 E368.077
G1 X170.39 Y111.04 F6000
G1 X173.61 Y107.82 E368.152 F1800
G1 X176.83 Y104.6 E368.227
G1 X180.05 Y101.38 E368.302
G1 X183.27 Y98.16 E368.377
G1 X186.49 Y94.94 E368.452
G1 X189.71 Y91.72 E368.527
G1 X192.93 Y88.5 E368.602
G1 X193.17 Y88.97 F6000
G1 X189.97 Y92.16 E368.676 F1800
G1 X186.78 Y95.36 E368.751
G1 X183.58 Y98.55 E368.825
G1 X180.39 Y101.75 E368.9
G1 X177.19 Y104.94 E368.974
G1 X174 Y108.14 E369.049
G1 X170.8 Y111.33 E369.123
G1 X171.22 Y111.63 F6000
G1 X174.39 Y108.46 E369.197 F1800
G1 X177.56 Y105.29 E369.27
G1 X180.73 Y102.12 E369.344
G1 X183.9 Y98.95 E369.418
G1 X187.07 Y95.78 E369.492
G1 X190.24 Y92.61 E369.565
G1 X193.41 Y89.44 E369.639
G1 X193.64 Y89.91 F6000
G1 X190.5 Y93.05 E369.712 F1800
G1 X187.35 Y96.2 E369.786
G1 X184.21 Y99.34 E369.859
G1 X181.06 Y102.49 E369.932
G1 X177.92 Y105.63 E370.005
G1 X174.77 Y108.78 E370.079
G1 X171.63 Y111.92 E370.152
G1 X171.95 Y112.31 F6000
G1 X175.08 Y109.18 E370.225 F1800
G1 X178.22 Y106.04 E370.298
G1 X181.35 Y102.91 E370.371
G1 X184.48 Y99.78 E370.443
G1 X187.61 Y96.65 E370.516
G1 X190.75 Y93.51 E370.589
G1 X193.88 Y90.38 E370.662
G1 X194.12 Y90.84 F6000
G1 X191 Y93.96 E370.735 F1800
G1 X187.87 Y97.09 E370.807
G1 X184.75 Y100.21 E370.88
G1 X181.63 Y103.33 E370.953
G1 X178.51 Y106.45 E371.026
G1 X175.38 Y109.58 E371.098
G1 X172.26 Y112.7 E371.171
G1 X172.58 Y113.1 F6000
G1 X175.69 Y109.99 E371.243 F1800
G1 X178.8 Y106.87 E371.316
G1 X181.91 Y103.76 E371.388
G1 X185.03 Y100.65 E371.461
G1 X188.14 Y97.54 E371.533
G1 X191.25 Y94.42 E371.606
G1 X194.36 Y91.31 E371.678
G1 X194.59 Y91.78 F6000
G1 X191.49 Y94.88 E371.75 F1800
G1 X188.39 Y97.98 E371.822
G1 X185.29 Y101.08 E371.894
G1 X182.19 Y104.19 E371.967
G1 X179.09 Y107.29 E372.039
G1 X175.99 Y110.39 E372.111
G1 X172.89 Y113.49 E372.183
G1 X173.2 Y113.88 F6000
G1 X176.29 Y110.79 E372.255 F1800
G1 X179.38 Y107.7 E372.327
G1 X182.47 Y104.61 E372.399
G1 X185.56 Y101.52 E372.47
G1 X188.65 Y98.43 E372.542
G1 X191.74 Y95.34 E372.614
G1 X194.83 Y92.25 E372.686
G1 X195.06 Y92.73 F6000
G1 X191.98 Y95.81 E372.758 F1800
G1 X188.9 Y98.89 E372.829
G1 X185.82 Y101.97 E372.901
G1 X182.74 Y105.05 E372.973
G1 X179.66 Y108.13 E373.045
G1 X176.58 Y111.21 E373.116
G1 X173.5 Y114.29 E373.188
G1 X173.7 Y114.8 F6000
G1 X176.77 Y111.73 E373.259 F1800
G1 X179.83 Y108.67 E373.331
G1 X182.9 Y105.6 E373.402
G1 X185.96 Y102.54 E373.474
G1 X189.03 Y99.47 E373.545
G1 X192.09 Y96.41 E373.617
G1 X195.16 Y93.34 E373.688
G1 X195.26 Y93.95 F6000
G1 X192.21 Y97 E373.759 F1800
G1 X189.16 Y100.05 E373.83
G1 X186.11 Y103.1 E373.901
G1 X183.05 Y106.16 E373.972
G1 X180 Y109.21 E374.043
G1 X176.95 Y112.26 E374.114
G1 X173.9 Y115.31 E374.185
G1 X174.1 Y115.81 F6000
G1 X177.14 Y112.77 E374.256 F1800
G1 X180.17 Y109.74 E374.326
G1 X183.21 Y106.7 E374.397
G1 X186.25 Y103.67 E374.468
G1 X189.29 Y100.63 E374.539
G1 X192.32 Y97.6 E374.609
G1 X195.36 Y94.56 E374.68
G1 X195.46 Y95.17 F6000
G1 X191.93 Y98.7 E374.762 F1800
G1 X188.41 Y102.22 E374.844
G1 X184.88 Y105.75 E374.926
G1 X181.35 Y109.27 E375.008
G1 X177.83 Y112.8 E375.09
G1 X174.3 Y116.32 E375.172
G1 X174.5 Y116.83 F6000
G1 X178.01 Y113.32 E375.254 F1800
G1 X181.52 Y109.81 E375.335
G1 X185.03 Y106.3 E375.417
G1 X188.53 Y102.79 E375.499
G1 X192.04 Y99.28 E375.58
G1 X195.55 Y95.77 E375.662
G1 X195.65 Y96.38 F6000
G1 X192.14 Y99.89 E375.744 F1800
G1 X188.63 Y103.4 E375.826
G1 X185.12 Y106.92 E375.908
G1 X181.61 Y110.43 E375.989
G1 X178.1 Y113.94 E376.071
G1 X174.59 Y117.45 E376.153
G1 X174.65 Y118.09 F6000
G1 X178.17 Y114.57 E376.235 F1800
G1 X181.68 Y111.06 E376.317
G1 X185.2 Y107.54 E376.399
G1 X188.72 Y104.02 E376.48
G1 X192.23 Y100.51 E376.562
G1 X195.75 Y96.99 E376.644
G1 X195.85 Y97.6 F6000
G1 X192.33 Y101.12 E376.726 F1800
G1 X188.8 Y104.65 E376.808
G1 X185.28 Y108.17 E376.89
G1 X181.76 Y111.69 E376.972
G1 X178.23 Y115.22 E377.054
G1 X174.71 Y118.74 E377.136
G1 X174.77 Y119.39 F6000
G1 X178.3 Y115.86 E377.218 F1800
G1 X181.83 Y112.33 E377.3
G1 X185.36 Y108.8 E377.383
G1 X188.89 Y105.26 E377.465
G1 X192.42 Y101.73 E377.547
G1 X195.95 Y98.2 E377.629
G1 X196.02 Y98.84 F6000
G1 X192.99 Y101.87 E377.7 F1800
G1 X189.96 Y104.91 E377.77
G1 X186.93 Y107.94 E377.841
G1 X183.89 Y110.97 E377.911
G1 X180.86 Y114 E377.982
G1 X177.83 Y117.04 E378.052
G1 X174.8 Y120.07 E378.123
G1 X174.66 Y120.91 F6000
G1 X177.69 Y117.88 E378.194 F1800
G1 X180.72 Y114.85 E378.264
G1 X183.75 Y111.82 E378.335
G1 X186.79 Y108.78 E378.405
G1 X189.82 Y105.75 E378.476
G1 X192.85 Y102.72 E378.546
G1 X195.88 Y99.69 E378.617
G1 X195.74 Y100.54 F6000
G1 X192.71 Y103.57 E378.688 F1800
G1 X189.68 Y106.6 E378.758
G1 X186.65 Y109.63 E378.829
G1 X183.61 Y112.67 E378.899
G1 X180.58 Y115.7 E378.97
G1 X177.55 Y118.73 E379.04
G1 X174.52 Y121.76 E379.111
G1 X174.38 Y122.6 F6000
G1 X177.41 Y119.57 E379.182 F1800
G1 X180.44 Y116.54 E379.252
G1 X183.47 Y113.51 E379.323
G1 X186.51 Y110.47 E379.393
G1 X189.54 Y107.44 E379.464
G1 X192.57 Y104.41 E379.534
G1 X195.6 Y101.38 E379.605
G1 X195.47 Y102.23 F6000
G1 X192.43 Y105.27 E379.676 F1800
G1 X189.39 Y108.31 E379.746
G1 X186.35 Y111.35 E379.817
G1 X183.31 Y114.38 E379.888
G1 X180.27 Y117.42 E379.959
G1 X177.23 Y120.46 E380.029
G1 X174.19 Y123.5 E380.1
G1 X175.3 Y123.1 F6000
G1 X178.64 Y119.76 E380.178 F1800
G1 X181.98 Y116.42 E380.255
G1 X185.32 Y113.09 E380.333
G1 X188.65 Y109.75 E380.411
G1 X191.99 Y106.41 E380.488
G1 X195.33 Y103.07 E380.566
G1 X195.19 Y103.92 F6000
G1 X192.1 Y107.01 E380.638 F1800
G1 X189 Y110.11 E380.71
G1 X185.91 Y113.2 E380.782
G1 X182.82 Y116.29 E380.854
G1 X179.72 Y119.39 E380.926
G1 X176.63 Y122.48 E380.998
G1 X177.96 Y121.86 F6000
G1 X181.38 Y118.44 E381.078 F1800
G1 X184.8 Y115.02 E381.157
G1 X188.21 Y111.6 E381.237
G1 X191.63 Y108.18 E381.316
G1 X195.05 Y104.76 E381.396
G1 X194.33 Y106.19 F6000
G1 X191.32 Y109.2 E381.466 F1800
G1 X188.31 Y112.21 E381.536
G1 X185.3 Y115.22 E381.607
G1 X182.29 Y118.23 E381.677
G1 X179.28 Y121.24 E381.747
G1 X180.61 Y120.62 F6000
G1 X183.86 Y117.37 E381.823 F1800
G1 X187.11 Y114.12 E381.898
G1 X190.36 Y110.87 E381.974
G1 X193.61 Y107.62 E382.049
G1 X192.89 Y109.05 F6000
G1 X189.53 Y112.41 E382.127 F1800
G1 X186.18 Y115.76 E382.205
G1 X182.82 Y119.12 E382.283
G1 X182.44 Y118.74 F6000
G1 X184.29 Y117.42
G1 X185.28 Y117.36
G1 X188.72 Y113.92 E382.364 F1800
G1 X192.16 Y110.48 E382.444
G1 E378.944 F3000
G1 E375.444
G1 X191.79 Y110.1 F6000
G1 X189.66 Y105.45
G1 X187.54 Y100.79
G1 X185.41 Y96.14
G1 X183.29 Y91.48
G1 X181.16 Y86.83
G1 E378.944 F3000
G1 E382.444
G1 X183.99 Y84.01 E382.51 F1800
G1 X186.81 Y81.18 E382.575
G1 X186.4 Y80.89 F6000
G1 X183.8 Y83.5 E382.636 F1800
G1 X181.19 Y86.1 E382.696
G1 X181.2 Y85.38 F6000
G1 X183.6 Y82.99 E382.752 F1800
G1 X185.99 Y80.59 E382.808
G1 X185.57 Y80.3 F6000
G1 X183.39 Y82.49 E382.859 F1800
G1 X181.2 Y84.67 E382.91
G1 X181.21 Y83.96 F6000
G1 X183.19 Y81.98 E382.956 F1800
G1 X185.16 Y80 E383.002
G1 X184.75 Y79.71 F6000
G1 X182.93 Y81.54 E383.044 F1800
G1 X181.1 Y83.36 E383.086
G1 X180.94 Y82.81 F6000
G1 X184.33 Y79.42 E383.165 F1800
G1 X183.92 Y79.12 F6000
G1 X180.79 Y82.25 E383.238 F1800
G1 X180.63 Y81.7 F6000
G1 X183.51 Y78.83 E383.305 F1800
G1 X183.1 Y78.53 F6000
G1 X180.48 Y81.15 E383.366 F1800
G1 X180.32 Y80.6 F6000
G1 X182.68 Y78.24 E383.421 F1800
G1 X182.27 Y77.94 F6000
G1 X180.16 Y80.05 E383.47 F1800
G1 X179.93 Y79.58 F6000
G1 X181.86 Y77.65 E383.515 F1800
G1 X181.45 Y77.36 F6000
G1 X179.7 Y79.1 E383.556 F1800
G1 X179.47 Y78.63 F6000
G1 X181.03 Y77.06 E383.592 F1800
G1 X180.57 Y76.82 F6000
G1 X179.24 Y78.15 E383.623 F1800
G1 X179.01 Y77.67 F6000
G1 X180.09 Y76.59 E383.648 F1800
G1 X179.61 Y76.37 F6000
G1 X178.77 Y77.2 E383.668 F1800
G1 X178.54 Y76.72 F6000
G1 X179.12 Y76.14 E383.681 F1800
G1 X178.64 Y75.91 F6000
G1 X178.31 Y76.25 E383.689 F1800
G1 E380.189 F3000
G1 E376.689
G1 X178.5 Y76.06 F6000
G1 X181.21 Y82.08
G1 X181.12 Y87.19
G1 X178.53 Y89.74
G1 X174.04 Y89.45
G1 X169.44 Y86.85
G1 X169.1 Y86.16
G1 E380.189 F3000
G1 E383.689
G1 X165.78 Y89.48 E383.766 F1800
G1 X162.46 Y92.8 E383.844
G1 X159.14 Y96.12 E383.921
G1 X155.83 Y99.44 E383.998
G1 X152.51 Y102.76 E384.075
G1 X149.19 Y106.08 E384.153
G1 X145.87 Y109.4 E384.23
G1 X142.55 Y112.72 E384.307
G1 X142.68 Y113.3 F6000
G1 X146.03 Y109.95 E384.385 F1800
G1 X149.39 Y106.59 E384.463
G1 X152.74 Y103.24 E384.541
G1 X156.1 Y99.88 E384.62
G1 X159.45 Y96.53 E384.698
G1 X162.8 Y93.17 E384.776
G1 X166.16 Y89.82 E384.854
G1 X169.51 Y86.46 E384.932
G1 X169.92 Y86.75 F6000
G1 X166.53 Y90.14 E385.011 F1800
G1 X163.14 Y93.53 E385.09
G1 X159.75 Y96.92 E385.169
G1 X156.36 Y100.32 E385.248
G1 X152.97 Y103.71 E385.326
G1 X149.58 Y107.1 E385.405
G1 X146.19 Y110.49 E385.484
G1 X142.8 Y113.88 E385.563
G1 X142.92 Y114.46 F6000
G1 X146.35 Y111.03 E385.643 F1800
G1 X149.77 Y107.61 E385.723
G1 X153.2 Y104.18 E385.802
G1 X156.63 Y100.76 E385.882
G1 X160.05 Y97.33 E385.962
G1 X163.48 Y93.9 E386.042
G1 X166.9 Y90.48 E386.121
G1 X170.33 Y87.05 E386.201
G1 X170.75 Y87.35 F6000
G1 X167.29 Y90.81 E386.282 F1800
G1 X163.83 Y94.27 E386.362
G1 X160.36 Y97.73 E386.443
G1 X156.9 Y101.2 E386.524
G1 X153.44 Y104.66 E386.604
G1 X149.98 Y108.12 E386.685
G1 X146.51 Y111.58 E386.765
G1 X143.05 Y115.04 E386.846
G1 X143.17 Y115.63 F6000
G1 X146.67 Y112.13 E386.927 F1800
G1 X150.17 Y108.64 E387.009
G1 X153.67 Y105.14 E387.09
G1 X157.17 Y101.64 E387.172
G1 X160.66 Y98.14 E387.253
G1 X164.16 Y94.65 E387.334
G1 X167.66 Y91.15 E387.416
G1 X171.16 Y87.65 E387.497
G1 X171.63 Y87.88 F6000
G1 X168.48 Y91.03 E387.57 F1800
G1 X165.33 Y94.18 E387.644
G1 X162.19 Y97.32 E387.717
G1 X159.04 Y100.47 E387.79
G1 X155.89 Y103.62 E387.864
G1 X152.74 Y106.77 E387.937
G1 X149.6 Y109.91 E388.01
G1 X146.45 Y113.06 E388.084
G1 X143.3 Y116.21 E388.157
G1 X143.42 Y116.79 F6000
G1 X146.61 Y113.6 E388.231 F1800
G1 X149.8 Y110.42 E388.305
G1 X152.98 Y107.23 E388.379
G1 X156.17 Y104.04 E388.453
G1 X159.36 Y100.86 E388.528
G1 X162.55 Y97.67 E388.602
G1 X165.73 Y94.48 E388.676
G1 X168.92 Y91.3 E388.75
G1 X172.11 Y88.11 E388.824
G1 X172.59 Y88.34 F6000
G1 X169.36 Y91.57 E388.899 F1800
G1 X166.14 Y94.79 E388.974
G1 X162.91 Y98.02 E389.049
G1 X159.68 Y101.24 E389.124
G1 X156.46 Y104.47 E389.2
G1 X153.23 Y107.69 E389.275
G1 X150 Y110.92 E389.35
G1 X146.78 Y114.14 E389.425
G1 X143.55 Y117.37 E389.5
G1 X143.67 Y117.96 F6000
G1 X146.94 Y114.69 E389.576 F1800
G1 X150.2 Y111.43 E389.652
G1 X153.47 Y108.16 E389.728
G1 X156.73 Y104.9 E389.804
G1 X160 Y101.63 E389.881
G1 X163.26 Y98.37 E389.957
G1 X166.53 Y95.1 E390.033
G1 X169.79 Y91.84 E390.109
G1 X173.06 Y88.57 E390.185
G1 X173.54 Y88.8 F6000
G1 X170.24 Y92.1 E390.262 F1800
G1 X166.93 Y95.41 E390.339
G1 X163.63 Y98.71 E390.416
G1 X160.32 Y102.02 E390.493
G1 X157.02 Y105.32 E390.569
G1 X153.71 Y108.63 E390.646
G1 X150.41 Y111.93 E390.723
G1 X147.1 Y115.24 E390.8
G1 X143.8 Y118.54 E390.877
G1 X144.17 Y118.35 F6000
G1 X147.25 Y120.74
G1 X144.8 Y123.2 E390.934 F1800
G1 X144.92 Y123.78 F6000
